; generated by Slic3r 1.2.9 on 2018-01-23 at 19:45:56

; external perimeters extrusion width = 0.30mm
; perimeters extrusion width = 0.40mm
; infill extrusion width = 0.40mm
; solid infill extrusion width = 0.40mm
; top infill extrusion width = 0.40mm

M107
M190 S110 ; set bed temperature
M104 S250 ; set temperature
G28 ; home all axes
G1 Z5 F5000 ; lift nozzle
M109 S250 ; wait for temperature to be reached
G21 ; set units to millimeters
G90 ; use absolute coordinates
M82 ; use absolute distances for extrusion
G92 E0
G1 E-1.00000 F1800.00000
G92 E0
G1 Z0.300 F7800.000
G1 X87.245 Y82.413 F7800.000
G1 E1.00000 F1800.00000
G1 X88.452 Y81.207 E1.11397 F1080.000
G1 X89.135 Y80.682 E1.17153
G1 X90.392 Y79.926 E1.26951
G1 X95.341 Y77.658 E1.63321
G1 X98.063 Y77.064 E1.81933
G1 X104.213 Y77.064 E2.23018
G1 X106.456 Y77.461 E2.38236
G1 X108.268 Y78.474 E2.52102 F1080.000
G1 X111.540 Y81.062 E2.79973
G1 X112.670 Y82.210 E2.90731
G1 X113.240 Y82.953 E2.96988
G1 X114.094 Y84.430 E3.08386
G1 X114.452 Y85.295 E3.14642
G1 X114.893 Y86.943 E3.26040
G1 X115.016 Y87.872 E3.32297
G1 X115.072 Y88.725 E3.38008
G1 X115.072 Y111.275 E4.88654
G1 X115.016 Y112.128 E4.94366
G1 X114.893 Y113.057 E5.00622
G1 X114.452 Y114.705 E5.12020
G1 X114.094 Y115.570 E5.18276
G1 X113.240 Y117.047 E5.29674
G1 X112.670 Y117.790 E5.35931
G1 X111.540 Y118.938 E5.46690
G1 X108.268 Y121.526 E5.74560
G1 X106.263 Y122.606 E5.89777
G1 X104.213 Y122.936 E6.03644
G1 X98.063 Y122.936 E6.44729
G1 X95.341 Y122.342 E6.63341
G1 X90.392 Y120.074 E6.99711
G1 X89.135 Y119.318 E7.09510
G1 X88.452 Y118.793 E7.15265
G1 X87.245 Y117.587 E7.26663
G1 X86.721 Y116.903 E7.32417
G1 X85.868 Y115.426 E7.43815
G1 X85.538 Y114.630 E7.49570
G1 X85.097 Y112.982 E7.60967
G1 X84.984 Y112.128 E7.66723
G1 X84.928 Y111.275 E7.72434
G1 X84.928 Y88.725 E9.23080
G1 X84.984 Y87.872 E9.28791
G1 X85.097 Y87.018 E9.34546
G1 X85.538 Y85.370 E9.45943
G1 X85.868 Y84.574 E9.51699
G1 X86.721 Y83.097 E9.63096
G1 X87.218 Y82.449 E9.68551
G1 E8.68551 F1800.00000
G92 E0
G1 X96.357 Y112.195 F7800.000
G1 E1.00000 F1800.00000
G1 X96.065 Y112.576 E1.03209 F540.000
G1 X95.684 Y112.869 E1.06418
G1 X95.240 Y113.052 E1.09627
G1 X94.764 Y113.115 E1.12836
G1 X94.287 Y113.052 E1.16045
G1 X93.844 Y112.869 E1.19254
G1 X93.463 Y112.576 E1.22463
G1 X93.170 Y112.195 E1.25673
G1 X92.994 Y111.771 E1.28738
G1 X92.923 Y111.277 E1.32074
G1 X92.986 Y110.799 E1.35295
G1 X93.170 Y110.355 E1.38505
G1 X93.463 Y109.974 E1.41714
G1 X93.844 Y109.681 E1.44923
G1 X94.287 Y109.498 E1.48132
G1 X94.742 Y109.438 E1.51198 F540.000
G1 X95.238 Y109.497 E1.54533
G1 X95.684 Y109.681 E1.57755
G1 X96.065 Y109.974 E1.60964
G1 X96.357 Y110.355 E1.64173
G1 X96.541 Y110.799 E1.67382
G1 X96.604 Y111.275 E1.70591
G1 X96.541 Y111.751 E1.73800
G1 X96.374 Y112.153 E1.76708
G1 X96.496 Y112.461 F7800.000
G1 E0.76708 F1800.00000
G92 E0
G1 X95.240 Y106.902 F7800.000
G1 E1.00000 F1800.00000
G1 X94.764 Y106.965 E1.03209 F540.000
G1 X94.287 Y106.902 E1.06418
G1 X93.844 Y106.719 E1.09627
G1 X93.462 Y106.426 E1.12836
G1 X93.170 Y106.045 E1.16045
G1 X92.986 Y105.601 E1.19254
G1 X92.926 Y105.145 E1.22331
G1 X92.926 Y94.855 E1.91069
G1 X92.986 Y94.399 E1.94146
G1 X93.170 Y93.955 E1.97355
G1 X93.463 Y93.574 E2.00564
G1 X93.844 Y93.281 E2.03773
G1 X94.287 Y93.098 E2.06982
G1 X94.742 Y93.038 E2.10048 F540.000
G1 X95.238 Y93.097 E2.13384
G1 X95.684 Y93.281 E2.16605
G1 X96.065 Y93.574 E2.19814
G1 X96.357 Y93.955 E2.23023
G1 X96.541 Y94.399 E2.26232
G1 X96.601 Y94.855 E2.29309
G1 X96.601 Y105.145 E2.98047
G1 X96.541 Y105.601 E3.01124
G1 X96.357 Y106.045 E3.04333
G1 X96.065 Y106.426 E3.07542
G1 X95.684 Y106.719 E3.10751
G1 X95.281 Y106.885 E3.13659
G1 X95.150 Y107.188 F7800.000
G1 E2.13659 F1800.00000
G92 E0
G1 X94.764 Y90.565 F7800.000
G1 E1.00000 F1800.00000
G1 X94.287 Y90.502 E1.03209 F540.000
G1 X93.844 Y90.319 E1.06418
G1 X93.461 Y90.025 E1.09639
G1 X93.162 Y89.625 E1.12975
G1 X92.986 Y89.201 E1.16041
G1 X92.924 Y88.725 E1.19250
G1 X92.986 Y88.249 E1.22459
G1 X93.170 Y87.805 E1.25668
G1 X93.463 Y87.424 E1.28877
G1 X93.844 Y87.131 E1.32086
G1 X94.287 Y86.948 E1.35295
G1 X94.742 Y86.888 E1.38361 F540.000
G1 X95.238 Y86.947 E1.41697
G1 X95.684 Y87.131 E1.44918
G1 X96.065 Y87.424 E1.48127
G1 X96.357 Y87.805 E1.51337
G1 X96.541 Y88.249 E1.54546
G1 X96.604 Y88.725 E1.57755
G1 X96.541 Y89.201 E1.60964
G1 X96.357 Y89.645 E1.64173
G1 X96.065 Y90.026 E1.67382
G1 X95.684 Y90.319 E1.70591
G1 X95.240 Y90.502 E1.73800
G1 X94.808 Y90.559 E1.76708
G1 X94.602 Y90.818 F7800.000
G1 X103.762 Y109.210 F7800.000
G1 X104.357 Y108.973 E1.80986 F540.000
G1 X104.949 Y108.895 E1.84973 F540.000
G1 X105.565 Y108.976 E1.89124
G1 X106.139 Y109.214 E1.93275
G1 X106.632 Y109.592 E1.97426
G1 X107.010 Y110.085 E2.01577
G1 X107.248 Y110.659 E2.05729
G1 X107.329 Y111.275 E2.09880
G1 X107.248 Y111.891 E2.14031
G1 X107.010 Y112.465 E2.18182
G1 X106.632 Y112.958 E2.22334
G1 X106.139 Y113.336 E2.26485
G1 X105.565 Y113.574 E2.30636
G1 X104.949 Y113.655 E2.34787
G1 X104.332 Y113.574 E2.38938
G1 X103.758 Y113.336 E2.43090
G1 X103.265 Y112.958 E2.47241
G1 X102.887 Y112.465 E2.51392
G1 X102.649 Y111.891 E2.55543
G1 X102.568 Y111.275 E2.59695
G1 X102.649 Y110.659 E2.63846
G1 X102.887 Y110.085 E2.67997
G1 X103.265 Y109.592 E2.72148
G1 X103.727 Y109.238 E2.76033
G1 X104.030 Y109.680 F7800.000
G1 X104.494 Y109.495 E2.79369 F540.000
G1 X104.949 Y109.435 E2.82435 F540.000
G1 X105.425 Y109.498 E2.85644
G1 X105.869 Y109.681 E2.88853
G1 X106.250 Y109.974 E2.92062
G1 X106.542 Y110.355 E2.95271
G1 X106.726 Y110.799 E2.98480
G1 X106.789 Y111.275 E3.01689
G1 X106.726 Y111.751 E3.04898
G1 X106.542 Y112.195 E3.08107
G1 X106.250 Y112.576 E3.11316
G1 X105.869 Y112.869 E3.14525
G1 X105.425 Y113.052 E3.17734
G1 X104.949 Y113.115 E3.20943
G1 X104.472 Y113.052 E3.24153
G1 X104.028 Y112.869 E3.27362
G1 X103.647 Y112.576 E3.30571
G1 X103.355 Y112.195 E3.33780
G1 X103.171 Y111.751 E3.36989
G1 X103.108 Y111.275 E3.40198
G1 X103.171 Y110.799 E3.43407
G1 X103.355 Y110.355 E3.46616
G1 X103.647 Y109.974 E3.49825
G1 X103.994 Y109.708 E3.52746
G1 X104.045 Y109.381 F7800.000
G1 E2.52746 F1800.00000
G92 E0
G1 X102.842 Y115.029 F7800.000
G1 E1.00000 F1800.00000
G1 X98.362 Y115.029 E1.29926 F540.000
G1 X96.024 Y113.958 E1.47108
G1 X96.829 Y113.340 E1.53884
G1 X97.293 Y112.735 E1.58977
G1 X97.585 Y112.031 E1.64071
G1 X97.684 Y111.275 E1.69164
G1 X97.585 Y110.519 E1.74257
G1 X97.293 Y109.815 E1.79351
G1 X96.829 Y109.210 E1.84444
G1 X96.224 Y108.746 E1.89538
G1 X95.512 Y108.451 E1.94687
G1 X94.736 Y108.358 E1.99907
G1 X94.008 Y108.454 E2.04814
G1 X93.303 Y108.746 E2.09907
G1 X92.835 Y109.105 E2.13849
G1 X92.835 Y107.295 E2.25940
G1 X93.303 Y107.654 E2.29882
G1 X94.008 Y107.946 E2.34975
G1 X94.764 Y108.046 E2.40069
G1 X95.520 Y107.946 E2.45162
G1 X96.224 Y107.654 E2.50256
G1 X96.829 Y107.190 E2.55349
G1 X97.293 Y106.585 E2.60442
G1 X97.585 Y105.881 E2.65536
G1 X97.672 Y105.215 E2.70024
G1 X97.672 Y94.785 E3.39700
G1 X97.585 Y94.119 E3.44188
G1 X97.293 Y93.415 E3.49281
G1 X96.829 Y92.810 E3.54375
G1 X96.224 Y92.346 E3.59468
G1 X95.512 Y92.051 E3.64618
G1 X94.736 Y91.958 E3.69838
G1 X94.008 Y92.054 E3.74744
G1 X93.303 Y92.346 E3.79837
G1 X92.835 Y92.705 E3.83779
G1 X92.835 Y90.895 E3.95870
G1 X93.303 Y91.254 E3.99812
G1 X94.008 Y91.546 E4.04906
G1 X94.764 Y91.646 E4.09999
G1 X95.520 Y91.546 E4.15092
G1 X96.224 Y91.254 E4.20186
G1 X96.829 Y90.790 E4.25279
G1 X97.293 Y90.185 E4.30373
G1 X97.585 Y89.481 E4.35466
G1 X97.684 Y88.725 E4.40559
G1 X97.585 Y87.969 E4.45653
G1 X97.293 Y87.265 E4.50746
G1 X96.829 Y86.660 E4.55840
G1 X96.024 Y86.042 E4.62615
G1 X98.362 Y84.971 E4.79797
G1 X102.842 Y84.971 E5.09724
G1 X102.842 Y86.714 E5.21364
G1 X102.419 Y87.265 E5.26004
G1 X102.127 Y87.969 E5.31098
G1 X102.028 Y88.725 E5.36191
G1 X102.127 Y89.481 E5.41284
G1 X102.427 Y90.204 E5.46512
G1 X102.842 Y90.735 E5.51014
G1 X102.842 Y109.264 E6.74797
G1 X102.419 Y109.815 E6.79438
G1 X102.127 Y110.519 E6.84531
G1 X102.028 Y111.275 E6.89624
G1 X102.127 Y112.031 E6.94718
G1 X102.419 Y112.735 E6.99811
G1 X102.842 Y113.286 E7.04452
G1 X102.842 Y114.984 E7.15791
G1 E6.15791 F1800.00000
G92 E0
G1 X104.949 Y91.105 F7800.000
G1 E1.00000 F1800.00000
G1 X104.332 Y91.024 E1.04151 F540.000
G1 X103.758 Y90.786 E1.08302
G1 X103.268 Y90.411 E1.12428
G1 X102.894 Y89.931 E1.16490
G1 X102.649 Y89.341 E1.20759
G1 X102.568 Y88.725 E1.24911
G1 X102.649 Y88.109 E1.29062
G1 X102.887 Y87.535 E1.33213
G1 X103.265 Y87.042 E1.37364
G1 X103.758 Y86.664 E1.41516
G1 X104.332 Y86.426 E1.45667
G1 X104.924 Y86.348 E1.49653 F540.000
G1 X105.560 Y86.424 E1.53931
G1 X106.139 Y86.664 E1.58116
G1 X106.632 Y87.042 E1.62268
G1 X107.010 Y87.535 E1.66419
G1 X107.238 Y88.086 E1.70405
G1 X107.330 Y88.720 E1.74683
G1 X107.248 Y89.341 E1.78868
G1 X107.010 Y89.915 E1.83020
G1 X106.632 Y90.408 E1.87171
G1 X106.139 Y90.786 E1.91322
G1 X105.565 Y91.024 E1.95473
G1 X104.993 Y91.099 E1.99324
G1 X104.949 Y90.565 F7800.000
G1 X104.472 Y90.502 E2.02533 F540.000
G1 X104.028 Y90.319 E2.05742
G1 X103.648 Y90.027 E2.08942
G1 X103.361 Y89.659 E2.12062
G1 X103.171 Y89.201 E2.15372
G1 X103.108 Y88.725 E2.18581
G1 X103.171 Y88.249 E2.21791
G1 X103.355 Y87.805 E2.25000
G1 X103.647 Y87.424 E2.28209
G1 X104.028 Y87.131 E2.31418
G1 X104.472 Y86.948 E2.34627
G1 X104.927 Y86.888 E2.37693 F540.000
G1 X105.423 Y86.947 E2.41028
G1 X105.869 Y87.131 E2.44250
G1 X106.250 Y87.424 E2.47459
G1 X106.542 Y87.805 E2.50668
G1 X106.718 Y88.229 E2.53734
G1 X106.789 Y88.723 E2.57069
G1 X106.726 Y89.201 E2.60291
G1 X106.542 Y89.645 E2.63500
G1 X106.250 Y90.026 E2.66709
G1 X105.869 Y90.319 E2.69918
G1 X105.425 Y90.502 E2.73127
G1 X104.993 Y90.559 E2.76036
G1 X104.787 Y90.818 F7800.000
G1 X103.378 Y91.477 F7800.000
G1 X103.378 Y108.523 E3.89914 F540.000
G1 X104.894 Y108.523 E4.00042
G1 X105.659 Y108.624 E4.05197
G1 X106.321 Y108.898 E4.09984
G1 X106.889 Y109.334 E4.14771
G1 X107.325 Y109.903 E4.19557
G1 X107.600 Y110.565 E4.24344
G1 X107.693 Y111.275 E4.29130
G1 X107.600 Y111.985 E4.33917
G1 X107.325 Y112.647 E4.38704
G1 X106.889 Y113.216 E4.43490
G1 X106.321 Y113.652 E4.48277
G1 X105.659 Y113.926 E4.53064
G1 X104.894 Y114.027 E4.58219
G1 X103.378 Y114.027 E4.68347
G1 X103.378 Y115.564 E4.78619
G1 X98.246 Y115.564 E5.12904
G1 X94.629 Y113.908 E5.39480
G1 X94.665 Y113.668 E5.41096
G1 X95.380 Y113.574 E5.45912
G1 X95.954 Y113.336 E5.50063
G1 X96.447 Y112.958 E5.54215
G1 X96.825 Y112.465 E5.58366
G1 X97.063 Y111.891 E5.62517
G1 X97.144 Y111.275 E5.66668
G1 X97.063 Y110.659 E5.70819
G1 X96.825 Y110.085 E5.74971
G1 X96.447 Y109.592 E5.79122
G1 X95.954 Y109.214 E5.83273
G1 X95.375 Y108.974 E5.87459
G1 X94.739 Y108.898 E5.91737
G1 X94.148 Y108.976 E5.95723
G1 X93.573 Y109.214 E5.99874
G1 X93.080 Y109.592 E6.04025
G1 X92.702 Y110.085 E6.08176
G1 X92.558 Y110.432 E6.10689
G1 X92.300 Y110.381 E6.12451
G1 X92.300 Y106.019 E6.41590
G1 X92.558 Y105.968 E6.43352
G1 X92.702 Y106.315 E6.45865
G1 X93.080 Y106.808 E6.50016
G1 X93.573 Y107.186 E6.54167
G1 X94.148 Y107.424 E6.58319
G1 X94.764 Y107.505 E6.62470
G1 X95.380 Y107.424 E6.66621
G1 X95.954 Y107.186 E6.70772
G1 X96.447 Y106.808 E6.74923
G1 X96.825 Y106.315 E6.79075
G1 X97.063 Y105.741 E6.83226
G1 X97.137 Y105.180 E6.87008
G1 X97.137 Y94.820 E7.56215
G1 X97.063 Y94.259 E7.59998
G1 X96.825 Y93.685 E7.64149
G1 X96.447 Y93.192 E7.68300
G1 X95.954 Y92.814 E7.72451
G1 X95.375 Y92.574 E7.76637
G1 X94.739 Y92.498 E7.80915
G1 X94.148 Y92.576 E7.84901
G1 X93.573 Y92.814 E7.89052
G1 X93.081 Y93.192 E7.93203
G1 X92.702 Y93.685 E7.97354
G1 X92.558 Y94.032 E7.99867
G1 X92.300 Y93.981 E8.01629
G1 X92.300 Y89.619 E8.30768
G1 X92.558 Y89.568 E8.32530
G1 X92.693 Y89.892 E8.34878
G1 X93.076 Y90.405 E8.39156
G1 X93.573 Y90.786 E8.43341
G1 X94.148 Y91.024 E8.47492
G1 X94.764 Y91.105 E8.51644
G1 X95.380 Y91.024 E8.55795
G1 X95.954 Y90.786 E8.59946
G1 X96.447 Y90.408 E8.64097
G1 X96.825 Y89.915 E8.68249
G1 X97.063 Y89.341 E8.72400
G1 X97.144 Y88.725 E8.76551
G1 X97.063 Y88.109 E8.80702
G1 X96.825 Y87.535 E8.84853
G1 X96.447 Y87.042 E8.89005
G1 X95.954 Y86.664 E8.93156
G1 X95.375 Y86.424 E8.97341
G1 X94.656 Y86.338 E9.02180
G1 X94.618 Y86.097 E9.03807
G1 X98.246 Y84.436 E9.30462
G1 X103.378 Y84.436 E9.64748
G1 X103.378 Y85.973 E9.75019
G1 X104.894 Y85.973 E9.85147
G1 X105.659 Y86.074 E9.90303
G1 X106.321 Y86.348 E9.95089
G1 X106.889 Y86.784 E9.99876
G1 X107.325 Y87.353 E10.04663
G1 X107.600 Y88.015 E10.09449
G1 X107.693 Y88.725 E10.14236
G1 X107.600 Y89.435 E10.19022
G1 X107.325 Y90.097 E10.23809
G1 X106.889 Y90.666 E10.28596
G1 X106.321 Y91.102 E10.33382
G1 X105.659 Y91.376 E10.38169
G1 X104.894 Y91.477 E10.43325
G1 X103.423 Y91.477 E10.53152
G1 X103.913 Y92.013 F7800.000
G1 X103.913 Y107.987 E11.59874 F378.000
G1 X104.929 Y107.987 E11.66658
G1 X105.799 Y108.102 E11.72519
G1 X106.591 Y108.430 E11.78248
G1 X107.271 Y108.952 E11.83977
G1 X107.793 Y109.633 E11.89706
G1 X108.121 Y110.425 E11.95434
G1 X108.233 Y111.275 E12.01163
G1 X108.121 Y112.125 E12.06892
G1 X107.793 Y112.917 E12.12621
G1 X107.271 Y113.598 E12.18350
G1 X106.591 Y114.120 E12.24078
G1 X105.799 Y114.448 E12.29807
G1 X104.929 Y114.563 E12.35668
G1 X103.913 Y114.563 E12.42453
G1 X103.913 Y116.100 E12.52724
G1 X98.129 Y116.100 E12.91368
G1 X93.270 Y113.874 E13.27074
G1 X92.644 Y113.394 E13.32339
G1 X92.168 Y112.774 E13.37565
G1 X91.869 Y112.051 E13.42792
G1 X91.764 Y111.255 E13.48152
G1 X91.764 Y88.745 E14.98535
G1 X91.869 Y87.949 E15.03894
G1 X92.168 Y87.226 E15.09121
G1 X92.620 Y86.638 E15.14080
G1 X93.271 Y86.125 E15.19616
G1 X98.129 Y83.900 E15.55310
G1 X103.913 Y83.900 E15.93954
G1 X103.913 Y85.437 E16.04225
G1 X104.929 Y85.437 E16.11009
G1 X105.799 Y85.552 E16.16870
G1 X106.591 Y85.880 E16.22599
G1 X107.271 Y86.402 E16.28328
G1 X107.793 Y87.083 E16.34057
G1 X108.121 Y87.875 E16.39786
G1 X108.233 Y88.725 E16.45514
G1 X108.121 Y89.575 E16.51243
G1 X107.793 Y90.367 E16.56972
G1 X107.271 Y91.048 E16.62701
G1 X106.591 Y91.570 E16.68430
G1 X105.799 Y91.898 E16.74158
G1 X104.929 Y92.013 E16.80020
G1 X103.958 Y92.013 E16.86503
G1 X103.613 Y92.013 F7800.000
G1 X97.918 Y94.062 F7800.000
G1 X102.520 Y98.665 E17.30759 F1080.000
G1 X102.520 Y99.436 E17.35999
G1 X97.994 Y94.909 E17.79519
G1 X97.994 Y95.680 E17.84760
G1 X102.520 Y100.206 E18.28279
G1 X102.520 Y100.977 E18.33520
G1 X97.994 Y96.451 E18.77040
G1 X97.994 Y97.222 E18.82280
G1 X102.520 Y101.748 E19.25800
G1 X102.520 Y102.519 E19.31041
G1 X97.994 Y97.993 E19.74560
G1 X97.994 Y98.763 E19.79801
G1 X102.520 Y103.290 E20.23321
G1 X102.520 Y104.061 E20.28561
G1 X97.994 Y99.534 E20.72081
G1 X97.994 Y100.305 E20.77322
G1 X102.520 Y104.832 E21.20841
G1 X102.520 Y105.602 E21.26082
G1 X97.994 Y101.076 E21.69602
G1 X97.994 Y101.847 E21.74843
G1 X102.520 Y106.373 E22.18362
G1 X102.520 Y107.144 E22.23603
G1 X97.994 Y102.618 E22.67123
G1 X97.994 Y103.389 E22.72363
G1 X102.520 Y107.915 E23.15883
G1 X102.520 Y108.686 E23.21124
G1 X97.994 Y104.159 E23.64643
G1 X97.994 Y104.930 E23.69884
G1 X102.422 Y109.358 E24.12455
G1 X102.108 Y109.816 E24.16225
G1 X97.928 Y105.635 E24.56422
G1 X97.751 Y106.229 E24.60637
G1 X101.883 Y110.361 E25.00362
G1 X101.753 Y111.002 E25.04811
G1 X97.509 Y106.758 E25.45623
G1 X97.174 Y107.194 E25.49361
G1 X101.753 Y111.773 E25.93389
G1 X102.064 Y112.855 E26.01042
G1 X96.783 Y107.573 E26.51821
G1 X96.347 Y107.908 E26.55558
G1 X102.520 Y114.082 E27.14918
G1 X102.375 Y114.707 E27.19282
G1 X97.850 Y110.182 E27.62790
G1 X98.002 Y111.105 E27.69154
G1 X101.604 Y114.707 E28.03782
G1 X100.833 Y114.707 E28.09023
G1 X97.926 Y111.800 E28.36977
G1 X97.746 Y112.391 E28.41179
G1 X100.062 Y114.707 E28.63448
G1 X99.291 Y114.707 E28.68689
G1 X97.501 Y112.917 E28.85899
G1 X97.167 Y113.353 E28.89637
G1 X98.478 Y114.664 E29.02243
G1 X97.055 Y114.013 F7800.000
G1 X96.773 Y113.731 E29.04955 F1080.000
G1 E28.04955 F1800.00000
G92 E0
G1 X96.201 Y91.574 F7800.000
G1 E1.00000 F1800.00000
G1 X102.520 Y97.894 E1.60760 F1080.000
G1 X102.520 Y97.123 E1.66001
G1 X96.663 Y91.265 E2.22320
G1 X97.082 Y90.914 E2.26040
G1 X102.520 Y96.352 E2.78329
G1 X102.520 Y95.581 E2.83570
G1 X97.417 Y90.477 E3.32641
G1 X97.689 Y89.979 E3.36503
