; generated by Slic3r 1.2.9 on 2018-01-23 at 19:47:58

; external perimeters extrusion width = 0.30mm
; perimeters extrusion width = 0.40mm
; infill extrusion width = 0.40mm
; solid infill extrusion width = 0.40mm
; top infill extrusion width = 0.40mm

M107
M190 S110 ; set bed temperature
M104 S250 ; set temperature
G28 ; home all axes
G1 Z5 F5000 ; lift nozzle
M109 S250 ; wait for temperature to be reached
G21 ; set units to millimeters
G90 ; use absolute coordinates
M82 ; use absolute distances for extrusion
G92 E0
G1 E-1.00000 F1800.00000
G92 E0
G1 Z0.300 F7800.000
G1 X87.330 Y82.210 F7800.000
G1 E1.00000 F1800.00000
G1 X88.460 Y81.062 E1.10759 F1080.000
G1 X91.732 Y78.474 E1.38629
G1 X93.737 Y77.394 E1.53846
G1 X95.787 Y77.064 E1.67713
G1 X101.937 Y77.064 E2.08798
G1 X104.659 Y77.658 E2.27410
G1 X109.608 Y79.926 E2.63780 F1080.000
G1 X110.865 Y80.682 E2.73579
G1 X111.548 Y81.207 E2.79334
G1 X112.755 Y82.413 E2.90732
G1 X113.279 Y83.097 E2.96487
G1 X114.132 Y84.574 E3.07885
G1 X114.462 Y85.370 E3.13639
G1 X114.903 Y87.018 E3.25037
G1 X115.016 Y87.872 E3.30792
G1 X115.072 Y88.725 E3.36503
G1 X115.072 Y111.275 E4.87149
G1 X115.016 Y112.128 E4.92860
G1 X114.903 Y112.982 E4.98615
G1 X114.462 Y114.630 E5.10013
G1 X114.132 Y115.426 E5.15767
G1 X113.279 Y116.904 E5.27166
G1 X112.755 Y117.587 E5.32920
G1 X111.548 Y118.793 E5.44317
G1 X110.865 Y119.318 E5.50072
G1 X109.608 Y120.074 E5.59872
G1 X104.659 Y122.342 E5.96242
G1 X101.937 Y122.936 E6.14854
G1 X95.787 Y122.936 E6.55939
G1 X93.544 Y122.539 E6.71156
G1 X91.732 Y121.526 E6.85023
G1 X88.460 Y118.938 E7.12893
G1 X87.330 Y117.790 E7.23652
G1 X86.760 Y117.047 E7.29909
G1 X85.906 Y115.570 E7.41307
G1 X85.548 Y114.705 E7.47563
G1 X85.107 Y113.057 E7.58961
G1 X84.984 Y112.128 E7.65218
G1 X84.928 Y111.275 E7.70929
G1 X84.928 Y88.725 E9.21575
G1 X84.984 Y87.872 E9.27286
G1 X85.107 Y86.943 E9.33543
G1 X85.548 Y85.295 E9.44941
G1 X85.906 Y84.430 E9.51197
G1 X86.759 Y82.953 E9.62594
G1 X87.302 Y82.245 E9.68551
G1 E8.68551 F1800.00000
G92 E0
G1 X106.830 Y112.195 F7800.000
G1 E1.00000 F1800.00000
G1 X106.537 Y112.576 E1.03209 F540.000
G1 X106.156 Y112.869 E1.06418
G1 X105.732 Y113.044 E1.09484
G1 X105.238 Y113.115 E1.12820
G1 X104.760 Y113.052 E1.16041
G1 X104.316 Y112.869 E1.19250
G1 X103.934 Y112.575 E1.22472
G1 X103.635 Y112.175 E1.25807
G1 X103.459 Y111.751 E1.28873
G1 X103.396 Y111.273 E1.32095
G1 X103.467 Y110.779 E1.35430
G1 X103.643 Y110.355 E1.38496
G1 X103.935 Y109.974 E1.41705
G1 X104.316 Y109.681 E1.44914
G1 X104.760 Y109.498 E1.48123
G1 X105.215 Y109.438 E1.51189 F540.000
G1 X105.711 Y109.497 E1.54525
G1 X106.156 Y109.681 E1.57746
G1 X106.537 Y109.974 E1.60955
G1 X106.830 Y110.355 E1.64165
G1 X107.014 Y110.799 E1.67374
G1 X107.077 Y111.277 E1.70595
G1 X107.006 Y111.771 E1.73930
G1 X106.847 Y112.153 E1.76696
G1 X106.968 Y112.461 F7800.000
G1 E0.76696 F1800.00000
G92 E0
G1 X105.713 Y106.902 F7800.000
G1 E1.00000 F1800.00000
G1 X105.236 Y106.965 E1.03209 F540.000
G1 X104.760 Y106.902 E1.06418
G1 X104.316 Y106.719 E1.09627
G1 X103.935 Y106.426 E1.12836
G1 X103.643 Y106.045 E1.16045
G1 X103.459 Y105.601 E1.19254
G1 X103.399 Y105.145 E1.22331
G1 X103.399 Y94.855 E1.91069
G1 X103.459 Y94.399 E1.94146
G1 X103.643 Y93.955 E1.97355
G1 X103.935 Y93.574 E2.00564
G1 X104.316 Y93.281 E2.03773
G1 X104.760 Y93.098 E2.06982
G1 X105.215 Y93.038 E2.10048 F540.000
G1 X105.711 Y93.097 E2.13384
G1 X106.156 Y93.281 E2.16605
G1 X106.537 Y93.574 E2.19814
G1 X106.830 Y93.955 E2.23023
G1 X107.014 Y94.399 E2.26232
G1 X107.074 Y94.855 E2.29309
G1 X107.074 Y105.145 E2.98047
G1 X107.014 Y105.601 E3.01124
G1 X106.830 Y106.045 E3.04333
G1 X106.537 Y106.426 E3.07542
G1 X106.156 Y106.719 E3.10751
G1 X105.754 Y106.885 E3.13659
G1 X105.622 Y107.189 F7800.000
G1 E2.13659 F1800.00000
G92 E0
G1 X105.236 Y90.565 F7800.000
G1 E1.00000 F1800.00000
G1 X104.760 Y90.502 E1.03209 F540.000
G1 X104.316 Y90.319 E1.06418
G1 X103.935 Y90.026 E1.09627
G1 X103.643 Y89.645 E1.12836
G1 X103.459 Y89.201 E1.16045
G1 X103.396 Y88.725 E1.19254
G1 X103.459 Y88.249 E1.22463
G1 X103.643 Y87.805 E1.25672
G1 X103.935 Y87.424 E1.28882
G1 X104.316 Y87.131 E1.32091
G1 X104.760 Y86.948 E1.35300
G1 X105.215 Y86.888 E1.38366 F540.000
G1 X105.711 Y86.947 E1.41701
G1 X106.156 Y87.131 E1.44923
G1 X106.537 Y87.424 E1.48132
G1 X106.830 Y87.805 E1.51341
G1 X107.006 Y88.229 E1.54407
G1 X107.077 Y88.723 E1.57742
G1 X107.014 Y89.201 E1.60964
G1 X106.830 Y89.645 E1.64173
G1 X106.537 Y90.026 E1.67382
G1 X106.156 Y90.319 E1.70591
G1 X105.713 Y90.502 E1.73800
G1 X105.281 Y90.559 E1.76708
G1 X105.075 Y90.818 F7800.000
G1 X96.242 Y109.214 F7800.000
G1 X96.735 Y109.592 E1.80860 F540.000
G1 X97.113 Y110.085 E1.85011
G1 X97.351 Y110.659 E1.89162
G1 X97.432 Y111.275 E1.93313
G1 X97.351 Y111.891 E1.97465
G1 X97.113 Y112.465 E2.01616
G1 X96.735 Y112.958 E2.05767
G1 X96.242 Y113.336 E2.09918
G1 X95.668 Y113.574 E2.14069
G1 X95.051 Y113.655 E2.18221
G1 X94.435 Y113.574 E2.22372
G1 X93.861 Y113.336 E2.26523
G1 X93.368 Y112.958 E2.30674
G1 X92.990 Y112.465 E2.34826
G1 X92.752 Y111.891 E2.38977
G1 X92.671 Y111.275 E2.43128
G1 X92.752 Y110.659 E2.47279
G1 X92.981 Y110.108 E2.51265
G1 X93.364 Y109.595 E2.55543
G1 X93.861 Y109.214 E2.59729
G1 X94.435 Y108.976 E2.63880
G1 X95.027 Y108.898 E2.67866 F540.000
G1 X95.663 Y108.974 E2.72144
G1 X96.200 Y109.196 E2.76029
G1 X95.972 Y109.681 F7800.000
G1 X96.353 Y109.974 E2.79238 F540.000
G1 X96.645 Y110.355 E2.82447
G1 X96.829 Y110.799 E2.85656
G1 X96.892 Y111.275 E2.88865
G1 X96.829 Y111.751 E2.92074
G1 X96.645 Y112.195 E2.95283
G1 X96.353 Y112.576 E2.98492
G1 X95.972 Y112.869 E3.01701
G1 X95.528 Y113.052 E3.04910
G1 X95.051 Y113.115 E3.08120
G1 X94.575 Y113.052 E3.11329
G1 X94.131 Y112.869 E3.14538
G1 X93.750 Y112.576 E3.17747
G1 X93.458 Y112.195 E3.20956
G1 X93.274 Y111.751 E3.24165
G1 X93.211 Y111.275 E3.27374
G1 X93.274 Y110.799 E3.30583
G1 X93.450 Y110.375 E3.33649
G1 X93.749 Y109.975 E3.36985
G1 X94.131 Y109.681 E3.40206
G1 X94.575 Y109.498 E3.43415
G1 X95.030 Y109.438 E3.46481 F540.000
G1 X95.526 Y109.497 E3.49817
G1 X95.930 Y109.664 E3.52737
G1 X96.238 Y109.543 F7800.000
G1 E2.52737 F1800.00000
G92 E0
G1 X95.263 Y91.105 F7800.000
G1 E1.00000 F1800.00000
G1 X94.647 Y91.024 E1.04151 F540.000
G1 X94.073 Y90.786 E1.08302
G1 X93.576 Y90.405 E1.12488
G1 X93.192 Y89.892 E1.16766
G1 X92.964 Y89.341 E1.20752
G1 X92.883 Y88.725 E1.24903
G1 X92.964 Y88.109 E1.29055
G1 X93.202 Y87.535 E1.33206
G1 X93.580 Y87.042 E1.37357
G1 X94.073 Y86.664 E1.41508
G1 X94.647 Y86.426 E1.45659
G1 X95.239 Y86.348 E1.49646 F540.000
G1 X95.875 Y86.424 E1.53923
G1 X96.453 Y86.664 E1.58109
G1 X96.946 Y87.042 E1.62260
G1 X97.325 Y87.535 E1.66411
G1 X97.553 Y88.086 E1.70398
G1 X97.644 Y88.720 E1.74675
G1 X97.563 Y89.341 E1.78861
G1 X97.334 Y89.892 E1.82847
G1 X96.951 Y90.405 E1.87125
G1 X96.453 Y90.786 E1.91310
G1 X95.879 Y91.024 E1.95462
G1 X95.308 Y91.099 E1.99312
G1 X95.263 Y90.565 F7800.000
G1 X94.787 Y90.502 E2.02521 F540.000
G1 X94.343 Y90.319 E2.05730
G1 X93.961 Y90.025 E2.08952
G1 X93.662 Y89.625 E2.12287
G1 X93.486 Y89.201 E2.15353
G1 X93.423 Y88.725 E2.18563
G1 X93.486 Y88.249 E2.21772
G1 X93.670 Y87.805 E2.24981
G1 X93.962 Y87.424 E2.28190
G1 X94.343 Y87.131 E2.31399
G1 X94.787 Y86.948 E2.34608
G1 X95.242 Y86.888 E2.37674 F540.000
G1 X95.738 Y86.947 E2.41009
G1 X96.183 Y87.131 E2.44231
G1 X96.564 Y87.424 E2.47440
G1 X96.857 Y87.805 E2.50649
G1 X97.033 Y88.229 E2.53715
G1 X97.104 Y88.723 E2.57050
G1 X97.041 Y89.201 E2.60272
G1 X96.865 Y89.625 E2.63338
G1 X96.566 Y90.025 E2.66673
G1 X96.183 Y90.319 E2.69895
G1 X95.740 Y90.502 E2.73104
G1 X95.308 Y90.559 E2.76012
G1 X95.102 Y90.818 F7800.000
G1 E1.76012 F1800.00000
G92 E0
G1 X97.158 Y84.971 F7800.000
G1 E1.00000 F1800.00000
G1 X101.638 Y84.971 E1.29926 F540.000
G1 X103.976 Y86.042 E1.47108
G1 X103.171 Y86.660 E1.53884
G1 X102.707 Y87.265 E1.58977
G1 X102.415 Y87.969 E1.64071
G1 X102.316 Y88.725 E1.69164
G1 X102.415 Y89.481 E1.74258
G1 X102.707 Y90.185 E1.79351
G1 X103.171 Y90.790 E1.84444
G1 X103.776 Y91.254 E1.89538
G1 X104.480 Y91.546 E1.94631
G1 X105.236 Y91.646 E1.99725
G1 X105.992 Y91.546 E2.04818
G1 X106.697 Y91.254 E2.09911
G1 X107.165 Y90.895 E2.13853
G1 X107.165 Y92.705 E2.25944
G1 X106.697 Y92.346 E2.29886
G1 X105.984 Y92.051 E2.35036
G1 X105.209 Y91.958 E2.40256
G1 X104.480 Y92.054 E2.45162
G1 X103.776 Y92.346 E2.50256
G1 X103.171 Y92.810 E2.55349
G1 X102.707 Y93.415 E2.60442
G1 X102.415 Y94.119 E2.65536
G1 X102.328 Y94.785 E2.70024
G1 X102.328 Y105.215 E3.39700
G1 X102.415 Y105.881 E3.44188
G1 X102.707 Y106.585 E3.49281
G1 X103.171 Y107.190 E3.54375
G1 X103.776 Y107.654 E3.59468
G1 X104.480 Y107.946 E3.64561
G1 X105.236 Y108.046 E3.69655
G1 X105.992 Y107.946 E3.74748
G1 X106.697 Y107.654 E3.79842
G1 X107.165 Y107.295 E3.83784
G1 X107.165 Y109.105 E3.95874
G1 X106.697 Y108.746 E3.99817
G1 X105.984 Y108.451 E4.04966
G1 X105.209 Y108.358 E4.10186
G1 X104.480 Y108.454 E4.15093
G1 X103.776 Y108.746 E4.20186
G1 X103.171 Y109.210 E4.25279
G1 X102.707 Y109.815 E4.30373
G1 X102.426 Y110.493 E4.35279
G1 X102.315 Y111.267 E4.40499
G1 X102.415 Y112.031 E4.45649
G1 X102.696 Y112.709 E4.50555
G1 X103.165 Y113.335 E4.55775
G1 X103.976 Y113.958 E4.62607
G1 X101.638 Y115.029 E4.79789
G1 X97.158 Y115.029 E5.09716
G1 X97.158 Y113.286 E5.21356
G1 X97.581 Y112.735 E5.25996
G1 X97.873 Y112.031 E5.31090
G1 X97.972 Y111.275 E5.36183
G1 X97.873 Y110.519 E5.41276
G1 X97.581 Y109.815 E5.46370
G1 X97.158 Y109.264 E5.51010
G1 X97.158 Y90.921 E6.73549
G1 X97.335 Y90.785 E6.75041
G1 X97.803 Y90.159 E6.80261
G1 X98.084 Y89.481 E6.85168
G1 X98.185 Y88.717 E6.90317
G1 X98.074 Y87.943 E6.95537
G1 X97.793 Y87.265 E7.00444
G1 X97.328 Y86.660 E7.05537
G1 X97.158 Y86.529 E7.06973
G1 X97.158 Y85.016 E7.17079
G1 X96.622 Y85.973 F7800.000
G1 X96.622 Y84.436 E7.27351 F540.000
G1 X101.754 Y84.436 E7.61636
G1 X105.371 Y86.092 E7.88212
G1 X105.335 Y86.332 E7.89828
G1 X104.620 Y86.426 E7.94644
G1 X104.046 Y86.664 E7.98795
G1 X103.553 Y87.042 E8.02947
G1 X103.175 Y87.535 E8.07098
G1 X102.937 Y88.109 E8.11249
G1 X102.856 Y88.725 E8.15400
G1 X102.937 Y89.341 E8.19551
G1 X103.175 Y89.915 E8.23703
G1 X103.553 Y90.408 E8.27854
G1 X104.046 Y90.786 E8.32005
G1 X104.620 Y91.024 E8.36156
G1 X105.236 Y91.105 E8.40308
G1 X105.852 Y91.024 E8.44459
G1 X106.427 Y90.786 E8.48610
G1 X106.920 Y90.408 E8.52761
G1 X107.298 Y89.915 E8.56913
G1 X107.442 Y89.568 E8.59425
G1 X107.700 Y89.619 E8.61187
G1 X107.700 Y93.981 E8.90326
G1 X107.442 Y94.032 E8.92088
G1 X107.298 Y93.685 E8.94601
G1 X106.920 Y93.192 E8.98752
G1 X106.427 Y92.814 E9.02904
G1 X105.848 Y92.574 E9.07089
G1 X105.212 Y92.498 E9.11367
G1 X104.620 Y92.576 E9.15353
G1 X104.046 Y92.814 E9.19504
G1 X103.553 Y93.192 E9.23656
G1 X103.175 Y93.685 E9.27807
G1 X102.937 Y94.259 E9.31958
G1 X102.863 Y94.820 E9.35740
G1 X102.863 Y105.180 E10.04948
G1 X102.937 Y105.741 E10.08730
G1 X103.175 Y106.315 E10.12881
G1 X103.553 Y106.808 E10.17032
G1 X104.046 Y107.186 E10.21183
G1 X104.620 Y107.424 E10.25335
G1 X105.236 Y107.505 E10.29486
G1 X105.852 Y107.424 E10.33637
G1 X106.427 Y107.186 E10.37788
G1 X106.919 Y106.808 E10.41940
G1 X107.298 Y106.315 E10.46091
G1 X107.442 Y105.968 E10.48604
G1 X107.700 Y106.019 E10.50366
G1 X107.700 Y110.381 E10.79505
G1 X107.442 Y110.432 E10.81267
G1 X107.298 Y110.085 E10.83779
G1 X106.920 Y109.592 E10.87931
G1 X106.427 Y109.214 E10.92082
G1 X105.848 Y108.974 E10.96268
G1 X105.212 Y108.898 E11.00545
G1 X104.620 Y108.976 E11.04532
G1 X104.046 Y109.214 E11.08683
G1 X103.553 Y109.592 E11.12834
G1 X103.175 Y110.085 E11.16985
G1 X102.947 Y110.636 E11.20971
G1 X102.855 Y111.270 E11.25249
G1 X102.937 Y111.891 E11.29435
G1 X103.165 Y112.442 E11.33421
G1 X103.549 Y112.955 E11.37699
G1 X104.046 Y113.336 E11.41884
G1 X104.620 Y113.574 E11.46036
G1 X105.335 Y113.668 E11.50852
G1 X105.371 Y113.908 E11.52468
G1 X101.754 Y115.564 E11.79044
G1 X96.622 Y115.564 E12.13329
G1 X96.622 Y114.027 E12.23601
G1 X95.106 Y114.027 E12.33729
G1 X94.341 Y113.926 E12.38884
G1 X93.679 Y113.652 E12.43671
G1 X93.111 Y113.216 E12.48458
G1 X92.699 Y112.680 E12.52973
G1 X92.400 Y111.980 E12.58055
G1 X92.307 Y111.275 E12.62807
G1 X92.400 Y110.565 E12.67594
G1 X92.675 Y109.903 E12.72381
G1 X93.111 Y109.334 E12.77167
G1 X93.679 Y108.898 E12.81954
G1 X94.341 Y108.624 E12.86741
G1 X95.106 Y108.523 E12.91896
G1 X96.622 Y108.523 E13.02024
G1 X96.622 Y91.477 E14.15902
G1 X95.106 Y91.477 E14.26030
G1 X94.341 Y91.376 E14.31186
G1 X93.679 Y91.102 E14.35973
G1 X93.111 Y90.666 E14.40759
G1 X92.675 Y90.097 E14.45546
G1 X92.400 Y89.435 E14.50333
G1 X92.307 Y88.725 E14.55119
G1 X92.400 Y88.015 E14.59906
G1 X92.675 Y87.353 E14.64693
G1 X93.111 Y86.784 E14.69479
G1 X93.679 Y86.348 E14.74266
G1 X94.341 Y86.074 E14.79052
G1 X95.106 Y85.973 E14.84208
G1 X96.577 Y85.973 E14.94036
G1 X96.087 Y85.438 F7800.000
G1 X96.087 Y83.900 E15.04307 F378.000
G1 X101.871 Y83.900 E15.42951
G1 X106.730 Y86.126 E15.78657
G1 X107.356 Y86.606 E15.83921
G1 X107.832 Y87.226 E15.89148
G1 X108.131 Y87.949 E15.94375
G1 X108.236 Y88.745 E15.99734
G1 X108.236 Y111.255 E17.50118
G1 X108.131 Y112.051 E17.55477
G1 X107.832 Y112.774 E17.60704
G1 X107.356 Y113.394 E17.65931
G1 X106.730 Y113.874 E17.71195
G1 X101.871 Y116.100 E18.06901
G1 X96.087 Y116.100 E18.45545
G1 X96.087 Y114.563 E18.55817
G1 X95.071 Y114.563 E18.62601
G1 X94.201 Y114.448 E18.68462
G1 X93.409 Y114.120 E18.74191
G1 X92.729 Y113.598 E18.79920
G1 X92.233 Y112.952 E18.85356
G1 X91.878 Y112.123 E18.91380
G1 X91.767 Y111.275 E18.97096
G1 X91.879 Y110.425 E19.02825
G1 X92.207 Y109.633 E19.08554
G1 X92.729 Y108.952 E19.14283
G1 X93.409 Y108.430 E19.20011
G1 X94.201 Y108.102 E19.25740
G1 X95.071 Y107.987 E19.31601
G1 X96.087 Y107.987 E19.38386
G1 X96.087 Y92.013 E20.45107
G1 X95.071 Y92.013 E20.51892
G1 X94.201 Y91.898 E20.57753
G1 X93.409 Y91.570 E20.63482
G1 X92.729 Y91.048 E20.69211
G1 X92.207 Y90.367 E20.74939
G1 X91.879 Y89.575 E20.80668
G1 X91.767 Y88.725 E20.86397
G1 X91.879 Y87.875 E20.92126
G1 X92.207 Y87.083 E20.97855
G1 X92.729 Y86.402 E21.03583
G1 X93.409 Y85.880 E21.09312
G1 X94.201 Y85.552 E21.15041
G1 X95.071 Y85.438 E21.20902
G1 X96.042 Y85.438 E21.27386
G1 X96.387 Y85.438 F7800.000
G1 X97.480 Y85.918 F7800.000
G1 X103.653 Y92.092 E21.86745 F1080.000
G1 X102.150 Y89.818 F7800.000
G1 X97.625 Y85.293 E22.30254 F1080.000
G1 X98.396 Y85.293 E22.35494
G1 X101.998 Y88.895 E22.70123
G1 X102.074 Y88.200 E22.74872
G1 X99.167 Y85.293 E23.02826
G1 X99.938 Y85.293 E23.08067
G1 X102.254 Y87.609 E23.30336
G1 X102.499 Y87.083 E23.34281
G1 X100.709 Y85.293 E23.51492
G1 X101.522 Y85.336 E23.57031
G1 X102.833 Y86.647 E23.69638
G1 X102.945 Y85.987 E23.74185
G1 X103.227 Y86.269 E23.76897
G1 X98.297 Y87.507 F7800.000
G1 X103.217 Y92.427 E24.24199 F1080.000
G1 X102.826 Y92.806 E24.27905
G1 X98.492 Y88.473 E24.69572
G1 X98.434 Y89.185 E24.74431
G1 X102.491 Y93.243 E25.13443
G1 X102.249 Y93.771 E25.17396
G1 X98.267 Y89.789 E25.55680
G1 X98.028 Y90.321 E25.59643
G1 X102.072 Y94.365 E25.98532
G1 X102.006 Y95.070 E26.03342
G1 X97.698 Y90.761 E26.44763
G1 X97.480 Y91.314 E26.48803
G1 X102.006 Y95.841 E26.92322
G1 X102.006 Y96.611 E26.97563
G1 X97.480 Y92.085 E27.41083
G1 X97.480 Y92.856 E27.46323
G1 X102.006 Y97.382 E27.89843
G1 X102.006 Y98.153 E27.95084
G1 X97.480 Y93.627 E28.38604
G1 X97.480 Y94.398 E28.43844
G1 X102.006 Y98.924 E28.87364
G1 X102.006 Y99.695 E28.92605
G1 X97.480 Y95.168 E29.36124
G1 X97.480 Y95.939 E29.41365
G1 X102.006 Y100.466 E29.84885
G1 X102.006 Y101.237 E29.90125
G1 X97.480 Y96.710 E30.33645
G1 X97.480 Y97.481 E30.38886
G1 X102.006 Y102.007 E30.82405
G1 X102.006 Y102.778 E30.87646
G1 X97.480 Y98.252 E31.31166
G1 X97.480 Y99.023 E31.36406
G1 X102.006 Y103.549 E31.79926
G1 X102.006 Y104.320 E31.85167
G1 X97.480 Y99.794 E32.28686
G1 X97.480 Y100.564 E32.33927
G1 X102.006 Y105.091 E32.77447
G1 X102.082 Y105.938 E32.83231
G1 X97.480 Y101.335 E33.27487
G1 X97.480 Y102.106 E33.32727
G1 X103.799 Y108.426 E33.93487
G1 X103.337 Y108.735 E33.97265
G1 X97.480 Y102.877 E34.53584
G1 X97.480 Y103.648 E34.58825
G1 X102.918 Y109.086 E35.11114
G1 X102.583 Y109.523 E35.14851
