; generated by Slic3r 1.2.9 on 2018-01-23 at 19:47:25

; external perimeters extrusion width = 0.30mm
; perimeters extrusion width = 0.40mm
; infill extrusion width = 0.40mm
; solid infill extrusion width = 0.40mm
; top infill extrusion width = 0.40mm

M107
M190 S110 ; set bed temperature
M104 S250 ; set temperature
G28 ; home all axes
G1 Z5 F5000 ; lift nozzle
M109 S250 ; wait for temperature to be reached
G21 ; set units to millimeters
G90 ; use absolute coordinates
M82 ; use absolute distances for extrusion
G92 E0
G1 E-1.00000 F1800.00000
G92 E0
G1 Z0.300 F7800.000
G1 X81.166 Y79.387 F7800.000
G1 E1.00000 F1800.00000
G1 X83.424 Y77.666 E1.18961 F1080.000
G1 X96.749 Y71.516 E2.17003
G1 X99.487 Y70.914 E2.35736
G1 X113.837 Y70.914 E3.31602
G1 X116.080 Y71.311 E3.46819
G1 X118.051 Y72.454 E3.62036 F1080.000
G1 X119.510 Y74.203 E3.77253
G1 X120.373 Y77.450 E3.99696
G1 X120.373 Y122.550 E7.00988
G1 X119.976 Y124.793 E7.16206
G1 X118.834 Y126.763 E7.31423
G1 X117.084 Y128.222 E7.46640
G1 X113.837 Y129.086 E7.69083
G1 X99.487 Y129.086 E8.64948
G1 X96.749 Y128.484 E8.83681
G1 X83.424 Y122.334 E9.81723
G1 X81.553 Y121.034 E9.96941
G1 X80.243 Y119.171 E10.12158
G1 X79.627 Y116.400 E10.31119
G1 X79.627 Y83.600 E12.50240
G1 X80.024 Y81.357 E12.65458
G1 X81.144 Y79.425 E12.80374
G1 E11.80374 F1800.00000
G92 E0
G1 X112.311 Y120.153 F7800.000
G1 E1.00000 F1800.00000
G1 X111.933 Y120.646 E1.04151 F540.000
G1 X111.440 Y121.024 E1.08302
G1 X110.866 Y121.262 E1.12454
G1 X110.250 Y121.343 E1.16605
G1 X109.634 Y121.262 E1.20756
G1 X109.060 Y121.024 E1.24907
G1 X108.567 Y120.646 E1.29059
G1 X108.189 Y120.153 E1.33210
G1 X107.951 Y119.579 E1.37361
G1 X107.869 Y118.957 E1.41546
G1 X107.960 Y118.324 E1.45824
G1 X108.189 Y117.772 E1.49811
G1 X108.567 Y117.279 E1.53962
G1 X109.060 Y116.901 E1.58113
G1 X109.634 Y116.663 E1.62264
G1 X110.226 Y116.585 E1.66250 F540.000
G1 X110.861 Y116.661 E1.70528
G1 X111.440 Y116.901 E1.74714
G1 X111.933 Y117.279 E1.78865
G1 X112.311 Y117.772 E1.83016
G1 X112.549 Y118.346 E1.87167
G1 X112.631 Y118.968 E1.91353
G1 X112.540 Y119.601 E1.95631
G1 X112.329 Y120.111 E1.99316
G1 X111.844 Y119.883 F7800.000
G1 X111.551 Y120.264 E2.02525 F540.000
G1 X111.170 Y120.556 E2.05735
G1 X110.726 Y120.740 E2.08944
G1 X110.250 Y120.803 E2.12153
G1 X109.774 Y120.740 E2.15362
G1 X109.330 Y120.556 E2.18571
G1 X108.949 Y120.264 E2.21780
G1 X108.656 Y119.883 E2.24989
G1 X108.473 Y119.439 E2.28198
G1 X108.410 Y118.961 E2.31419
G1 X108.481 Y118.466 E2.34755
G1 X108.656 Y118.042 E2.37821
G1 X108.949 Y117.661 E2.41030
G1 X109.330 Y117.369 E2.44239
G1 X109.774 Y117.185 E2.47448
G1 X110.229 Y117.125 E2.50514 F540.000
G1 X110.725 Y117.184 E2.53850
G1 X111.170 Y117.369 E2.57071
G1 X111.551 Y117.661 E2.60280
G1 X111.844 Y118.042 E2.63489
G1 X112.027 Y118.486 E2.66698
G1 X112.090 Y118.964 E2.69920
G1 X112.019 Y119.459 E2.73255
G1 X111.861 Y119.841 E2.76021
G1 X111.982 Y120.149 F7800.000
G1 E1.76021 F1800.00000
G92 E0
G1 X108.301 Y121.179 F7800.000
G1 E1.00000 F1800.00000
G1 X105.024 Y121.179 E1.21889 F540.000
G1 X105.604 Y120.423 E1.28255
G1 X105.885 Y119.744 E1.33162
G1 X105.997 Y118.971 E1.38382
G1 X105.896 Y118.207 E1.43531
G1 X105.604 Y117.502 E1.48625
G1 X105.024 Y116.746 E1.54990
G1 X108.301 Y116.746 E1.76880
G1 X107.721 Y117.502 E1.83246
G1 X107.440 Y118.181 E1.88152
G1 X107.328 Y118.954 E1.93372
G1 X107.429 Y119.718 E1.98522
G1 X107.721 Y120.423 E2.03615
G1 X108.273 Y121.143 E2.09680
G1 X105.237 Y119.910 F7800.000
G1 X105.136 Y120.153 E2.11437 F540.000
G1 X104.758 Y120.646 E2.15588
G1 X104.265 Y121.024 E2.19739
G1 X103.691 Y121.262 E2.23891
G1 X103.075 Y121.343 E2.28042
G1 X102.459 Y121.262 E2.32193
G1 X101.885 Y121.024 E2.36344
G1 X101.392 Y120.646 E2.40496
G1 X101.014 Y120.153 E2.44647
G1 X100.776 Y119.579 E2.48798
G1 X100.695 Y118.963 E2.52949
G1 X100.776 Y118.346 E2.57101
G1 X101.014 Y117.772 E2.61252
G1 X101.392 Y117.279 E2.65403
G1 X101.885 Y116.901 E2.69554
G1 X102.459 Y116.663 E2.73706
G1 X103.051 Y116.585 E2.77692 F540.000
G1 X103.686 Y116.661 E2.81969
G1 X104.265 Y116.901 E2.86155
G1 X104.758 Y117.279 E2.90306
G1 X105.136 Y117.772 E2.94457
G1 X105.374 Y118.346 E2.98609
G1 X105.456 Y118.968 E3.02794
G1 X105.365 Y119.601 E3.07072
G1 X105.254 Y119.868 E3.09001
G1 X104.742 Y119.705 F7800.000
G1 X104.669 Y119.883 E3.10286 F540.000
G1 X104.376 Y120.264 E3.13496
G1 X103.995 Y120.556 E3.16705
G1 X103.551 Y120.740 E3.19914
G1 X103.075 Y120.803 E3.23123
G1 X102.599 Y120.740 E3.26332
G1 X102.155 Y120.556 E3.29541
G1 X101.774 Y120.264 E3.32750
G1 X101.481 Y119.883 E3.35959
G1 X101.298 Y119.439 E3.39168
G1 X101.235 Y118.963 E3.42377
G1 X101.298 Y118.486 E3.45586
G1 X101.481 Y118.042 E3.48795
G1 X101.774 Y117.661 E3.52004
G1 X102.155 Y117.369 E3.55213
G1 X102.599 Y117.185 E3.58423
G1 X103.054 Y117.125 E3.61488 F540.000
G1 X103.550 Y117.184 E3.64824
G1 X103.995 Y117.369 E3.68045
G1 X104.376 Y117.661 E3.71254
G1 X104.669 Y118.042 E3.74464
G1 X104.852 Y118.486 E3.77673
G1 X104.915 Y118.964 E3.80894
G1 X104.844 Y119.459 E3.84230
G1 X104.759 Y119.663 E3.85709
G1 X104.859 Y119.857 F7800.000
G1 E2.85709 F1800.00000
G92 E0
G1 X95.577 Y112.735 F7800.000
G1 E1.00000 F1800.00000
G1 X95.113 Y113.340 E1.05093 F540.000
G1 X94.508 Y113.804 E1.10187
G1 X93.804 Y114.096 E1.15280
G1 X93.048 Y114.196 E1.20374
G1 X92.292 Y114.096 E1.25467
G1 X91.580 Y113.801 E1.30617
G1 X90.966 Y113.318 E1.35837
G1 X90.518 Y112.735 E1.40743
G1 X90.223 Y112.023 E1.45893
G1 X90.131 Y111.247 E1.51113
G1 X90.227 Y110.519 E1.56019
G1 X90.518 Y109.815 E1.61112
G1 X90.983 Y109.210 E1.66206
G1 X91.594 Y108.741 E1.71356
G1 X92.320 Y108.450 E1.76576
G1 X93.048 Y108.354 E1.81482 F540.000
G1 X93.804 Y108.454 E1.86575
G1 X94.508 Y108.746 E1.91669
G1 X95.113 Y109.210 E1.96762
G1 X95.577 Y109.815 E2.01856
G1 X95.872 Y110.527 E2.07005
G1 X95.965 Y111.303 E2.12225
G1 X95.869 Y112.031 E2.17132
G1 X95.594 Y112.694 E2.21924
G1 X95.109 Y112.465 F7800.000
G1 X94.731 Y112.958 E2.26076 F540.000
G1 X94.238 Y113.336 E2.30227
G1 X93.664 Y113.574 E2.34378
G1 X93.048 Y113.655 E2.38529
G1 X92.432 Y113.574 E2.42681
G1 X91.853 Y113.334 E2.46866
G1 X91.350 Y112.939 E2.51144
G1 X90.986 Y112.465 E2.55130
G1 X90.747 Y111.886 E2.59316
G1 X90.671 Y111.251 E2.63593
G1 X90.748 Y110.659 E2.67580
G1 X90.986 Y110.085 E2.71731
G1 X91.365 Y109.592 E2.75882
G1 X91.862 Y109.210 E2.80068
G1 X92.456 Y108.973 E2.84345
G1 X93.048 Y108.895 E2.88332 F540.000
G1 X93.664 Y108.976 E2.92483
G1 X94.238 Y109.214 E2.96634
G1 X94.731 Y109.592 E3.00785
G1 X95.109 Y110.085 E3.04937
G1 X95.349 Y110.664 E3.09122
G1 X95.425 Y111.299 E3.13400
G1 X95.347 Y111.891 E3.17386
G1 X95.126 Y112.424 E3.21237
G1 X94.641 Y112.195 F7800.000
G1 X94.349 Y112.576 E3.24446 F540.000
G1 X93.968 Y112.869 E3.27655
G1 X93.524 Y113.052 E3.30864
G1 X93.048 Y113.115 E3.34073
G1 X92.571 Y113.052 E3.37282
G1 X92.126 Y112.868 E3.40503
G1 X91.734 Y112.559 E3.43839
G1 X91.454 Y112.195 E3.46905
G1 X91.270 Y111.750 E3.50126
G1 X91.210 Y111.254 E3.53462
G1 X91.270 Y110.799 E3.56528
G1 X91.454 Y110.355 E3.59737
G1 X91.747 Y109.974 E3.62946
G1 X92.129 Y109.680 E3.66168
G1 X92.593 Y109.495 E3.69503
G1 X93.048 Y109.435 E3.72569 F540.000
G1 X93.524 Y109.498 E3.75778
G1 X93.968 Y109.681 E3.78987
G1 X94.349 Y109.974 E3.82196
G1 X94.641 Y110.355 E3.85405
G1 X94.826 Y110.800 E3.88627
G1 X94.885 Y111.296 E3.91962
G1 X94.825 Y111.751 E3.95028
G1 X94.658 Y112.153 E3.97937
G1 X94.780 Y112.461 F7800.000
G1 X93.048 Y91.646 F7800.000
G1 X92.320 Y91.550 E4.02843 F540.000
G1 X91.594 Y91.259 E4.08063
G1 X90.983 Y90.790 E4.13213
G1 X90.518 Y90.185 E4.18306
G1 X90.223 Y89.473 E4.23456
G1 X90.131 Y88.697 E4.28676
G1 X90.227 Y87.969 E4.33582
G1 X90.518 Y87.265 E4.38676
G1 X90.983 Y86.660 E4.43769
G1 X91.594 Y86.191 E4.48919
G1 X92.320 Y85.900 E4.54139
G1 X93.048 Y85.804 E4.59045 F540.000
G1 X93.804 Y85.904 E4.64139
G1 X94.508 Y86.196 E4.69232
G1 X95.113 Y86.660 E4.74325
G1 X95.577 Y87.265 E4.79419
G1 X95.869 Y87.969 E4.84512
G1 X95.968 Y88.725 E4.89606
G1 X95.869 Y89.481 E4.94699
G1 X95.577 Y90.185 E4.99792
G1 X95.113 Y90.790 E5.04886
G1 X94.508 Y91.254 E5.09979
G1 X93.804 Y91.546 E5.15073
G1 X93.092 Y91.640 E5.19865
G1 X93.048 Y91.105 F7800.000
G1 X92.456 Y91.027 E5.23852 F540.000
G1 X91.862 Y90.790 E5.28129
G1 X91.365 Y90.408 E5.32315
G1 X90.986 Y89.915 E5.36466
G1 X90.747 Y89.336 E5.40652
G1 X90.671 Y88.701 E5.44929
G1 X90.748 Y88.109 E5.48916
G1 X90.986 Y87.535 E5.53067
G1 X91.365 Y87.042 E5.57218
G1 X91.862 Y86.660 E5.61404
G1 X92.456 Y86.423 E5.65681
G1 X93.048 Y86.345 E5.69668 F540.000
G1 X93.664 Y86.426 E5.73819
G1 X94.238 Y86.664 E5.77970
G1 X94.731 Y87.042 E5.82121
G1 X95.109 Y87.535 E5.86273
G1 X95.347 Y88.109 E5.90424
G1 X95.428 Y88.725 E5.94575
G1 X95.347 Y89.341 E5.98726
G1 X95.109 Y89.915 E6.02877
G1 X94.731 Y90.408 E6.07029
G1 X94.238 Y90.786 E6.11180
G1 X93.664 Y91.024 E6.15331
G1 X93.092 Y91.099 E6.19182
G1 X93.048 Y90.565 F7800.000
G1 X92.593 Y90.505 E6.22248 F540.000
G1 X92.129 Y90.320 E6.25583
G1 X91.747 Y90.026 E6.28805
G1 X91.454 Y89.645 E6.32014
G1 X91.270 Y89.200 E6.35235
G1 X91.210 Y88.704 E6.38571
G1 X91.270 Y88.249 E6.41637
G1 X91.454 Y87.805 E6.44846
G1 X91.747 Y87.424 E6.48055
G1 X92.129 Y87.130 E6.51276
G1 X92.593 Y86.945 E6.54612
G1 X93.048 Y86.885 E6.57678 F540.000
G1 X93.524 Y86.948 E6.60887
G1 X93.968 Y87.131 E6.64096
G1 X94.349 Y87.424 E6.67305
G1 X94.641 Y87.805 E6.70514
G1 X94.825 Y88.249 E6.73723
G1 X94.888 Y88.725 E6.76932
G1 X94.825 Y89.201 E6.80141
G1 X94.641 Y89.645 E6.83350
G1 X94.349 Y90.026 E6.86559
G1 X93.968 Y90.319 E6.89768
G1 X93.524 Y90.502 E6.92978
G1 X93.092 Y90.559 E6.95886
G1 X92.887 Y90.818 F7800.000
G1 E5.95886 F1800.00000
G92 E0
G1 X98.116 Y83.254 F7800.000
G1 E1.00000 F1800.00000
G1 X98.116 Y116.746 E3.23748 F540.000
G1 X101.126 Y116.746 E3.43853
G1 X100.546 Y117.502 E3.50219
G1 X100.254 Y118.207 E3.55312
G1 X100.154 Y118.963 E3.60406
G1 X100.254 Y119.718 E3.65499
G1 X100.546 Y120.423 E3.70592
G1 X101.126 Y121.179 E3.76958
G1 X99.789 Y121.179 E3.85891
G1 X87.534 Y115.523 E4.76060
G1 X87.534 Y84.477 E6.83459
G1 X99.789 Y78.821 E7.73628
G1 X101.126 Y78.821 E7.82560
G1 X100.546 Y79.577 E7.88926
G1 X100.254 Y80.282 E7.94019
G1 X100.154 Y81.037 E7.99113
G1 X100.254 Y81.793 E8.04206
G1 X100.546 Y82.498 E8.09300
G1 X101.126 Y83.254 E8.15665
G1 X98.161 Y83.254 E8.35470
G1 X100.952 Y82.079 F7800.000
G1 X100.776 Y81.654 E8.38547 F540.000
G1 X100.695 Y81.037 E8.42698
G1 X100.776 Y80.421 E8.46849
G1 X101.014 Y79.847 E8.51001
G1 X101.392 Y79.354 E8.55152
G1 X101.885 Y78.976 E8.59303
G1 X102.459 Y78.738 E8.63454
G1 X103.051 Y78.660 E8.67441 F540.000
G1 X103.686 Y78.736 E8.71718
G1 X104.265 Y78.976 E8.75904
G1 X104.758 Y79.354 E8.80055
G1 X105.136 Y79.847 E8.84206
G1 X105.374 Y80.421 E8.88357
G1 X105.456 Y81.043 E8.92543
G1 X105.365 Y81.676 E8.96821
G1 X105.136 Y82.228 E9.00807
G1 X104.758 Y82.721 E9.04958
G1 X104.265 Y83.099 E9.09110
G1 X103.691 Y83.337 E9.13261
G1 X103.075 Y83.418 E9.17412
G1 X102.459 Y83.337 E9.21563
G1 X101.885 Y83.099 E9.25714
G1 X101.392 Y82.721 E9.29866
G1 X101.014 Y82.228 E9.34017
G1 X100.969 Y82.121 E9.34791
G1 X101.447 Y81.874 F7800.000
G1 X101.298 Y81.514 E9.37396 F540.000
G1 X101.235 Y81.037 E9.40605
G1 X101.298 Y80.561 E9.43814
G1 X101.481 Y80.117 E9.47023
G1 X101.774 Y79.736 E9.50233
G1 X102.155 Y79.444 E9.53442
G1 X102.599 Y79.260 E9.56651
G1 X103.054 Y79.200 E9.59717 F540.000
G1 X103.550 Y79.259 E9.63052
G1 X103.995 Y79.444 E9.66274
G1 X104.376 Y79.736 E9.69483
G1 X104.669 Y80.117 E9.72692
G1 X104.852 Y80.561 E9.75901
G1 X104.915 Y81.039 E9.79122
G1 X104.844 Y81.534 E9.82458
G1 X104.669 Y81.958 E9.85524
G1 X104.376 Y82.339 E9.88733
G1 X103.995 Y82.631 E9.91942
G1 X103.551 Y82.815 E9.95151
G1 X103.075 Y82.878 E9.98360
G1 X102.599 Y82.815 E10.01569
G1 X102.155 Y82.631 E10.04778
G1 X101.774 Y82.339 E10.07987
G1 X101.464 Y81.916 E10.11490
G1 X101.147 Y81.857 F7800.000
G1 E9.11490 F1800.00000
G92 E0
G1 X105.024 Y83.254 F7800.000
G1 E1.00000 F1800.00000
G1 X105.604 Y82.498 E1.06366 F540.000
G1 X105.885 Y81.819 E1.11272
G1 X105.997 Y81.046 E1.16492
G1 X105.896 Y80.282 E1.21642
G1 X105.604 Y79.577 E1.26735
G1 X105.024 Y78.821 E1.33101
G1 X108.301 Y78.821 E1.54991
G1 X107.721 Y79.577 E1.61356
G1 X107.440 Y80.256 E1.66263
G1 X107.328 Y81.029 E1.71483
G1 X107.429 Y81.793 E1.76632
G1 X107.721 Y82.498 E1.81726
G1 X108.301 Y83.254 E1.88092
G1 X105.069 Y83.254 E2.09680
G1 X108.088 Y81.985 F7800.000
G1 X107.951 Y81.654 E2.12075 F540.000
G1 X107.869 Y81.032 E2.16260
G1 X107.960 Y80.399 E2.20538
G1 X108.189 Y79.847 E2.24524
G1 X108.567 Y79.354 E2.28675
G1 X109.060 Y78.976 E2.32827
G1 X109.634 Y78.738 E2.36978
G1 X110.226 Y78.660 E2.40964 F540.000
G1 X110.861 Y78.736 E2.45242
G1 X111.440 Y78.976 E2.49427
G1 X111.933 Y79.354 E2.53579
G1 X112.311 Y79.847 E2.57730
G1 X112.549 Y80.421 E2.61881
G1 X112.630 Y81.037 E2.66032
G1 X112.549 Y81.654 E2.70184
G1 X112.311 Y82.228 E2.74335
G1 X111.933 Y82.721 E2.78486
G1 X111.440 Y83.099 E2.82637
G1 X110.866 Y83.337 E2.86789
G1 X110.250 Y83.418 E2.90940
G1 X109.634 Y83.337 E2.95091
G1 X109.060 Y83.099 E2.99242
G1 X108.567 Y82.721 E3.03393
G1 X108.189 Y82.228 E3.07545
G1 X108.105 Y82.026 E3.09001
G1 X108.583 Y81.780 F7800.000
G1 X108.473 Y81.514 E3.10924 F540.000
G1 X108.410 Y81.036 E3.14146
G1 X108.481 Y80.541 E3.17481
G1 X108.656 Y80.117 E3.20547
G1 X108.949 Y79.736 E3.23756
G1 X109.330 Y79.444 E3.26965
G1 X109.774 Y79.260 E3.30174
G1 X110.229 Y79.200 E3.33240 F540.000
G1 X110.725 Y79.259 E3.36576
G1 X111.170 Y79.444 E3.39797
G1 X111.551 Y79.736 E3.43006
G1 X111.844 Y80.117 E3.46215
G1 X112.027 Y80.561 E3.49424
G1 X112.090 Y81.037 E3.52634
G1 X112.027 Y81.514 E3.55843
G1 X111.844 Y81.958 E3.59052
G1 X111.551 Y82.339 E3.62261
G1 X111.170 Y82.631 E3.65470
G1 X110.726 Y82.815 E3.68679
G1 X110.250 Y82.878 E3.71888
G1 X109.774 Y82.815 E3.75097
G1 X109.330 Y82.631 E3.78306
G1 X108.949 Y82.339 E3.81515
G1 X108.656 Y81.958 E3.84724
G1 X108.600 Y81.821 E3.85709
G1 X108.297 Y81.742 F7800.000
G1 X98.652 Y83.789 F7800.000
G1 X98.652 Y116.211 E6.02301 F540.000
G1 X113.002 Y116.211 E6.98166
G1 X113.002 Y121.714 E7.34934
G1 X99.671 Y121.714 E8.23992
G1 X86.998 Y115.865 E9.17236
G1 X86.998 Y84.135 E11.29214
G1 X99.671 Y78.286 E12.22458
G1 X113.002 Y78.286 E13.11516
G1 X113.002 Y83.789 E13.48284
G1 X98.697 Y83.789 E14.43849
G1 X99.187 Y84.325 F7800.000
G1 X99.187 Y115.675 E16.53284 F378.000
G1 X113.537 Y115.675 E17.49149
G1 X113.537 Y122.250 E17.93074
G1 X99.553 Y122.250 E18.86495
G1 X86.463 Y116.208 E19.82815
G1 X86.463 Y83.792 E21.99372
G1 X99.553 Y77.750 E22.95692
G1 X113.537 Y77.750 E23.89113
G1 X113.537 Y84.325 E24.33038
G1 X99.232 Y84.325 E25.28603
G1 X98.887 Y84.325 F7800.000
G1 X94.467 Y85.774 F7800.000
G1 X91.605 Y82.912 E25.55899 F1080.000
G1 X91.082 Y83.153 E25.59785
G1 X93.445 Y85.516 E25.82320
G1 X92.703 Y85.539 E25.87322
G1 X90.558 Y83.395 E26.07775
G1 X90.035 Y83.636 E26.11660
G1 X92.084 Y85.685 E26.31197
G1 X91.538 Y85.903 E26.35163
G1 X89.512 Y83.878 E26.54481
G1 X88.989 Y84.119 E26.58366
G1 X91.095 Y86.225 E26.78454
G1 X90.691 Y86.586 E26.82105
G1 X88.466 Y84.360 E27.03328
G1 X87.943 Y84.602 E27.07214
G1 X90.359 Y87.019 E27.30260
G1 X90.100 Y87.524 E27.34091
G1 X87.855 Y85.279 E27.55501
G1 X87.855 Y86.044 E27.60656
G1 X89.900 Y88.089 E27.80159
G1 X89.812 Y88.764 E27.84754
G1 X87.855 Y86.808 E28.03408
G1 X87.855 Y87.573 E28.08564
G1 X89.903 Y89.620 E28.28088
G1 X100.331 Y79.404 F7800.000
G1 X100.069 Y79.143 E28.30581 F1080.000
G1 X99.452 Y79.290 E28.34861
G1 X100.090 Y79.928 E28.40947
G1 X99.913 Y80.516 E28.45084
G1 X98.929 Y79.532 E28.54470
G1 X98.405 Y79.773 E28.58355
G1 X99.836 Y81.204 E28.71997
G1 X99.982 Y82.115 E28.78219
G1 X97.882 Y80.014 E28.98247
G1 X97.359 Y80.256 E29.02132
G1 X100.035 Y82.932 E29.27654
G1 X99.271 Y82.932 E29.32809
G1 X96.836 Y80.497 E29.56028
G1 X96.313 Y80.739 E29.59913
G1 X98.506 Y82.932 E29.80830
G1 X97.795 Y82.985 E29.85641
G1 X95.790 Y80.980 E30.04761
G1 X95.267 Y81.222 E30.08646
G1 X97.795 Y83.750 E30.32754
G1 X97.795 Y84.514 E30.37909
G1 X94.743 Y81.463 E30.67006
G1 X94.220 Y81.705 E30.70891
G1 X97.795 Y85.279 E31.04977
