; generated by Slic3r 1.2.9 on 2017-11-14 at 18:43:39

; external perimeters extrusion width = 0.30mm
; perimeters extrusion width = 0.40mm
; infill extrusion width = 0.40mm
; solid infill extrusion width = 0.40mm
; top infill extrusion width = 0.40mm

M107
M190 S110 ; set bed temperature
M104 S250 ; set temperature
G28 ; home all axes
G1 Z5 F5000 ; lift nozzle
M109 S250 ; wait for temperature to be reached
G21 ; set units to millimeters
G90 ; use absolute coordinates
M82 ; use absolute distances for extrusion
G92 E0
G1 E-1.00000 F1800.00000
G92 E0
G1 Z0.300 F7800.000
G1 X82.713 Y91.350 F7800.000
G1 E1.00000 F1800.00000
G1 X84.462 Y89.891 E1.15217 F1080.000
G1 X87.709 Y89.027 E1.37660
G1 X98.929 Y89.027 E2.12616
G1 X101.537 Y89.570 E2.30409
G1 X114.899 Y95.384 E3.27759 F1080.000
G1 X116.797 Y96.643 E3.42976
G1 X118.148 Y98.477 E3.58193
G1 X118.827 Y101.377 E3.78090
G1 X118.827 Y104.437 E3.98533
G1 X118.430 Y106.680 E4.13750
G1 X117.287 Y108.650 E4.28967
G1 X115.538 Y110.109 E4.44184
G1 X112.291 Y110.973 E4.66627
G1 X87.709 Y110.973 E6.30848
G1 X85.466 Y110.576 E6.46065
G1 X83.496 Y109.433 E6.61282
G1 X82.037 Y107.684 E6.76500
G1 X81.173 Y104.437 E6.98942
G1 X81.173 Y95.563 E7.58226
G1 X81.570 Y93.320 E7.73443
G1 X82.690 Y91.388 E7.88359
G1 E6.88359 F1800.00000
G92 E0
G1 X91.555 Y99.896 F7800.000
G1 E1.00000 F1800.00000
G1 X91.175 Y100.188 E1.03196 F540.000
G1 X90.733 Y100.371 E1.06392
G1 X90.259 Y100.433 E1.09588
G1 X89.785 Y100.371 E1.12784
G1 X89.343 Y100.188 E1.15980
G1 X88.963 Y99.896 E1.19176
G1 X88.672 Y99.517 E1.22372
G1 X88.489 Y99.075 E1.25568
G1 X88.426 Y98.601 E1.28764
G1 X88.489 Y98.126 E1.31960
G1 X88.672 Y97.684 E1.35156
G1 X88.963 Y97.305 E1.38352
G1 X89.344 Y97.012 E1.41560
G1 X89.806 Y96.828 E1.44883
G1 X90.259 Y96.768 E1.47936 F540.000
G1 X90.733 Y96.830 E1.51132
G1 X91.175 Y97.014 E1.54328
G1 X91.555 Y97.305 E1.57523
G1 X91.846 Y97.684 E1.60719
G1 X92.029 Y98.126 E1.63915
G1 X92.092 Y98.601 E1.67111
G1 X92.029 Y99.075 E1.70307
G1 X91.846 Y99.517 E1.73503
G1 X91.582 Y99.861 E1.76399
G1 X91.620 Y100.189 F7800.000
G1 E0.76399 F1800.00000
G92 E0
G1 X88.980 Y96.617 F7800.000
G1 E1.00000 F1800.00000
G1 X88.545 Y96.951 E1.03667 F540.000
G1 X88.545 Y96.399 E1.07356
G1 X88.906 Y96.399 E1.09770
G1 X88.966 Y96.574 E1.11008
G1 X92.695 Y96.934 F7800.000
G1 X93.885 Y96.934 E1.18962 F540.000
G1 X93.562 Y97.744 E1.24787
G1 X93.463 Y98.490 E1.29813
G1 X93.565 Y99.224 E1.34765
G1 X93.856 Y99.927 E1.39846
G1 X94.319 Y100.530 E1.44926
G1 X94.922 Y100.993 E1.50006
G1 X95.625 Y101.284 E1.55087
G1 X96.379 Y101.383 E1.60167
G1 X97.133 Y101.284 E1.65247
G1 X97.558 Y101.108 E1.68319
G1 X97.558 Y103.066 E1.81399
G1 X89.080 Y103.066 E2.38033
G1 X89.080 Y101.238 E2.50241
G1 X89.505 Y101.414 E2.53312
G1 X90.259 Y101.514 E2.58393
G1 X91.013 Y101.414 E2.63473
G1 X91.716 Y101.123 E2.68553
G1 X92.319 Y100.660 E2.73634
G1 X92.782 Y100.057 E2.78714
G1 X93.073 Y99.355 E2.83794
G1 X93.175 Y98.581 E2.89007
G1 X93.073 Y97.847 E2.93959
G1 X92.712 Y96.976 E3.00257
G1 E2.00257 F1800.00000
G92 E0
G1 X98.093 Y102.213 F7800.000
G1 E1.00000 F1800.00000
G1 X111.455 Y102.213 E1.89265 F540.000
G1 X111.455 Y103.601 E1.98543
G1 X88.545 Y103.601 E3.51599
G1 X88.545 Y100.250 E3.73985
G1 X89.073 Y100.656 E3.78431
G1 X89.645 Y100.893 E3.82569
G1 X90.259 Y100.973 E3.86707
G1 X90.873 Y100.893 E3.90846
G1 X91.445 Y100.656 E3.94984
G1 X91.937 Y100.278 E3.99122
G1 X92.314 Y99.787 E4.03260
G1 X92.551 Y99.215 E4.07398
G1 X92.632 Y98.601 E4.11536
G1 X92.551 Y97.986 E4.15675
G1 X92.314 Y97.414 E4.19813
G1 X91.937 Y96.923 E4.23951
G1 X91.538 Y96.617 E4.27310
G1 X91.612 Y96.399 E4.28848
G1 X94.856 Y96.399 E4.50519
G1 X94.930 Y96.617 E4.52058
G1 X94.701 Y96.792 E4.53983
G1 X94.321 Y97.288 E4.58156
G1 X94.084 Y97.880 E4.62421
G1 X94.006 Y98.470 E4.66393
G1 X94.087 Y99.084 E4.70532
G1 X94.324 Y99.656 E4.74670
G1 X94.701 Y100.148 E4.78808
G1 X95.193 Y100.525 E4.82946
G1 X95.765 Y100.762 E4.87084
G1 X96.379 Y100.843 E4.91222
G1 X96.993 Y100.762 E4.95360
G1 X97.565 Y100.525 E4.99499
G1 X98.093 Y100.120 E5.03944
G1 X98.093 Y102.168 E5.17625
G1 X97.214 Y100.091 F7800.000
G1 X96.853 Y100.240 E5.20236 F540.000
G1 X96.379 Y100.303 E5.23432
G1 X95.905 Y100.240 E5.26628
G1 X95.463 Y100.057 E5.29824
G1 X95.083 Y99.766 E5.33020
G1 X94.792 Y99.386 E5.36216
G1 X94.609 Y98.944 E5.39412
G1 X94.546 Y98.470 E5.42608
G1 X94.606 Y98.017 E5.45661
G1 X94.791 Y97.555 E5.48983
G1 X95.083 Y97.174 E5.52192
G1 X95.464 Y96.882 E5.55400
G1 X95.926 Y96.697 E5.58722
G1 X96.379 Y96.637 E5.61775 F540.000
G1 X96.853 Y96.700 E5.64971
G1 X97.295 Y96.883 E5.68167
G1 X97.675 Y97.174 E5.71363
G1 X97.966 Y97.554 E5.74559
G1 X98.149 Y97.996 E5.77755
G1 X98.212 Y98.470 E5.80951
G1 X98.149 Y98.944 E5.84147
G1 X97.965 Y99.388 E5.87355
G1 X97.658 Y99.779 E5.90678
G1 X97.256 Y100.073 E5.94006
G1 X97.197 Y100.390 F7800.000
G1 X98.629 Y101.677 F7800.000
G1 X111.991 Y101.677 E6.83272 F378.000
G1 X111.991 Y104.137 E6.99706
G1 X88.009 Y104.137 E8.59919
G1 X88.009 Y95.863 E9.15193
G1 X98.629 Y95.863 E9.86141
G1 X98.629 Y101.632 E10.24681
G1 X98.629 Y101.977 F7800.000
G1 X97.236 Y101.881 F7800.000
G1 X96.971 Y101.616 E10.27215 F1080.000
G1 X96.294 Y101.705 E10.31832
G1 X97.236 Y102.647 E10.40840
G1 X96.567 Y102.744 E10.45411
G1 X95.420 Y101.597 E10.56375
G1 X95.800 Y102.744 F7800.000
G1 X93.098 Y100.042 E10.82204 F1080.000
G1 X92.790 Y100.500 E10.85936
G1 X95.034 Y102.744 E11.07388
G1 X94.268 Y102.744 E11.12568
G1 X92.439 Y100.916 E11.30045
G1 X92.006 Y101.249 E11.33739
G1 X93.501 Y102.744 E11.48035
G1 X92.735 Y102.744 E11.53215
G1 X91.510 Y101.519 E11.64925
G1 X90.957 Y101.732 E11.68933
G1 X91.968 Y102.744 E11.78605
G1 X91.202 Y102.744 E11.83785
G1 X90.279 Y101.821 E11.92605
G1 X89.439 Y101.747 E11.98309
G1 X90.436 Y102.744 E12.07838
G1 X89.669 Y102.744 E12.13019
G1 X89.402 Y102.477 E12.15573
G1 E11.15573 F1800.00000
G92 E0
G1 X89.204 Y96.443 F7800.000
G1 E1.00000 F1800.00000
G1 X89.709 Y96.350 E1.07275 F360.000
G1 X90.235 Y96.315 E1.14739
G1 X90.832 Y96.351 E1.23211
G1 X91.314 Y96.443 E1.30162
G1 X95.144 Y96.415 F7800.000
G1 X95.838 Y96.284 E1.34876 F360.000
G1 X96.364 Y96.250 E1.38397
G1 X96.906 Y96.283 E1.42030
G1 X96.908 Y96.276 F7800.000
G1 X98.361 Y96.565 E1.63020 F360.000
G1 X98.345 Y96.730 F7800.000
G1 X98.302 Y97.165 E1.65941 F360.000
G1 X98.241 Y97.274 E1.66776
G1 X98.347 Y97.735 E1.69938
G1 X97.826 Y102.907 F7800.000
G1 X111.188 Y102.907 E3.59198 F360.000
M106 S255
G1 E2.59198 F1800.00000
G92 E0
G1 Z0.500 F7800.000
G1 X91.883 Y99.036 F7800.000
G1 E1.00000 F1800.00000
G1 X91.715 Y99.441 E1.00938 F701.575
G1 X91.448 Y99.789 E1.01876
G1 X91.100 Y100.057 E1.02815
G1 X90.694 Y100.225 E1.03753
G1 X90.259 Y100.282 E1.04691
G1 X89.824 Y100.225 E1.05629
G1 X89.418 Y100.057 E1.06568
G1 X89.070 Y99.789 E1.07506
G1 X88.836 Y99.485 E1.08328
G1 X88.635 Y99.038 E1.09374
G1 X88.578 Y98.601 E1.10317
G1 X88.635 Y98.165 E1.11255
G1 X88.803 Y97.760 E1.12193
G1 X89.070 Y97.412 E1.13132
G1 X89.420 Y97.143 E1.14075
G1 X89.878 Y96.970 E1.15121
G1 X90.259 Y96.919 E1.15943 F701.575
G1 X90.694 Y96.977 E1.16881
G1 X91.100 Y97.145 E1.17819
G1 X91.448 Y97.412 E1.18758
G1 X91.715 Y97.760 E1.19696
G1 X91.883 Y98.165 E1.20634
G1 X91.940 Y98.601 E1.21572
G1 X91.889 Y98.991 E1.22414
G1 X92.086 Y99.257 F7800.000
G1 X94.723 Y98.662 F7800.000
G1 X94.698 Y98.470 E1.22828 F701.575
G1 X94.748 Y98.089 E1.23650
G1 X94.922 Y97.631 E1.24696
G1 X95.190 Y97.281 E1.25639
G1 X95.540 Y97.013 E1.26583
G1 X95.998 Y96.839 E1.27629
G1 X96.379 Y96.789 E1.28451 F701.575
G1 X96.814 Y96.846 E1.29389
G1 X97.220 Y97.014 E1.30327
G1 X97.568 Y97.281 E1.31265
G1 X97.835 Y97.629 E1.32204
G1 X98.003 Y98.035 E1.33142
G1 X98.060 Y98.470 E1.34080
G1 X98.003 Y98.905 E1.35018
G1 X97.835 Y99.311 E1.35956
G1 X97.568 Y99.659 E1.36895
G1 X97.220 Y99.926 E1.37833
G1 X96.814 Y100.094 E1.38771
G1 X96.379 Y100.151 E1.39709
G1 X95.944 Y100.094 E1.40648
G1 X95.538 Y99.926 E1.41586
G1 X95.190 Y99.659 E1.42524
G1 X94.923 Y99.311 E1.43462
G1 X94.755 Y98.905 E1.44400
G1 X94.729 Y98.707 E1.44829
G1 X94.544 Y98.588 F7800.000
G1 E0.44829 F1800.00000
G92 E0
G1 X98.120 Y102.186 F7800.000
G1 E1.00000 F1800.00000
G1 X111.482 Y102.186 E1.39268 F701.575
G1 X111.482 Y103.628 E1.43507
G1 X88.518 Y103.628 E2.10995
G1 X88.518 Y100.196 E2.21083
G1 X89.086 Y100.632 E2.23189
G1 X89.652 Y100.866 E2.24988
G1 X90.259 Y100.946 E2.26788
G1 X90.866 Y100.866 E2.28587
G1 X91.432 Y100.632 E2.30387
G1 X91.918 Y100.259 E2.32186
G1 X92.290 Y99.773 E2.33986
G1 X92.525 Y99.208 E2.35785
G1 X92.605 Y98.601 E2.37585
G1 X92.525 Y97.994 E2.39384
G1 X92.290 Y97.428 E2.41184
G1 X91.918 Y96.942 E2.42983
G1 X91.362 Y96.516 E2.45042
G1 X91.411 Y96.372 E2.45489
G1 X95.057 Y96.372 E2.56204
G1 X95.106 Y96.516 E2.56651
G1 X94.720 Y96.811 E2.58079
G1 X94.340 Y97.307 E2.59914
G1 X94.105 Y97.927 E2.61863
G1 X94.033 Y98.470 E2.63473
G1 X94.113 Y99.077 E2.65272
G1 X94.348 Y99.643 E2.67072
G1 X94.720 Y100.129 E2.68871
G1 X95.206 Y100.501 E2.70671
G1 X95.772 Y100.736 E2.72470
G1 X96.379 Y100.816 E2.74270
G1 X96.986 Y100.736 E2.76070
G1 X97.552 Y100.501 E2.77869
G1 X98.120 Y100.065 E2.79975
G1 X98.120 Y102.141 E2.86074
G1 X98.120 Y96.875 F7800.000
G1 X97.652 Y96.516 E2.87808 F701.575
G1 X97.701 Y96.372 E2.88255
G1 X98.120 Y96.372 E2.89487
G1 X98.120 Y96.830 E2.90834
G1 X89.156 Y96.516 F7800.000
G1 X88.518 Y97.005 E2.93198 F701.575
G1 X88.518 Y96.372 E2.95061
G1 X89.107 Y96.372 E2.96794
G1 X89.142 Y96.473 E2.97108
G1 E1.97108 F1800.00000
G92 E0
G1 X98.474 Y101.832 F7800.000
G1 E1.00000 F1800.00000
G1 X111.836 Y101.832 E1.39268 F701.575
G1 X111.836 Y103.982 E1.45585
G1 X88.164 Y103.982 E2.15150
G1 X88.164 Y99.143 E2.29369
G1 X88.332 Y99.108 E2.29872
G1 X88.572 Y99.642 E2.31595
G1 X88.852 Y100.007 E2.32947
G1 X89.264 Y100.323 E2.34473
G1 X89.744 Y100.522 E2.35999
G1 X90.259 Y100.590 E2.37525
G1 X90.774 Y100.522 E2.39051
G1 X91.254 Y100.323 E2.40578
G1 X91.666 Y100.007 E2.42104
G1 X91.982 Y99.595 E2.43630
G1 X92.180 Y99.115 E2.45156
G1 X92.248 Y98.601 E2.46682
G1 X92.180 Y98.086 E2.48208
G1 X91.982 Y97.606 E2.49734
G1 X91.666 Y97.194 E2.51260
G1 X91.254 Y96.878 E2.52786
G1 X90.774 Y96.679 E2.54312
G1 X90.259 Y96.611 E2.55838
G1 X89.803 Y96.672 E2.57190
G1 X89.270 Y96.874 E2.58865
G1 X88.852 Y97.194 E2.60412
G1 X88.536 Y97.606 E2.61938
G1 X88.335 Y98.092 E2.63484
G1 X88.164 Y98.058 E2.63996
G1 X88.164 Y96.018 E2.69991
G1 X98.474 Y96.018 E3.00288
G1 X98.474 Y97.928 E3.05899
G1 X98.303 Y97.962 E3.06411
G1 X98.102 Y97.475 E3.07957
G1 X97.786 Y97.063 E3.09483
G1 X97.374 Y96.747 E3.11009
G1 X96.894 Y96.549 E3.12535
G1 X96.379 Y96.481 E3.14061
G1 X95.923 Y96.541 E3.15414
G1 X95.390 Y96.743 E3.17089
G1 X94.972 Y97.063 E3.18635
G1 X94.652 Y97.481 E3.20182
G1 X94.450 Y98.014 E3.21857
G1 X94.390 Y98.470 E3.23209
G1 X94.458 Y98.985 E3.24735
G1 X94.656 Y99.465 E3.26261
G1 X94.972 Y99.877 E3.27787
G1 X95.384 Y100.193 E3.29313
G1 X95.864 Y100.391 E3.30839
G1 X96.379 Y100.459 E3.32365
G1 X96.894 Y100.391 E3.33891
G1 X97.374 Y100.193 E3.35417
G1 X97.786 Y99.877 E3.36943
G1 X98.102 Y99.465 E3.38469
G1 X98.303 Y98.978 E3.40016
G1 X98.474 Y99.012 E3.40527
G1 X98.474 Y101.787 E3.48682
G1 X98.779 Y101.527 F7800.000
G1 X112.141 Y101.527 E3.77245 F600.000
G1 X112.141 Y104.287 E3.83145
G1 X87.859 Y104.287 E4.35051
G1 X87.859 Y95.713 E4.53379
G1 X98.779 Y95.713 E4.76722
G1 X98.779 Y101.482 E4.89054
G1 X98.779 Y101.827 F7800.000
G1 X98.397 Y98.841 F7800.000
G1 X98.419 Y98.443 E4.91542 F600.000
G1 X98.397 Y98.099 E4.93694
G1 X97.507 Y96.395 F7800.000
G1 X96.952 Y96.286 E4.95355 F600.000
G1 X96.386 Y96.249 E4.97021
G1 X95.848 Y96.285 E4.98607
G1 X95.251 Y96.394 E5.00389
G1 X91.970 Y96.761 F7800.000
G1 X92.154 Y96.577 E5.01163 F1403.149
G1 X92.660 Y96.577 E5.02665
G1 X92.206 Y97.030 E5.04570
G1 X92.426 Y97.316 E5.05642
G1 X93.165 Y96.577 E5.08749
G1 X93.671 Y96.577 E5.10251
G1 X92.585 Y97.663 E5.14814
G1 X92.727 Y98.026 E5.15974
G1 X94.176 Y96.577 E5.22064
G1 X94.177 Y97.082 E5.23564
G1 X92.786 Y98.473 E5.29410
G1 X92.771 Y98.993 E5.30958
G1 X93.895 Y97.869 E5.35683
G1 X93.831 Y98.438 E5.37384
G1 X92.588 Y99.682 E5.42609
G1 X88.723 Y101.019 F7800.000
G1 X88.975 Y100.768 E5.43667 F1403.149
G1 X89.321 Y100.927 E5.44799
G1 X88.723 Y101.525 E5.47312
G1 X88.723 Y102.030 E5.48814
G1 X89.685 Y101.069 E5.52855
G1 X90.131 Y101.127 E5.54194
G1 X88.723 Y102.536 E5.60112
G1 X88.723 Y103.041 E5.61614
G1 X90.652 Y101.112 E5.69721
G1 X91.340 Y100.930 E5.71836
G1 X88.847 Y103.423 E5.82315
G1 X89.352 Y103.423 E5.83817
G1 X93.890 Y98.885 E6.02889
G1 X94.000 Y99.280 E6.04109
G1 X89.858 Y103.423 E6.21519
G1 X90.363 Y103.423 E6.23022
G1 X94.148 Y99.638 E6.38930
G1 X94.353 Y99.938 E6.40010
G1 X90.869 Y103.423 E6.54657
G1 X91.374 Y103.423 E6.56159
G1 X94.573 Y100.224 E6.69603
G1 X94.852 Y100.450 E6.70671
G1 X91.879 Y103.423 E6.83164
G1 X92.385 Y103.423 E6.84666
G1 X95.138 Y100.670 E6.96236
G1 X95.495 Y100.818 E6.97385
G1 X92.890 Y103.423 E7.08332
G1 X93.396 Y103.423 E7.09834
G1 X95.872 Y100.947 E7.20240
G1 X96.319 Y101.006 E7.21579
G1 X93.901 Y103.423 E7.31739
G1 X94.407 Y103.423 E7.33241
G1 X96.860 Y100.970 E7.43550
G1 X97.590 Y100.745 E7.45821
G1 X94.912 Y103.423 E7.57075
G1 X95.418 Y103.423 E7.58577
G1 X97.915 Y100.926 E7.69073
G1 X97.915 Y101.431 E7.70575
G1 X95.923 Y103.423 E7.78946
G1 X96.429 Y103.423 E7.80448
G1 X97.915 Y101.937 E7.86695
G1 X97.966 Y102.391 E7.88054
G1 X96.934 Y103.423 E7.92391
G1 X97.440 Y103.423 E7.93893
G1 X98.471 Y102.391 E7.98230
G1 X98.977 Y102.391 E7.99732
G1 X97.945 Y103.423 E8.04068
G1 X98.450 Y103.423 E8.05570
G1 X99.482 Y102.391 E8.09907
G1 X99.988 Y102.391 E8.11409
G1 X98.956 Y103.423 E8.15746
G1 X99.461 Y103.423 E8.17248
G1 X100.493 Y102.391 E8.21584
G1 X100.999 Y102.391 E8.23087
G1 X99.967 Y103.423 E8.27423
G1 X100.472 Y103.423 E8.28925
G1 X101.504 Y102.391 E8.33262
G1 X102.010 Y102.391 E8.34764
G1 X100.978 Y103.423 E8.39101
G1 X101.483 Y103.423 E8.40603
G1 X102.515 Y102.391 E8.44939
G1 X103.020 Y102.391 E8.46441
G1 X101.989 Y103.423 E8.50778
G1 X102.494 Y103.423 E8.52280
G1 X103.526 Y102.391 E8.56617
G1 X104.031 Y102.391 E8.58119
G1 X103.000 Y103.423 E8.62455
G1 X103.505 Y103.423 E8.63958
G1 X104.537 Y102.391 E8.68294
G1 X105.042 Y102.391 E8.69796
G1 X104.011 Y103.423 E8.74133
G1 X104.516 Y103.423 E8.75635
G1 X105.548 Y102.391 E8.79972
G1 X106.053 Y102.391 E8.81474
G1 X105.021 Y103.423 E8.85810
G1 X105.527 Y103.423 E8.87312
G1 X106.559 Y102.391 E8.91649
G1 X107.064 Y102.391 E8.93151
G1 X106.032 Y103.423 E8.97488
G1 X106.538 Y103.423 E8.98990
G1 X107.570 Y102.391 E9.03326
G1 X108.075 Y102.391 E9.04829
G1 X107.043 Y103.423 E9.09165
G1 X107.549 Y103.423 E9.10667
G1 X108.581 Y102.391 E9.15004
G1 X109.086 Y102.391 E9.16506
G1 X108.054 Y103.423 E9.20843
G1 X108.560 Y103.423 E9.22345
G1 X109.591 Y102.391 E9.26681
G1 X110.097 Y102.391 E9.28183
G1 X109.065 Y103.423 E9.32520
G1 X109.571 Y103.423 E9.34022
G1 X110.602 Y102.391 E9.38359
G1 X111.108 Y102.391 E9.39861
G1 X110.076 Y103.423 E9.44197
G1 X110.581 Y103.423 E9.45700
G1 X111.277 Y102.727 E9.48622
G1 X111.277 Y103.233 E9.50125
G1 X111.087 Y103.423 E9.50923
G1 E8.50923 F1800.00000
G92 E0
G1 X91.207 Y96.422 F7800.000
G1 E1.00000 F1800.00000
G1 X90.840 Y96.352 E1.02327 F600.000
G1 X90.243 Y96.315 E1.06057
G1 X89.739 Y96.348 E1.09206
G1 X89.312 Y96.424 E1.11914
G1 X88.241 Y98.229 F7800.000
G1 X88.219 Y98.574 E1.14066 F600.000
G1 X88.241 Y98.971 E1.16547
G1 E0.16547 F1800.00000
G92 E0
G1 Z0.700 F7800.000
G1 X91.883 Y99.036 F7800.000
G1 E1.00000 F1800.00000
G1 X91.715 Y99.441 E1.00938 F698.121
G1 X91.448 Y99.789 E1.01876
G1 X91.100 Y100.057 E1.02815
G1 X90.694 Y100.225 E1.03753
G1 X90.259 Y100.282 E1.04691
G1 X89.824 Y100.225 E1.05629
G1 X89.418 Y100.057 E1.06568
G1 X89.070 Y99.789 E1.07506
G1 X88.803 Y99.441 E1.08444
G1 X88.635 Y99.036 E1.09382
G1 X88.578 Y98.601 E1.10320
G1 X88.635 Y98.165 E1.11259
G1 X88.803 Y97.760 E1.12197
G1 X89.070 Y97.412 E1.13135
G1 X89.418 Y97.145 E1.14073
G1 X89.824 Y96.977 E1.15011
G1 X89.921 Y96.964 E1.15221
G1 X90.259 Y96.919 E1.15950 F698.121
G1 X90.694 Y96.977 E1.16888
G1 X91.100 Y97.145 E1.17826
G1 X91.448 Y97.412 E1.18764
G1 X91.715 Y97.760 E1.19703
