; generated by Slic3r 1.2.9 on 2017-11-14 at 18:44:05

; external perimeters extrusion width = 0.30mm
; perimeters extrusion width = 0.40mm
; infill extrusion width = 0.40mm
; solid infill extrusion width = 0.40mm
; top infill extrusion width = 0.40mm

M107
M190 S110 ; set bed temperature
M104 S250 ; set temperature
G28 ; home all axes
G1 Z5 F5000 ; lift nozzle
M109 S250 ; wait for temperature to be reached
G21 ; set units to millimeters
G90 ; use absolute coordinates
M82 ; use absolute distances for extrusion
G92 E0
G1 E-1.00000 F1800.00000
G92 E0
G1 Z0.300 F7800.000
G1 X82.713 Y97.164 F7800.000
G1 E1.00000 F1800.00000
G1 X85.101 Y95.384 E1.19898 F1080.000
G1 X98.463 Y89.570 E2.17247
G1 X101.071 Y89.027 E2.35040
G1 X112.291 Y89.027 E3.09996
G1 X114.534 Y89.424 E3.25213
G1 X116.504 Y90.567 E3.40430 F1080.000
G1 X117.963 Y92.316 E3.55647
G1 X118.827 Y95.563 E3.78090
G1 X118.827 Y104.437 E4.37374
G1 X118.430 Y106.680 E4.52591
G1 X117.287 Y108.650 E4.67808
G1 X115.538 Y110.109 E4.83025
G1 X112.291 Y110.973 E5.05468
G1 X87.709 Y110.973 E6.69689
G1 X85.466 Y110.576 E6.84906
G1 X83.496 Y109.433 E7.00123
G1 X82.037 Y107.684 E7.15340
G1 X81.173 Y104.437 E7.37783
G1 X81.173 Y101.377 E7.58226
G1 X81.570 Y99.134 E7.73443
G1 X82.690 Y97.202 E7.88359
G1 E6.88359 F1800.00000
G92 E0
G1 X110.657 Y100.188 F7800.000
G1 E1.00000 F1800.00000
G1 X110.215 Y100.371 E1.03196 F540.000
G1 X109.741 Y100.433 E1.06392
G1 X109.267 Y100.371 E1.09588
G1 X108.825 Y100.188 E1.12784
G1 X108.444 Y99.895 E1.15992
G1 X108.146 Y99.497 E1.19315
G1 X107.971 Y99.075 E1.22368
G1 X107.908 Y98.599 E1.25576
G1 X107.979 Y98.107 E1.28899
G1 X108.154 Y97.684 E1.31951
G1 X108.445 Y97.305 E1.35147
G1 X108.825 Y97.014 E1.38343
G1 X109.267 Y96.830 E1.41539
G1 X109.720 Y96.771 E1.44592 F540.000
G1 X110.214 Y96.830 E1.47915
G1 X110.657 Y97.014 E1.51123
G1 X111.037 Y97.305 E1.54319
G1 X111.328 Y97.684 E1.57515
G1 X111.511 Y98.126 E1.60711
G1 X111.574 Y98.601 E1.63907
G1 X111.511 Y99.075 E1.67103
G1 X111.328 Y99.517 E1.70299
G1 X111.037 Y99.896 E1.73495
G1 X110.693 Y100.160 E1.76390
G1 X110.644 Y100.487 F7800.000
G1 X110.920 Y101.238 F7800.000
G1 X110.920 Y103.066 E1.88597 F540.000
G1 X102.442 Y103.066 E2.45232
G1 X102.442 Y101.108 E2.58312
G1 X102.867 Y101.284 E2.61383
G1 X103.621 Y101.383 E2.66464
G1 X104.375 Y101.284 E2.71544
G1 X105.078 Y100.993 E2.76624
G1 X105.681 Y100.530 E2.81705
G1 X106.144 Y99.927 E2.86785
G1 X106.435 Y99.224 E2.91865
G1 X106.537 Y98.490 E2.96817
G1 X106.435 Y97.716 E3.02031
G1 X106.111 Y96.934 E3.07684
G1 X107.305 Y96.934 E3.15661
G1 X106.938 Y97.821 E3.22072
G1 X106.825 Y98.580 E3.27203
G1 X106.927 Y99.355 E3.32419
G1 X107.207 Y100.031 E3.37312
G1 X107.674 Y100.655 E3.42519
G1 X108.284 Y101.123 E3.47656
G1 X108.987 Y101.414 E3.52736
G1 X109.741 Y101.514 E3.57816
G1 X110.495 Y101.414 E3.62897
G1 X110.878 Y101.256 E3.65668
G1 X101.907 Y102.213 F7800.000
G1 X101.907 Y100.120 E3.79649 F540.000
G1 X102.435 Y100.525 E3.84095
G1 X103.007 Y100.762 E3.88233
G1 X103.621 Y100.843 E3.92371
G1 X104.235 Y100.762 E3.96509
G1 X104.807 Y100.525 E4.00647
G1 X105.299 Y100.148 E4.04785
G1 X105.676 Y99.656 E4.08924
G1 X105.913 Y99.084 E4.13062
G1 X105.994 Y98.470 E4.17200
G1 X105.913 Y97.856 E4.21338
G1 X105.685 Y97.306 E4.25311
G1 X105.303 Y96.795 E4.29576
G1 X105.070 Y96.617 E4.31536
G1 X105.144 Y96.399 E4.33074
G1 X108.388 Y96.399 E4.54745
G1 X108.462 Y96.617 E4.56283
G1 X108.063 Y96.923 E4.59643
G1 X107.686 Y97.414 E4.63781
G1 X107.458 Y97.964 E4.67754
G1 X107.367 Y98.596 E4.72018
G1 X107.449 Y99.215 E4.76191
G1 X107.677 Y99.764 E4.80164
G1 X108.059 Y100.275 E4.84429
G1 X108.555 Y100.656 E4.88601
G1 X109.127 Y100.893 E4.92739
G1 X109.741 Y100.973 E4.96878
G1 X110.355 Y100.893 E5.01016
G1 X110.927 Y100.656 E5.05154
G1 X111.455 Y100.250 E5.09600
G1 X111.455 Y103.601 E5.31986
G1 X88.545 Y103.601 E6.85042
G1 X88.545 Y102.213 E6.94320
G1 X101.862 Y102.213 E7.83284
G1 E6.83284 F1800.00000
G92 E0
G1 X111.020 Y96.617 F7800.000
G1 E1.00000 F1800.00000
G1 X111.094 Y96.399 E1.01538 F540.000
G1 X111.455 Y96.399 E1.03953
G1 X111.455 Y96.951 E1.07642
G1 X111.056 Y96.644 E1.11008
G1 X105.391 Y97.996 F7800.000
G1 X105.454 Y98.470 E1.14204 F540.000
G1 X105.391 Y98.944 E1.17400
G1 X105.208 Y99.386 E1.20596
G1 X104.917 Y99.766 E1.23792
G1 X104.537 Y100.057 E1.26988
G1 X104.095 Y100.240 E1.30184
G1 X103.621 Y100.303 E1.33380
G1 X103.147 Y100.240 E1.36576
G1 X102.705 Y100.057 E1.39772
G1 X102.325 Y99.766 E1.42968
G1 X102.034 Y99.386 E1.46164
G1 X101.851 Y98.944 E1.49360
G1 X101.788 Y98.468 E1.52568
G1 X101.859 Y97.976 E1.55891
G1 X102.034 Y97.554 E1.58944
G1 X102.325 Y97.174 E1.62140
G1 X102.705 Y96.883 E1.65336
G1 X103.147 Y96.700 E1.68532
G1 X103.600 Y96.640 E1.71585 F540.000
G1 X104.094 Y96.699 E1.74907
G1 X104.537 Y96.883 E1.78116
G1 X104.918 Y97.175 E1.81324
G1 X105.216 Y97.573 E1.84646
G1 X105.374 Y97.954 E1.87399
G1 X105.677 Y98.086 F7800.000
G1 E0.87399 F1800.00000
G92 E0
G1 X101.371 Y101.677 F7800.000
G1 E1.00000 F1800.00000
G1 X101.371 Y95.863 E1.38841 F378.000
G1 X111.991 Y95.863 E2.09788
G1 X111.991 Y104.137 E2.65063
G1 X88.009 Y104.137 E4.25276
G1 X88.009 Y101.677 E4.41710
G1 X101.326 Y101.677 E5.30675
G1 X101.671 Y101.677 F7800.000
G1 X102.174 Y102.907 F7800.000
G1 X88.812 Y102.907 E7.19935 F360.000
G1 E6.19935 F1800.00000
G92 E0
G1 X101.653 Y97.735 F7800.000
G1 E1.00000 F1800.00000
G1 X101.759 Y97.274 E1.03162 F360.000
G1 X101.698 Y97.165 E1.03997
G1 X101.655 Y96.730 E1.06918
G1 X101.639 Y96.565 F7800.000
G1 X103.092 Y96.276 E1.27908 F360.000
G1 X103.094 Y96.283 F7800.000
G1 X103.612 Y96.251 E1.31380 F360.000
G1 X104.180 Y96.285 E1.35180
G1 X104.855 Y96.416 E1.39775
G1 X108.686 Y96.443 F7800.000
G1 X109.168 Y96.351 E1.46726 F360.000
G1 X109.740 Y96.317 E1.54844
G1 X110.308 Y96.350 E1.62902
G1 X110.796 Y96.443 E1.69938
G1 E0.69938 F1800.00000
G92 E0
G1 X110.598 Y102.011 F7800.000
G1 E1.00000 F1800.00000
G1 X110.333 Y101.746 E1.02744 F1080.000
G1 X109.591 Y101.834 E1.08213
G1 X110.501 Y102.744 E1.17631
G1 X109.671 Y102.744 E1.23706
G1 X108.575 Y101.648 E1.35048
G1 X108.841 Y102.744 E1.43301
G1 X106.288 Y100.191 E1.69726
G1 X105.928 Y100.661 E1.74059
G1 X108.011 Y102.744 E1.95623
G1 X107.181 Y102.744 E2.01699
G1 X105.474 Y101.037 E2.19374
G1 X104.959 Y101.352 E2.23792
G1 X106.351 Y102.744 E2.38201
G1 X105.521 Y102.744 E2.44276
G1 X104.372 Y101.595 E2.56175
G1 X103.638 Y101.691 E2.61590
G1 X104.691 Y102.744 E2.72490
G1 X103.861 Y102.744 E2.78566
G1 X102.767 Y101.650 E2.89891
G1 X102.764 Y102.477 E2.95942
G1 X103.031 Y102.744 E2.98709
M106 S255
G1 E1.98709 F1800.00000
G92 E0
G1 Z0.500 F7800.000
G1 X108.117 Y99.036 F7800.000
G1 E1.00000 F1800.00000
G1 X108.060 Y98.601 E1.00938 F701.203
G1 X108.117 Y98.165 E1.01876
G1 X108.285 Y97.760 E1.02815
G1 X108.552 Y97.412 E1.03753
G1 X108.900 Y97.145 E1.04691
G1 X109.306 Y96.977 E1.05629
G1 X109.687 Y96.926 E1.06451 F701.203
G1 X110.174 Y96.976 E1.07497
G1 X110.582 Y97.145 E1.08441
G1 X110.932 Y97.413 E1.09384
G1 X111.218 Y97.810 E1.10430
G1 X111.365 Y98.165 E1.11252
G1 X111.422 Y98.601 E1.12190
G1 X111.365 Y99.036 E1.13128
G1 X111.197 Y99.441 E1.14067
G1 X110.930 Y99.789 E1.15005
G1 X110.582 Y100.057 E1.15943
G1 X110.176 Y100.225 E1.16881
G1 X109.741 Y100.282 E1.17819
G1 X109.306 Y100.225 E1.18758
G1 X108.900 Y100.057 E1.19696
G1 X108.550 Y99.788 E1.20639
G1 X108.264 Y99.391 E1.21685
G1 X108.134 Y99.077 E1.22411
G1 X107.831 Y98.946 F7800.000
G1 X101.880 Y102.186 F7800.000
G1 X101.880 Y100.065 E1.28643 F701.203
G1 X102.448 Y100.501 E1.30748
G1 X103.014 Y100.736 E1.32548
G1 X103.621 Y100.816 E1.34348
G1 X104.228 Y100.736 E1.36147
G1 X104.794 Y100.501 E1.37947
G1 X105.280 Y100.129 E1.39746
G1 X105.652 Y99.643 E1.41546
G1 X105.898 Y99.050 E1.43430
G1 X105.966 Y98.464 E1.45166
G1 X105.887 Y97.863 E1.46947
G1 X105.652 Y97.297 E1.48746
G1 X105.280 Y96.811 E1.50546
G1 X104.894 Y96.516 E1.51974
G1 X104.943 Y96.372 E1.52420
G1 X108.589 Y96.372 E1.63136
G1 X108.638 Y96.516 E1.63582
G1 X108.082 Y96.942 E1.65641
G1 X107.710 Y97.428 E1.67440
G1 X107.475 Y97.994 E1.69240
G1 X107.395 Y98.601 E1.71040
G1 X107.475 Y99.208 E1.72839
G1 X107.685 Y99.714 E1.74449
G1 X108.073 Y100.252 E1.76397
G1 X108.568 Y100.632 E1.78233
G1 X109.134 Y100.866 E1.80033
G1 X109.741 Y100.946 E1.81832
G1 X110.348 Y100.866 E1.83632
G1 X110.914 Y100.632 E1.85431
G1 X111.482 Y100.196 E1.87537
G1 X111.482 Y103.628 E1.97625
G1 X88.518 Y103.628 E2.65112
G1 X88.518 Y102.186 E2.69352
G1 X101.835 Y102.186 E3.08488
G1 E2.08488 F1800.00000
G92 E0
G1 X110.893 Y96.372 F7800.000
G1 E1.00000 F1800.00000
G1 X111.482 Y96.372 E1.01733 F701.203
G1 X111.482 Y97.005 E1.03595
G1 X110.844 Y96.516 E1.05960
G1 X110.878 Y96.414 E1.06274
G1 X102.348 Y96.516 F7800.000
G1 X101.880 Y96.875 E1.08008 F701.203
G1 X101.880 Y96.372 E1.09487
G1 X102.299 Y96.372 E1.10719
G1 X102.333 Y96.473 E1.11034
G1 X101.526 Y101.832 F7800.000
G1 X101.526 Y99.012 E1.19321 F701.203
G1 X101.697 Y98.978 E1.19832
G1 X101.898 Y99.465 E1.21378
G1 X102.214 Y99.877 E1.22905
G1 X102.626 Y100.193 E1.24431
G1 X103.106 Y100.391 E1.25957
G1 X103.621 Y100.459 E1.27483
G1 X104.136 Y100.391 E1.29009
G1 X104.616 Y100.193 E1.30535
G1 X105.028 Y99.877 E1.32061
G1 X105.344 Y99.465 E1.33587
G1 X105.552 Y98.961 E1.35189
G1 X105.610 Y98.466 E1.36652
G1 X105.542 Y97.955 E1.38167
G1 X105.344 Y97.475 E1.39693
G1 X105.028 Y97.063 E1.41220
G1 X104.616 Y96.747 E1.42746
G1 X104.129 Y96.546 E1.44292
G1 X103.562 Y96.489 E1.45967
G1 X103.106 Y96.549 E1.47319
G1 X102.626 Y96.747 E1.48845
G1 X102.214 Y97.063 E1.50371
G1 X101.898 Y97.475 E1.51897
G1 X101.697 Y97.962 E1.53444
G1 X101.526 Y97.928 E1.53955
G1 X101.526 Y96.018 E1.59566
G1 X111.836 Y96.018 E1.89864
G1 X111.836 Y98.058 E1.95859
G1 X111.665 Y98.092 E1.96370
G1 X111.486 Y97.661 E1.97743
G1 X111.153 Y97.198 E1.99418
G1 X110.736 Y96.878 E2.00964
G1 X110.249 Y96.677 E2.02511
G1 X109.682 Y96.619 E2.04186
G1 X109.226 Y96.679 E2.05538
G1 X108.746 Y96.878 E2.07064
G1 X108.334 Y97.194 E2.08590
G1 X108.018 Y97.606 E2.10116
G1 X107.820 Y98.086 E2.11642
G1 X107.752 Y98.601 E2.13168
G1 X107.820 Y99.115 E2.14694
G1 X107.996 Y99.541 E2.16047
G1 X108.329 Y100.003 E2.17722
G1 X108.746 Y100.323 E2.19268
G1 X109.226 Y100.522 E2.20794
G1 X109.741 Y100.590 E2.22320
G1 X110.256 Y100.522 E2.23846
G1 X110.736 Y100.323 E2.25372
G1 X111.148 Y100.007 E2.26898
G1 X111.464 Y99.595 E2.28424
G1 X111.665 Y99.109 E2.29971
G1 X111.836 Y99.143 E2.30482
G1 X111.836 Y103.982 E2.44702
G1 X88.164 Y103.982 E3.14268
G1 X88.164 Y101.832 E3.20584
G1 X101.481 Y101.832 E3.59720
G1 X102.780 Y99.926 F7800.000
G1 X102.432 Y99.659 E3.60658 F701.203
G1 X102.165 Y99.311 E3.61597
G1 X101.997 Y98.905 E3.62535
G1 X101.939 Y98.468 E3.63478
G1 X102.018 Y97.985 E3.64524
G1 X102.165 Y97.629 E3.65346
G1 X102.432 Y97.281 E3.66284
G1 X102.780 Y97.014 E3.67222
G1 X103.186 Y96.846 E3.68161
G1 X103.567 Y96.796 E3.68982 F701.203
G1 X104.054 Y96.845 E3.70029
G1 X104.462 Y97.014 E3.70972
G1 X104.810 Y97.281 E3.71910
G1 X105.077 Y97.629 E3.72848
G1 X105.245 Y98.035 E3.73787
G1 X105.302 Y98.469 E3.74722
G1 X105.254 Y98.883 E3.75614
G1 X105.077 Y99.311 E3.76603
G1 X104.810 Y99.659 E3.77541
G1 X104.462 Y99.926 E3.78479
G1 X104.056 Y100.094 E3.79418
G1 X103.621 Y100.151 E3.80356
G1 X103.186 Y100.094 E3.81294
G1 X102.822 Y99.943 E3.82136
G1 X102.514 Y100.065 F7800.000
G1 X101.221 Y101.527 F7800.000
G1 X101.221 Y95.713 E3.94564 F600.000
G1 X112.141 Y95.713 E4.17907
G1 X112.141 Y104.287 E4.36235
G1 X87.859 Y104.287 E4.88141
G1 X87.859 Y101.527 E4.94041
G1 X101.176 Y101.527 E5.22508
G1 X101.521 Y101.527 F7800.000
G1 X101.603 Y98.841 F7800.000
G1 X101.580 Y98.492 E5.24689 F600.000
G1 X101.608 Y98.099 E5.27144
G1 X102.493 Y96.395 F7800.000
G1 X103.024 Y96.289 E5.28734 F600.000
G1 X103.566 Y96.253 E5.30329
G1 X104.182 Y96.284 E5.32143
G1 X104.749 Y96.395 E5.33839
G1 X105.825 Y96.577 F7800.000
G1 X105.540 Y96.863 E5.35037 F1402.406
G1 X105.759 Y97.148 E5.36104
G1 X106.330 Y96.577 E5.38499
G1 X106.834 Y96.577 E5.39996
G1 X105.927 Y97.484 E5.43800
G1 X106.075 Y97.841 E5.44946
G1 X107.339 Y96.577 E5.50247
G1 X107.843 Y96.577 E5.51743
G1 X106.140 Y98.281 E5.58889
G1 X106.145 Y98.780 E5.60369
G1 X107.417 Y97.508 E5.65703
G1 X107.231 Y98.199 E5.67825
G1 X106.001 Y99.429 E5.72984
G1 X102.085 Y100.822 F7800.000
G1 X102.299 Y100.608 E5.73881 F1402.406
G1 X102.635 Y100.776 E5.74996
G1 X102.085 Y101.326 E5.77304
G1 X102.085 Y101.831 E5.78800
G1 X102.992 Y100.924 E5.82604
G1 X103.432 Y100.989 E5.83922
G1 X100.998 Y103.423 E5.94133
G1 X101.502 Y103.423 E5.95629
G1 X103.933 Y100.992 E6.05825
G1 X104.580 Y100.850 E6.07790
G1 X102.006 Y103.423 E6.18584
G1 X102.511 Y103.423 E6.20080
G1 X107.213 Y98.721 E6.39805
G1 X107.272 Y99.166 E6.41138
G1 X103.015 Y103.423 E6.58993
G1 X103.520 Y103.423 E6.60489
G1 X107.412 Y99.531 E6.76814
G1 X107.579 Y99.868 E6.77930
G1 X104.024 Y103.423 E6.92842
G1 X104.529 Y103.423 E6.94339
G1 X107.791 Y100.161 E7.08021
G1 X108.022 Y100.434 E7.09083
G1 X105.033 Y103.423 E7.21620
G1 X105.538 Y103.423 E7.23116
G1 X108.308 Y100.653 E7.34735
G1 X108.616 Y100.849 E7.35819
G1 X106.042 Y103.423 E7.46614
G1 X106.547 Y103.423 E7.48111
G1 X108.973 Y100.997 E7.58287
G1 X109.378 Y101.096 E7.59524
G1 X107.051 Y103.423 E7.69283
G1 X107.556 Y103.423 E7.70779
G1 X109.826 Y101.153 E7.80301
G1 X110.407 Y101.076 E7.82039
G1 X108.060 Y103.423 E7.91882
G1 X108.565 Y103.423 E7.93378
G1 X111.277 Y100.711 E8.04755
G1 X111.277 Y101.215 E8.06252
G1 X109.069 Y103.423 E8.15513
G1 X109.574 Y103.423 E8.17009
G1 X111.277 Y101.720 E8.24154
G1 X111.277 Y102.224 E8.25651
G1 X110.078 Y103.423 E8.30680
G1 X110.582 Y103.423 E8.32176
G1 X111.277 Y102.728 E8.35089
G1 X111.277 Y103.233 E8.36585
G1 X111.087 Y103.423 E8.37382
G1 X101.525 Y102.391 F7800.000
G1 X100.493 Y103.423 E8.41710 F1402.406
G1 X99.989 Y103.423 E8.43206
G1 X101.020 Y102.391 E8.47534
G1 X100.516 Y102.391 E8.49031
G1 X99.484 Y103.423 E8.53359
G1 X98.980 Y103.423 E8.54855
G1 X100.011 Y102.391 E8.59183
G1 X99.507 Y102.391 E8.60679
G1 X98.475 Y103.423 E8.65007
G1 X97.971 Y103.423 E8.66504
G1 X99.002 Y102.391 E8.70832
G1 X98.498 Y102.391 E8.72328
G1 X97.466 Y103.423 E8.76656
G1 X96.962 Y103.423 E8.78152
G1 X97.994 Y102.391 E8.82480
G1 X97.489 Y102.391 E8.83977
G1 X96.457 Y103.423 E8.88305
G1 X95.953 Y103.423 E8.89801
G1 X96.985 Y102.391 E8.94129
G1 X96.480 Y102.391 E8.95625
G1 X95.448 Y103.423 E8.99953
G1 X94.944 Y103.423 E9.01450
G1 X95.976 Y102.391 E9.05778
G1 X95.471 Y102.391 E9.07274
G1 X94.439 Y103.423 E9.11602
G1 X93.935 Y103.423 E9.13098
G1 X94.967 Y102.391 E9.17426
G1 X94.462 Y102.391 E9.18923
G1 X93.430 Y103.423 E9.23251
G1 X92.926 Y103.423 E9.24747
G1 X93.958 Y102.391 E9.29075
G1 X93.453 Y102.391 E9.30571
G1 X92.421 Y103.423 E9.34900
G1 X91.917 Y103.423 E9.36396
G1 X92.949 Y102.391 E9.40724
G1 X92.444 Y102.391 E9.42220
G1 X91.413 Y103.423 E9.46548
G1 X90.908 Y103.423 E9.48045
G1 X91.940 Y102.391 E9.52373
G1 X91.435 Y102.391 E9.53869
G1 X90.404 Y103.423 E9.58197
G1 X89.899 Y103.423 E9.59693
G1 X90.931 Y102.391 E9.64021
G1 X90.426 Y102.391 E9.65518
G1 X89.395 Y103.423 E9.69846
G1 X88.890 Y103.423 E9.71342
G1 X89.922 Y102.391 E9.75670
G1 X89.418 Y102.391 E9.77166
G1 X88.723 Y103.086 E9.80079
G1 X88.723 Y102.581 E9.81575
G1 X88.913 Y102.391 E9.82372
G1 E8.82372 F1800.00000
G92 E0
G1 X111.759 Y98.972 F7800.000
G1 E1.00000 F1800.00000
G1 X111.781 Y98.628 E1.02152 F600.000
G1 X111.759 Y98.229 E1.04640
G1 X110.689 Y96.422 F7800.000
G1 X110.309 Y96.350 E1.07055 F600.000
G1 X109.692 Y96.318 E1.10903
G1 X109.160 Y96.352 E1.14229
G1 X108.793 Y96.422 E1.16557
G1 E0.16557 F1800.00000
G92 E0
G1 Z0.700 F7800.000
G1 X108.117 Y99.036 F7800.000
G1 E1.00000 F1800.00000
G1 X108.060 Y98.601 E1.00938 F700.812
G1 X108.117 Y98.165 E1.01876
G1 X108.285 Y97.760 E1.02815
G1 X108.552 Y97.412 E1.03753
G1 X108.900 Y97.145 E1.04691
G1 X109.306 Y96.977 E1.05629
G1 X109.644 Y96.932 E1.06358
G1 X109.741 Y96.919 E1.06568 F700.812
G1 X110.176 Y96.977 E1.07506
G1 X110.582 Y97.145 E1.08444
G1 X110.930 Y97.412 E1.09382
G1 X111.197 Y97.760 E1.10320
G1 X111.365 Y98.165 E1.11259
G1 X111.422 Y98.601 E1.12197
G1 X111.365 Y99.036 E1.13135
