; generated by Slic3r 1.3.1-dev (Build d17659b67c65bb5003ec92bf0d56ed7f8810e970) on 2018-09-23 at 18:11:18

; external perimeters extrusion width = 0.33mm (1.21mm^3/s)
; perimeters extrusion width = 0.40mm (2.12mm^3/s)
; infill extrusion width = 0.38mm (3.98mm^3/s)
; solid infill extrusion width = 0.40mm (4.24mm^3/s)
; top infill extrusion width = 0.40mm (3.53mm^3/s)
; support material extrusion width = 0.33mm (3.44mm^3/s)

M107
M190 S110 ; set bed temperature and wait for it to be reached
M104 S250 ; set temperature
G28 ; home all axes
G1 Z5 F5000 ; lift nozzle
; Filament gcode

M109 S250 ; set temperature and wait for it to be reached
G21 ; set units to millimeters
G90 ; use absolute coordinates
M82 ; use absolute distances for extrusion
G92 E0
G92 E0
G1 E-1.00000 F1800.00000
G92 E0
G1 Z0.300 F7800.000
G1 X74.650 Y75.120 F7800.000
G1 E1.00000 F1800.00000
G1 F1080
G1 X76.400 Y73.661 E1.15217
G1 X79.646 Y72.798 E1.37660
G1 X120.354 Y72.798 E4.09605
G1 X122.597 Y73.195 E4.24822
G1 X124.567 Y74.337 E4.40039
G1 X126.026 Y76.087 E4.55257
G1 X126.889 Y79.334 E4.77699
G1 X126.889 Y120.666 E7.53825
G1 X126.492 Y122.909 E7.69042
G1 X125.350 Y124.880 E7.84260
G1 X123.600 Y126.339 E7.99477
G1 X120.354 Y127.202 E8.21920
G1 X79.646 Y127.202 E10.93865
G1 X77.403 Y126.805 E11.09082
G1 X75.433 Y125.662 E11.24299
G1 X73.974 Y123.913 E11.39516
G1 X73.111 Y120.666 E11.61959
G1 X73.111 Y79.334 E14.38085
G1 X73.508 Y77.091 E14.53302
G1 X74.628 Y75.159 E14.68218
G1 E13.68218 F1800.00000
G92 E0
G1 X117.647 Y117.294 F7800.000
G1 E1.00000 F1800.00000
G1 F540
G1 X82.352 Y117.294 E3.35793
G1 X82.352 Y82.706 E5.66862
G1 X117.647 Y82.706 E8.02652
G1 X117.647 Y117.249 E10.33421
G1 X118.183 Y117.830 F7800.000
G1 F540
G1 X81.816 Y117.830 E12.76370
G1 X81.816 Y82.170 E15.14596
G1 X118.183 Y82.170 E17.57542
G1 X118.183 Y117.785 E19.95468
G1 X118.718 Y118.365 F7800.000
G1 F378
G1 X81.280 Y118.365 E22.45574
G1 X81.281 Y81.635 E24.90956
G1 X118.718 Y81.635 E27.41059
G1 X118.718 Y118.320 E29.86141
G1 X118.428 Y118.289 F7800.000
G1 E28.86141 F1800.00000
G92 E0
G1 X116.903 Y116.967 F7800.000
G1 E1.00000 F1800.00000
G1 F1080
G1 X117.320 Y116.550 E1.03956
G1 X117.320 Y115.789 E1.09066
G1 X116.142 Y116.967 E1.20248
G1 X115.381 Y116.967 E1.25357
G1 X117.320 Y115.028 E1.43765
G1 X117.320 Y114.267 E1.48874
G1 X114.620 Y116.967 E1.74507
G1 X113.858 Y116.967 E1.79616
G1 X117.320 Y113.506 E2.12475
G1 X117.320 Y112.745 E2.17584
G1 X113.097 Y116.967 E2.57669
G1 X112.336 Y116.967 E2.62778
G1 X117.320 Y111.983 E3.10088
G1 X117.320 Y111.222 E3.15198
G1 X111.575 Y116.967 E3.69733
G1 X110.814 Y116.967 E3.74843
G1 X117.320 Y110.461 E4.36604
G1 X117.320 Y109.700 E4.41713
G1 X110.053 Y116.967 E5.10700
G1 X109.292 Y116.967 E5.15810
G1 X117.320 Y108.939 E5.92022
G1 X117.320 Y108.178 E5.97131
G1 X108.531 Y116.967 E6.80570
G1 X107.769 Y116.967 E6.85679
G1 X117.320 Y107.417 E7.76343
G1 X117.320 Y106.655 E7.81452
G1 X107.008 Y116.967 E8.79342
G1 X106.247 Y116.967 E8.84451
G1 X117.320 Y105.894 E9.89566
G1 X117.320 Y105.133 E9.94675
G1 X105.486 Y116.967 E11.07016
G1 X104.725 Y116.967 E11.12125
G1 X117.320 Y104.372 E12.31692
G1 X117.320 Y103.611 E12.36801
G1 X103.964 Y116.967 E13.63593
G1 X103.203 Y116.967 E13.68702
G1 X117.320 Y102.850 E15.02720
G1 X117.320 Y102.089 E15.07829
G1 X102.442 Y116.967 E16.49072
G1 X101.680 Y116.967 E16.54182
G1 X117.320 Y101.328 E18.02650
G1 X117.320 Y100.566 E18.07760
G1 X100.919 Y116.967 E19.63454
G1 X100.158 Y116.967 E19.68563
G1 X117.320 Y99.805 E21.31483
G1 X117.320 Y99.044 E21.36593
G1 X99.397 Y116.967 E23.06738
G1 X98.636 Y116.967 E23.11848
G1 X117.320 Y98.283 E24.89219
G1 X117.320 Y97.522 E24.94328
G1 X97.875 Y116.967 E26.78925
G1 X97.114 Y116.967 E26.84035
G1 X117.320 Y96.761 E28.75857
G1 X117.320 Y96.000 E28.80967
G1 X96.352 Y116.967 E30.80015
G1 X95.591 Y116.967 E30.85124
G1 X117.320 Y95.238 E32.91398
G1 X117.320 Y94.477 E32.96507
G1 X94.830 Y116.967 E35.10007
G1 X94.069 Y116.967 E35.15116
G1 X117.320 Y93.716 E37.35841
G1 X117.320 Y92.955 E37.40950
G1 X93.308 Y116.967 E39.68901
G1 X92.547 Y116.967 E39.74010
G1 X117.320 Y92.194 E42.09187
G1 X117.320 Y91.433 E42.14296
G1 X91.786 Y116.967 E44.56698
G1 X91.025 Y116.967 E44.61807
G1 X117.320 Y90.672 E47.11435
G1 X117.320 Y89.911 E47.16544
G1 X90.263 Y116.967 E49.73397
G1 X89.502 Y116.967 E49.78506
G1 X117.320 Y89.149 E52.42585
G1 X117.320 Y88.388 E52.47695
G1 X88.741 Y116.967 E55.18999
G1 X87.980 Y116.967 E55.24108
G1 X117.320 Y87.627 E58.02638
G1 X117.320 Y86.866 E58.07748
G1 X87.219 Y116.967 E60.93503
G1 X86.458 Y116.967 E60.98613
G1 X117.320 Y86.105 E63.91594
G1 X117.320 Y85.344 E63.96703
G1 X85.697 Y116.967 E66.96910
G1 X84.935 Y116.967 E67.02020
G1 X117.320 Y84.583 E70.09452
G1 X117.320 Y83.822 E70.14561
G1 X84.174 Y116.967 E73.29220
G1 X83.413 Y116.967 E73.34329
G1 X117.320 Y83.060 E76.56213
G1 X117.320 Y83.033 E76.56396
G1 X116.586 Y83.033 E76.61322
G1 X82.679 Y116.940 E79.83211
G1 X82.679 Y116.179 E79.88320
G1 X115.825 Y83.033 E83.02983
G1 X115.064 Y83.033 E83.08092
G1 X82.679 Y115.418 E86.15529
G1 X82.679 Y114.657 E86.20639
G1 X114.303 Y83.033 E89.20850
G1 X113.541 Y83.033 E89.25959
G1 X82.679 Y113.896 E92.18945
G1 X82.679 Y113.134 E92.24055
G1 X112.780 Y83.033 E95.09815
G1 X112.019 Y83.033 E95.14924
G1 X82.679 Y112.373 E97.93458
G1 X82.679 Y111.612 E97.98568
G1 X111.258 Y83.033 E100.69876
G1 X110.497 Y83.033 E100.74985
G1 X82.679 Y110.851 E103.39068
G1 X82.679 Y110.090 E103.44178
G1 X109.736 Y83.033 E106.01035
G1 X108.975 Y83.033 E106.06144
G1 X82.679 Y109.329 E108.55775
G1 X82.679 Y108.568 E108.60885
G1 X108.214 Y83.033 E111.03290
G1 X107.452 Y83.033 E111.08400
G1 X82.679 Y107.806 E113.43579
G1 X82.679 Y107.045 E113.48689
G1 X106.691 Y83.033 E115.76643
G1 X105.930 Y83.033 E115.81752
G1 X82.679 Y106.284 E118.02481
G1 X82.679 Y105.523 E118.07590
G1 X105.169 Y83.033 E120.21093
G1 X104.408 Y83.033 E120.26202
G1 X82.679 Y104.762 E122.32479
G1 X82.679 Y104.001 E122.37588
G1 X103.647 Y83.033 E124.36640
G1 X102.886 Y83.033 E124.41749
G1 X82.679 Y103.240 E126.33574
G1 X82.679 Y102.478 E126.38684
G1 X102.124 Y83.033 E128.23284
G1 X101.363 Y83.033 E128.28393
G1 X82.679 Y101.717 E130.05767
G1 X82.679 Y100.956 E130.10876
G1 X100.602 Y83.033 E131.81025
G1 X99.841 Y83.033 E131.86134
G1 X82.679 Y100.195 E133.49056
G1 X82.679 Y99.434 E133.54166
G1 X99.080 Y83.033 E135.09863
G1 X98.319 Y83.033 E135.14972
G1 X82.679 Y98.673 E136.63443
G1 X82.679 Y97.912 E136.68552
G1 X97.558 Y83.033 E138.09798
G1 X96.797 Y83.033 E138.14907
G1 X82.679 Y97.150 E139.48927
G1 X82.679 Y96.389 E139.54036
G1 X96.035 Y83.033 E140.80830
G1 X95.274 Y83.033 E140.85939
G1 X82.679 Y95.628 E142.05508
G1 X82.679 Y94.867 E142.10617
G1 X94.513 Y83.033 E143.22960
G1 X93.752 Y83.033 E143.28069
G1 X82.679 Y94.106 E144.33186
G1 X82.679 Y93.345 E144.38295
G1 X92.991 Y83.033 E145.36186
G1 X92.230 Y83.033 E145.41295
G1 X82.679 Y92.584 E146.31961
G1 X82.679 Y91.822 E146.37070
G1 X91.469 Y83.033 E147.20509
G1 X90.707 Y83.033 E147.25619
G1 X82.679 Y91.061 E148.01833
G1 X82.679 Y90.300 E148.06942
G1 X89.946 Y83.033 E148.75930
G1 X89.185 Y83.033 E148.81039
G1 X82.679 Y89.539 E149.42802
G1 X82.679 Y88.778 E149.47911
G1 X88.424 Y83.033 E150.02448
G1 X87.663 Y83.033 E150.07557
G1 X82.679 Y88.017 E150.54868
G1 X82.679 Y87.256 E150.59977
G1 X86.902 Y83.033 E151.00062
G1 X86.141 Y83.033 E151.05172
G1 X82.679 Y86.494 E151.38031
G1 X82.679 Y85.733 E151.43141
G1 X85.380 Y83.033 E151.68774
G1 X84.618 Y83.033 E151.73884
G1 X82.679 Y84.972 E151.92292
G1 X82.679 Y84.211 E151.97401
G1 X83.857 Y83.033 E152.08583
G1 X83.096 Y83.033 E152.13692
G1 X82.680 Y83.450 E152.17647
G1 E151.17647 F1800.00000
G92 E0
G1 Z0.300 F7800.000
G1 X79.646 Y79.334 F7800.000
G1 E1.00000 F1800.00000
G1 F1080
G1 X79.646 Y120.666 E3.76126
G1 X80.718 Y120.666 E3.83282
G1 X80.718 Y119.428 E3.91554
G1 X80.218 Y119.428 E3.94895
G1 X80.218 Y80.572 E6.54478
G1 X80.718 Y80.572 E6.57816
G1 X80.718 Y79.334 E6.66087
G1 X81.789 Y79.334 E6.73244
G1 X81.789 Y80.572 E6.81515
G1 X82.860 Y80.572 E6.88672
G1 X82.860 Y79.334 E6.96943
G1 X83.931 Y79.334 E7.04100
G1 X83.931 Y80.572 E7.12371
G1 X85.003 Y80.572 E7.19528
G1 X85.003 Y79.334 E7.27799
G1 X86.074 Y79.334 E7.34956
G1 X86.074 Y80.572 E7.43227
G1 X87.145 Y80.572 E7.50384
G1 X87.145 Y79.334 E7.58655
G1 X88.216 Y79.334 E7.65811
G1 X88.216 Y80.572 E7.74083
G1 X89.288 Y80.572 E7.81239
G1 X89.288 Y79.334 E7.89511
G1 X90.359 Y79.334 E7.96667
G1 X90.359 Y80.572 E8.04939
G1 X91.430 Y80.572 E8.12095
G1 X91.430 Y79.334 E8.20367
G1 X92.501 Y79.334 E8.27523
G1 X92.501 Y80.572 E8.35795
G1 X93.573 Y80.572 E8.42951
G1 X93.573 Y79.334 E8.51223
G1 X94.644 Y79.334 E8.58379
G1 X94.644 Y80.572 E8.66651
G1 X95.715 Y80.572 E8.73807
G1 X95.715 Y79.334 E8.82078
G1 X96.786 Y79.334 E8.89235
G1 X96.786 Y80.572 E8.97506
G1 X97.858 Y80.572 E9.04663
G1 X97.858 Y79.334 E9.12934
G1 X98.929 Y79.334 E9.20091
G1 X98.929 Y80.572 E9.28362
G1 X100.000 Y80.572 E9.35519
G1 X100.000 Y79.334 E9.43790
G1 X101.071 Y79.334 E9.50947
G1 X101.071 Y80.572 E9.59218
G1 X102.142 Y80.572 E9.66375
G1 X102.142 Y79.334 E9.74646
G1 X103.214 Y79.334 E9.81803
G1 X103.214 Y80.572 E9.90074
G1 X104.285 Y80.572 E9.97230
G1 X104.285 Y79.334 E10.05502
G1 X105.356 Y79.334 E10.12658
G1 X105.356 Y80.572 E10.20930
G1 X106.427 Y80.572 E10.28086
G1 X106.427 Y79.334 E10.36358
G1 X107.499 Y79.334 E10.43514
G1 X107.499 Y80.572 E10.51786
G1 X108.570 Y80.572 E10.58942
G1 X108.570 Y79.334 E10.67214
G1 X109.641 Y79.334 E10.74370
G1 X109.641 Y80.572 E10.82642
G1 X110.712 Y80.572 E10.89798
G1 X110.712 Y79.334 E10.98070
G1 X111.784 Y79.334 E11.05226
G1 X111.784 Y80.572 E11.13498
G1 X112.855 Y80.572 E11.20654
G1 X112.855 Y79.334 E11.28926
G1 X113.926 Y79.334 E11.36082
G1 X113.926 Y80.572 E11.44354
G1 X114.997 Y80.572 E11.51510
G1 X114.997 Y79.334 E11.59782
G1 X116.069 Y79.334 E11.66938
G1 X116.069 Y80.572 E11.75209
G1 X117.140 Y80.572 E11.82366
G1 X117.140 Y79.334 E11.90637
G1 X118.211 Y79.334 E11.97794
G1 X118.211 Y80.572 E12.06065
G1 X119.282 Y80.572 E12.13222
G1 X119.282 Y79.334 E12.21493
G1 X120.354 Y79.334 E12.28650
G1 X120.354 Y120.666 E15.04776
G1 X119.282 Y120.666 F7800.000
G1 F1080
G1 X119.282 Y119.428 E15.13047
G1 X118.211 Y119.428 E15.20204
G1 X118.211 Y120.666 E15.28475
G1 X117.140 Y120.666 E15.35631
G1 X117.140 Y119.428 E15.43903
G1 X116.069 Y119.428 E15.51059
G1 X116.069 Y120.666 E15.59331
G1 X114.997 Y120.666 E15.66487
G1 X114.997 Y119.428 E15.74759
G1 X113.926 Y119.428 E15.81915
G1 X113.926 Y120.666 E15.90187
G1 X112.855 Y120.666 E15.97343
G1 X112.855 Y119.428 E16.05614
G1 X111.784 Y119.428 E16.12771
G1 X111.784 Y120.666 E16.21042
G1 X110.712 Y120.666 E16.28199
G1 X110.712 Y119.428 E16.36470
G1 X109.641 Y119.428 E16.43627
G1 X109.641 Y120.666 E16.51898
G1 X108.570 Y120.666 E16.59055
G1 X108.570 Y119.428 E16.67326
G1 X107.499 Y119.428 E16.74483
G1 X107.499 Y120.666 E16.82754
G1 X106.427 Y120.666 E16.89911
G1 X106.427 Y119.428 E16.98182
G1 X105.356 Y119.428 E17.05339
G1 X105.356 Y120.666 E17.13610
G1 X104.285 Y120.666 E17.20767
G1 X104.285 Y119.428 E17.29038
G1 X103.214 Y119.428 E17.36195
G1 X103.214 Y120.666 E17.44466
G1 X102.142 Y120.666 E17.51622
G1 X102.142 Y119.428 E17.59894
G1 X101.071 Y119.428 E17.67050
G1 X101.071 Y120.666 E17.75322
G1 X100.000 Y120.666 E17.82478
G1 X100.000 Y119.428 E17.90750
G1 X98.929 Y119.428 E17.97906
G1 X98.929 Y120.666 E18.06178
G1 X97.858 Y120.666 E18.13334
G1 X97.858 Y119.428 E18.21606
G1 X96.786 Y119.428 E18.28762
G1 X96.786 Y120.666 E18.37034
G1 X95.715 Y120.666 E18.44190
G1 X95.715 Y119.428 E18.52462
G1 X94.644 Y119.428 E18.59618
G1 X94.644 Y120.666 E18.67890
G1 X93.573 Y120.666 E18.75046
G1 X93.573 Y119.428 E18.83318
G1 X92.501 Y119.428 E18.90474
G1 X92.501 Y120.666 E18.98746
G1 X91.430 Y120.666 E19.05902
G1 X91.430 Y119.428 E19.14174
G1 X90.359 Y119.428 E19.21330
G1 X90.359 Y120.666 E19.29602
G1 X89.288 Y120.666 E19.36758
G1 X89.288 Y119.428 E19.45030
G1 X88.216 Y119.428 E19.52186
G1 X88.216 Y120.666 E19.60458
G1 X87.145 Y120.666 E19.67615
G1 X87.145 Y119.428 E19.75886
G1 X86.074 Y119.428 E19.83043
G1 X86.074 Y120.666 E19.91314
G1 X85.003 Y120.666 E19.98471
G1 X85.003 Y119.428 E20.06742
G1 X83.931 Y119.428 E20.13899
G1 X83.931 Y120.666 E20.22170
G1 X82.860 Y120.666 E20.29327
G1 X82.860 Y119.428 E20.37598
G1 X81.789 Y119.428 E20.44755
G1 X81.789 Y120.666 E20.53026
G1 X80.718 Y120.666 E20.60183
G1 E19.60183 F1800.00000
G92 E0
G1 Z0.400 F7800.000
G1 X80.485 Y117.156 F7800.000
G1 E1.00000 F1800.00000
G1 F3600
G1 X80.485 Y113.146 E1.05144
G1 X78.712 Y113.146 E1.07419
G1 X78.712 Y117.156 E1.12563
G1 X80.485 Y117.156 E1.14838
G1 E0.14838 F1800.00000
G92 E0
G1 X80.485 Y112.156 F7800.000
G1 E1.00000 F1800.00000
G1 F3600
G1 X80.486 Y108.146 E1.05144
G1 X78.712 Y108.146 E1.07419
G1 X78.712 Y112.156 E1.12563
G1 X80.485 Y112.156 E1.14838
G1 X80.033 Y111.704 F7800.000
G1 F3600
G1 X80.033 Y111.216 E1.15464
G1 X79.863 Y111.511 E1.15900
G1 X79.164 Y111.511 E1.16798
G1 X79.164 Y111.704 E1.17044
G1 X80.033 Y111.704 E1.18160
G1 E0.18160 F1800.00000
G92 E0
G1 X80.486 Y106.989 F7800.000
G1 E1.00000 F1800.00000
G1 F3600
G1 X80.486 Y103.146 E1.04930
G1 X78.712 Y103.146 E1.07205
G1 X78.712 Y107.156 E1.12349
G1 X80.486 Y107.156 E1.14624
G1 X80.486 Y106.989 E1.14838
G1 X80.033 Y106.519 F7800.000
G1 F3600
G1 X80.033 Y105.642 E1.15963
G1 X79.863 Y105.937 E1.16400
G1 X79.164 Y105.937 E1.17297
G1 X79.164 Y106.224 E1.17666
G1 X79.863 Y106.224 E1.18563
G1 X80.033 Y106.519 E1.19000
G1 E0.19000 F1800.00000
G92 E0
G1 X80.486 Y102.156 F7800.000
G1 E1.00000 F1800.00000
G1 F3600
G1 X80.486 Y98.146 E1.05144
G1 X78.712 Y98.146 E1.07419
G1 X78.712 Y102.156 E1.12563
G1 X80.486 Y102.156 E1.14838
G1 X80.034 Y100.945 F7800.000
G1 F3600
G1 X80.034 Y100.068 E1.15964
G1 X79.863 Y100.363 E1.16401
G1 X79.164 Y100.363 E1.17298
G1 X79.164 Y100.650 E1.17666
G1 X79.863 Y100.650 E1.18563
G1 X80.034 Y100.945 E1.19000
G1 E0.19000 F1800.00000
G92 E0
G1 X80.486 Y97.156 F7800.000
G1 E1.00000 F1800.00000
G1 F3600
G1 X80.486 Y93.146 E1.05144
G1 X78.712 Y93.146 E1.07419
G1 X78.712 Y97.156 E1.12563
G1 X80.486 Y97.156 E1.14838
G1 X80.034 Y95.371 F7800.000
G1 F3600
G1 X80.034 Y94.493 E1.15964
G1 X79.863 Y94.789 E1.16401
G1 X79.164 Y94.789 E1.17298
G1 X79.164 Y95.076 E1.17666
G1 X79.863 Y95.076 E1.18563
G1 X80.034 Y95.371 E1.19001
G1 E0.19001 F1800.00000
G92 E0
G1 X80.486 Y92.156 F7800.000
G1 E1.00000 F1800.00000
G1 F3600
G1 X80.486 Y88.146 E1.05144
G1 X78.712 Y88.146 E1.07419
G1 X78.712 Y92.156 E1.12563
G1 X80.486 Y92.156 E1.14838
G1 X80.034 Y89.797 F7800.000
G1 F3600
G1 X80.034 Y88.919 E1.15964
G1 X79.863 Y89.215 E1.16402
G1 X79.164 Y89.215 E1.17299
G1 X79.164 Y89.502 E1.17667
G1 X79.863 Y89.502 E1.18564
G1 X80.034 Y89.797 E1.19001
G1 E0.19001 F1800.00000
G92 E0
G1 X80.486 Y87.156 F7800.000
G1 E1.00000 F1800.00000
G1 F3600
G1 X80.486 Y83.146 E1.05144
G1 X78.712 Y83.146 E1.07419
G1 X78.712 Y87.156 E1.12563
G1 X80.486 Y87.156 E1.14838
G1 X80.034 Y84.223 F7800.000
G1 F3600
G1 X80.034 Y83.598 E1.15640
G1 X79.888 Y83.598 E1.15828
G1 X79.863 Y83.640 E1.15891
G1 X79.164 Y83.640 E1.16787
G1 X79.164 Y83.928 E1.17156
G1 X79.863 Y83.928 E1.18052
G1 X80.034 Y84.223 E1.18490
G1 E0.18490 F1800.00000
G92 E0
G1 X81.801 Y80.840 F7800.000
G1 E1.00000 F1800.00000
G1 F3600
G1 X81.801 Y79.066 E1.02275
G1 X78.712 Y79.066 E1.06238
G1 X78.712 Y82.156 E1.10202
G1 X80.486 Y82.156 E1.12477
G1 X80.486 Y80.840 E1.14166
G1 X81.801 Y80.840 E1.15853
G1 X81.349 Y80.387 F7800.000
G1 F3600
G1 X81.349 Y79.518 E1.16969
G1 X80.535 Y79.518 E1.18013
G1 X81.038 Y80.387 E1.19301
G1 X81.349 Y80.387 E1.19701
G1 X84.960 Y80.387 F7800.000
G1 F3600
G1 X85.462 Y79.518 E1.20989
G1 X83.244 Y79.518 E1.23834
G1 X83.244 Y80.387 E1.24950
G1 X84.960 Y80.387 E1.27151
G1 X86.801 Y80.840 F7800.000
G1 F3600
G1 X86.801 Y79.066 E1.29426
G1 X82.791 Y79.066 E1.34570
G1 X82.791 Y80.840 E1.36845
G1 X86.801 Y80.840 E1.41989
G1 E0.41989 F1800.00000
G92 E0
G1 X91.349 Y80.387 F7800.000
G1 E1.00000 F1800.00000
G1 F3600
G1 X91.349 Y79.518 E1.01115
G1 X90.190 Y79.518 E1.02603
G1 X90.692 Y80.387 E1.03891
G1 X91.349 Y80.387 E1.04734
G1 X91.801 Y80.840 F7800.000
G1 F3600
