; generated by Slic3r 1.3.1-dev (Build d17659b67c65bb5003ec92bf0d56ed7f8810e970) on 2018-09-23 at 18:10:10

; external perimeters extrusion width = 0.33mm (1.21mm^3/s)
; perimeters extrusion width = 0.40mm (2.12mm^3/s)
; infill extrusion width = 0.38mm (3.98mm^3/s)
; solid infill extrusion width = 0.40mm (4.24mm^3/s)
; top infill extrusion width = 0.40mm (3.53mm^3/s)
; support material extrusion width = 0.33mm (3.44mm^3/s)

M107
M190 S110 ; set bed temperature and wait for it to be reached
M104 S250 ; set temperature
G28 ; home all axes
G1 Z5 F5000 ; lift nozzle
; Filament gcode

M109 S250 ; set temperature and wait for it to be reached
G21 ; set units to millimeters
G90 ; use absolute coordinates
M82 ; use absolute distances for extrusion
G92 E0
G92 E0
G1 E-1.00000 F1800.00000
G92 E0
G1 Z0.300 F7800.000
G1 X73.936 Y75.084 F7800.000
G1 E1.00000 F1800.00000
G1 F1080
G1 X76.121 Y73.397 E1.18446
G1 X78.709 Y72.165 E1.37593
G1 X81.519 Y71.530 E1.56836
G1 X109.641 Y71.530 E3.44708
G1 X110.342 Y71.568 E3.49394
G1 X121.772 Y72.800 E4.26199
G1 X123.960 Y73.435 E4.41416
G1 X125.796 Y74.782 E4.56633
G1 X127.059 Y76.678 E4.71850
G1 X127.607 Y79.298 E4.89732
G1 X127.607 Y120.702 E7.66332
G1 X127.210 Y122.944 E7.81549
G1 X126.068 Y124.915 E7.96766
G1 X124.318 Y126.374 E8.11983
G1 X121.072 Y127.237 E8.34421
G1 X78.927 Y127.237 E11.15978
G1 X76.684 Y126.840 E11.31195
G1 X74.713 Y125.697 E11.46412
G1 X73.255 Y123.947 E11.61629
G1 X72.392 Y120.702 E11.84062
G1 X72.396 Y79.297 E14.60668
G1 X72.793 Y77.054 E14.75885
G1 X73.913 Y75.123 E14.90801
G1 E13.90801 F1800.00000
G92 E0
G1 X119.858 Y103.003 F7800.000
G1 E1.00000 F1800.00000
G1 F540
G1 X99.736 Y103.003 E2.34424
G1 X100.124 Y103.508 E2.38678
G1 X103.255 Y108.771 E2.79593
G1 X103.473 Y109.300 E2.83411
G1 X103.555 Y109.916 E2.87563
G1 X103.473 Y110.532 E2.91714
G1 X103.236 Y111.106 E2.95865
G1 X102.857 Y111.599 E3.00016
G1 X102.364 Y111.977 E3.04167
G1 X101.790 Y112.215 E3.08319
G1 X101.174 Y112.296 E3.12470
G1 X100.558 Y112.215 E3.16621
G1 X99.984 Y111.977 E3.20772
G1 X99.491 Y111.599 E3.24924
G1 X99.150 Y111.154 E3.28669
G1 X97.954 Y109.145 E3.44288
G1 X97.707 Y109.230 E3.46038
G1 X97.797 Y109.916 E3.50655
G1 X97.716 Y110.532 E3.54806
G1 X97.478 Y111.106 E3.58958
G1 X97.100 Y111.599 E3.63109
G1 X96.607 Y111.977 E3.67260
G1 X96.033 Y112.215 E3.71411
G1 X95.417 Y112.296 E3.75563
G1 X95.196 Y112.267 E3.77052
G1 X95.123 Y112.539 E3.78935
G1 X95.424 Y112.664 E3.81113
G1 X96.023 Y113.124 E3.86158
G1 X96.581 Y113.850 E3.92274
G1 X97.138 Y113.124 E3.98390
G1 X97.737 Y112.664 E4.03435
G1 X98.435 Y112.375 E4.08480
G1 X99.143 Y112.282 E4.13255
G1 X99.926 Y112.372 E4.18519
G1 X100.630 Y112.664 E4.23608
G1 X101.229 Y113.124 E4.28653
G1 X101.689 Y113.723 E4.33698
G1 X101.978 Y114.420 E4.38743
G1 X102.076 Y115.169 E4.43788
G1 X101.978 Y115.918 E4.48833
G1 X101.689 Y116.616 E4.53878
G1 X101.229 Y117.215 E4.58923
G1 X100.630 Y117.674 E4.63968
G1 X99.932 Y117.963 E4.69013
G1 X99.183 Y118.062 E4.74058
G1 X98.435 Y117.963 E4.79103
G1 X97.737 Y117.674 E4.84148
G1 X97.138 Y117.215 E4.89193
G1 X96.581 Y116.488 E4.95308
G1 X96.023 Y117.215 E5.01424
G1 X95.424 Y117.674 E5.06469
G1 X94.726 Y117.963 E5.11514
G1 X93.978 Y118.062 E5.16559
G1 X93.229 Y117.963 E5.21604
G1 X92.531 Y117.674 E5.26649
G1 X91.932 Y117.215 E5.31694
G1 X91.356 Y116.464 E5.38016
G1 X90.780 Y117.215 E5.44337
G1 X90.181 Y117.674 E5.49382
G1 X89.483 Y117.963 E5.54427
G1 X88.735 Y118.062 E5.59472
G1 X87.986 Y117.963 E5.64517
G1 X87.288 Y117.674 E5.69562
G1 X86.689 Y117.215 E5.74607
G1 X86.144 Y116.504 E5.80590
G1 X85.599 Y117.215 E5.86573
G1 X85.000 Y117.674 E5.91618
G1 X84.302 Y117.963 E5.96663
G1 X83.553 Y118.062 E6.01708
G1 X82.804 Y117.963 E6.06753
G1 X82.107 Y117.674 E6.11798
G1 X81.508 Y117.215 E6.16843
G1 X81.048 Y116.616 E6.21888
G1 X80.759 Y115.918 E6.26933
G1 X80.660 Y115.169 E6.31978
G1 X80.759 Y114.420 E6.37023
G1 X81.048 Y113.723 E6.42068
G1 X81.508 Y113.124 E6.47113
G1 X82.107 Y112.664 E6.52158
G1 X82.804 Y112.375 E6.57203
G1 X83.513 Y112.282 E6.61976
G1 X84.296 Y112.372 E6.67242
G1 X85.000 Y112.664 E6.72331
G1 X85.599 Y113.124 E6.77376
G1 X86.144 Y113.834 E6.83359
G1 X86.689 Y113.124 E6.89341
G1 X87.288 Y112.664 E6.94386
G1 X87.986 Y112.375 E6.99431
G1 X88.506 Y112.306 E7.02934
G1 X88.538 Y112.062 E7.04581
G1 X88.333 Y111.977 E7.06064
G1 X87.840 Y111.599 E7.10215
G1 X87.498 Y111.154 E7.13961
G1 X84.367 Y105.890 E7.54876
G1 X84.149 Y105.362 E7.58694
G1 X84.068 Y104.746 E7.62846
G1 X84.149 Y104.130 E7.66997
G1 X84.386 Y103.556 E7.71148
G1 X84.811 Y103.003 E7.75807
G1 X80.145 Y103.003 E8.06976
G1 X80.146 Y80.512 E9.57225
G1 X119.857 Y80.512 E12.22521
G1 X119.857 Y88.493 E12.75837
G1 X116.782 Y88.493 E12.96380
G1 X116.783 Y95.022 E13.39995
G1 X119.858 Y95.022 E13.60538
G1 X119.858 Y102.958 E14.13554
G1 E13.13554 F1800.00000
G92 E0
G1 X101.221 Y113.993 F7800.000
G1 E1.00000 F1800.00000
G1 F540
G1 X101.456 Y114.560 E1.04103
G1 X101.536 Y115.169 E1.08206
G1 X101.456 Y115.778 E1.12309
G1 X101.221 Y116.345 E1.16411
G1 X100.847 Y116.833 E1.20514
G1 X100.360 Y117.207 E1.24617
G1 X99.792 Y117.442 E1.28720
G1 X99.183 Y117.522 E1.32823
G1 X98.574 Y117.442 E1.36926
G1 X98.007 Y117.207 E1.41029
G1 X97.520 Y116.833 E1.45131
G1 X97.146 Y116.345 E1.49234
G1 X96.911 Y115.778 E1.53337
G1 X96.831 Y115.169 E1.57440
G1 X96.911 Y114.560 E1.61543
G1 X97.146 Y113.993 E1.65646
G1 X97.520 Y113.506 E1.69748
G1 X98.007 Y113.132 E1.73851
G1 X98.574 Y112.897 E1.77954
G1 X99.148 Y112.821 E1.81816
G1 X99.790 Y112.896 E1.86137
G1 X100.360 Y113.132 E1.90255
G1 X100.847 Y113.506 E1.94358
G1 X101.193 Y113.957 E1.98160
G1 X101.221 Y113.993 F7800.000
G1 E0.98160 F1800.00000
G92 E0
G1 X96.261 Y114.646 F7800.000
G1 E1.00000 F1800.00000
G1 F540
G1 X96.330 Y115.169 E1.03526
G1 X96.250 Y115.778 E1.07629
G1 X96.015 Y116.345 E1.11732
G1 X95.641 Y116.833 E1.15835
G1 X95.154 Y117.207 E1.19938
G1 X94.587 Y117.442 E1.24041
G1 X93.978 Y117.522 E1.28143
G1 X93.369 Y117.442 E1.32246
G1 X92.801 Y117.207 E1.36349
G1 X92.314 Y116.833 E1.40452
G1 X91.940 Y116.345 E1.44555
G1 X91.705 Y115.778 E1.48658
G1 X91.625 Y115.169 E1.52761
G1 X91.705 Y114.560 E1.56863
G1 X91.940 Y113.993 E1.60966
G1 X92.314 Y113.506 E1.65069
G1 X92.801 Y113.132 E1.69172
G1 X93.369 Y112.897 E1.73275
G1 X93.942 Y112.821 E1.77136
G1 X94.584 Y112.896 E1.81458
G1 X95.154 Y113.132 E1.85576
G1 X95.641 Y113.506 E1.89679
G1 X96.015 Y113.993 E1.93782
G1 X96.255 Y114.601 E1.98152
G1 X96.547 Y114.739 F7800.000
G1 E0.98152 F1800.00000
G92 E0
G1 X91.087 Y115.169 F7800.000
G1 E1.00000 F1800.00000
G1 F540
G1 X91.007 Y115.778 E1.04103
G1 X90.772 Y116.345 E1.08206
G1 X90.398 Y116.833 E1.12309
G1 X89.911 Y117.207 E1.16411
G1 X89.343 Y117.442 E1.20514
G1 X88.735 Y117.522 E1.24617
G1 X88.126 Y117.442 E1.28720
G1 X87.558 Y117.207 E1.32823
G1 X87.071 Y116.833 E1.36926
G1 X86.697 Y116.345 E1.41028
G1 X86.462 Y115.778 E1.45131
G1 X86.382 Y115.167 E1.49250
G1 X86.476 Y114.527 E1.53572
G1 X86.697 Y113.993 E1.57433
G1 X87.071 Y113.506 E1.61535
G1 X87.558 Y113.132 E1.65638
G1 X88.126 Y112.897 E1.69741
G1 X88.699 Y112.821 E1.73601
G1 X89.341 Y112.896 E1.77924
G1 X89.911 Y113.132 E1.82043
G1 X90.398 Y113.506 E1.86145
G1 X90.772 Y113.993 E1.90248
G1 X91.007 Y114.560 E1.94351
G1 X91.081 Y115.125 E1.98153
G1 X91.087 Y115.169 F7800.000
G1 E0.98153 F1800.00000
G92 E0
G1 X85.906 Y115.169 F7800.000
G1 E1.00000 F1800.00000
G1 F540
G1 X85.826 Y115.778 E1.04103
G1 X85.591 Y116.345 E1.08206
G1 X85.217 Y116.833 E1.12309
G1 X84.729 Y117.207 E1.16411
G1 X84.162 Y117.442 E1.20514
G1 X83.553 Y117.522 E1.24617
G1 X82.944 Y117.442 E1.28720
G1 X82.377 Y117.207 E1.32823
G1 X81.890 Y116.833 E1.36926
G1 X81.516 Y116.345 E1.41029
G1 X81.281 Y115.778 E1.45131
G1 X81.201 Y115.169 E1.49234
G1 X81.281 Y114.560 E1.53337
G1 X81.516 Y113.993 E1.57440
G1 X81.890 Y113.506 E1.61543
G1 X82.377 Y113.132 E1.65646
G1 X82.944 Y112.897 E1.69748
G1 X83.517 Y112.821 E1.73608
G1 X84.160 Y112.896 E1.77931
G1 X84.729 Y113.132 E1.82050
G1 X85.217 Y113.506 E1.86153
G1 X85.591 Y113.993 E1.90255
G1 X85.826 Y114.560 E1.94358
G1 X85.900 Y115.125 E1.98160
G1 X85.906 Y115.169 F7800.000
G1 E0.98160 F1800.00000
G92 E0
G1 X88.603 Y111.509 F7800.000
G1 E1.00000 F1800.00000
G1 F540
G1 X88.222 Y111.217 E1.03209
G1 X87.943 Y110.853 E1.06273
G1 X84.847 Y105.650 E1.46718
G1 X84.670 Y105.222 E1.49808
G1 X84.608 Y104.746 E1.53017
G1 X84.670 Y104.270 E1.56226
G1 X84.854 Y103.826 E1.59435
G1 X85.147 Y103.445 E1.62644
G1 X85.528 Y103.153 E1.65853
G1 X85.972 Y102.969 E1.69062
G1 X86.448 Y102.906 E1.72271
G1 X86.924 Y102.969 E1.75480
G1 X87.368 Y103.153 E1.78689
G1 X87.749 Y103.445 E1.81899
G1 X88.028 Y103.809 E1.84962
G1 X91.123 Y109.012 E2.25408
G1 X91.300 Y109.439 E2.28497
G1 X91.363 Y109.916 E2.31706
G1 X91.300 Y110.392 E2.34915
G1 X91.116 Y110.836 E2.38125
G1 X90.824 Y111.217 E2.41334
G1 X90.443 Y111.509 E2.44543
G1 X89.999 Y111.693 E2.47752
G1 X89.523 Y111.756 E2.50961
G1 X89.047 Y111.693 E2.54170
G1 X88.644 Y111.526 E2.57078
G1 X88.603 Y111.509 F7800.000
G1 E1.57078 F1800.00000
G92 E0
G1 X92.757 Y109.038 F7800.000
G1 E1.00000 F1800.00000
G1 F540
G1 X90.741 Y105.650 E1.26339
G1 X90.564 Y105.222 E1.29428
G1 X90.502 Y104.746 E1.32637
G1 X90.564 Y104.270 E1.35846
G1 X90.748 Y103.826 E1.39055
G1 X91.041 Y103.445 E1.42264
G1 X91.422 Y103.153 E1.45474
G1 X91.866 Y102.969 E1.48683
G1 X92.342 Y102.906 E1.51892
G1 X92.818 Y102.969 E1.55101
G1 X93.262 Y103.153 E1.58310
G1 X93.643 Y103.445 E1.61519
G1 X93.922 Y103.809 E1.64582
G1 X97.017 Y109.012 E2.05028
G1 X97.194 Y109.439 E2.08118
G1 X97.257 Y109.916 E2.11327
G1 X97.194 Y110.392 E2.14536
G1 X97.010 Y110.836 E2.17745
G1 X96.718 Y111.217 E2.20954
G1 X96.337 Y111.509 E2.24163
G1 X95.893 Y111.693 E2.27372
G1 X95.417 Y111.756 E2.30581
G1 X94.941 Y111.693 E2.33790
G1 X94.497 Y111.509 E2.36999
G1 X94.116 Y111.217 E2.40208
G1 X93.837 Y110.853 E2.43272
G1 X92.780 Y109.077 E2.57078
G1 X92.457 Y109.044 F7800.000
G1 E1.57078 F1800.00000
G92 E0
G1 X97.010 Y106.508 F7800.000
G1 E1.00000 F1800.00000
G1 F540
G1 X96.499 Y105.650 E1.06676
G1 X96.322 Y105.222 E1.09765
G1 X96.259 Y104.746 E1.12974
G1 X96.322 Y104.270 E1.16183
G1 X96.506 Y103.826 E1.19392
G1 X96.798 Y103.445 E1.22601
G1 X97.179 Y103.153 E1.25811
G1 X97.623 Y102.969 E1.29020
G1 X98.099 Y102.906 E1.32229
G1 X98.575 Y102.969 E1.35438
G1 X99.019 Y103.153 E1.38647
G1 X99.400 Y103.445 E1.41856
G1 X99.679 Y103.809 E1.44919
G1 X102.775 Y109.012 E1.85365
G1 X102.952 Y109.439 E1.88455
G1 X103.014 Y109.916 E1.91664
G1 X102.952 Y110.392 E1.94873
G1 X102.768 Y110.836 E1.98082
G1 X102.475 Y111.217 E2.01291
G1 X102.094 Y111.509 E2.04500
G1 X101.650 Y111.693 E2.07709
G1 X101.174 Y111.756 E2.10918
G1 X100.698 Y111.693 E2.14127
G1 X100.254 Y111.509 E2.17336
G1 X99.873 Y111.217 E2.20545
G1 X99.594 Y110.853 E2.23609
G1 X97.033 Y106.547 E2.57078
G1 X96.710 Y106.513 F7800.000
G1 E1.57078 F1800.00000
G92 E0
G1 X80.681 Y102.467 F7800.000
G1 E1.00000 F1800.00000
G1 F378
G1 X80.681 Y81.048 E2.43092
G1 X119.322 Y81.048 E5.01231
G1 X119.322 Y87.957 E5.47391
G1 X116.247 Y87.957 E5.67934
G1 X116.247 Y95.557 E6.18706
G1 X119.322 Y95.557 E6.39249
G1 X119.322 Y102.467 E6.85409
G1 X80.726 Y102.467 E9.43252
G1 X80.381 Y102.485 F7800.000
G1 X80.301 Y103.538 F7800.000
G1 F540
G1 X83.814 Y103.538 E9.66723
G1 X83.627 Y103.990 E9.69991
G1 X83.527 Y104.746 E9.75085
G1 X83.627 Y105.502 E9.80178
G1 X83.887 Y106.131 E9.84726
G1 X87.054 Y111.455 E10.26109
G1 X87.477 Y112.006 E10.30749
G1 X87.018 Y112.196 E10.34068
G1 X86.307 Y112.742 E10.40055
G1 X86.144 Y112.954 E10.41846
G1 X85.981 Y112.742 E10.43637
G1 X85.270 Y112.196 E10.49624
G1 X84.432 Y111.849 E10.55683
G1 X83.509 Y111.742 E10.61891
G1 X82.665 Y111.853 E10.67578
G1 X81.837 Y112.196 E10.73566
G1 X81.126 Y112.742 E10.79553
G1 X80.518 Y113.533 E10.86220
G1 X80.300 Y113.459 E10.87759
G1 X80.301 Y103.583 E11.53737
G1 E10.53737 F1800.00000
G92 E0
G1 X89.114 Y103.538 F7800.000
G1 E1.00000 F1800.00000
G1 F540
G1 X89.708 Y103.538 E1.03971
G1 X89.464 Y104.127 E1.08230
G1 X89.137 Y103.577 E1.12508
G1 E0.12508 F1800.00000
G92 E0
G1 X92.401 Y110.534 F7800.000
G1 E1.00000 F1800.00000
G1 F540
G1 X92.948 Y111.455 E1.07155
G1 X93.214 Y111.801 E1.10072
G1 X92.261 Y112.196 E1.16962
G1 X91.550 Y112.742 E1.22949
G1 X91.356 Y112.994 E1.25078
G1 X91.162 Y112.742 E1.27207
G1 X90.879 Y112.525 E1.29589
G1 X91.588 Y111.981 E1.35557
G1 X92.052 Y111.376 E1.40650
G1 X92.383 Y110.576 E1.46434
G1 E0.46434 F1800.00000
G92 E0
G1 X97.537 Y111.909 F7800.000
G1 E1.00000 F1800.00000
G1 F540
G1 X97.946 Y111.376 E1.04490
G1 X98.239 Y110.670 E1.09595
G1 X98.706 Y111.455 E1.15698
G1 X98.945 Y111.767 E1.18329
G1 X98.295 Y111.853 E1.22712
G1 X97.687 Y112.105 E1.27107
G1 X97.564 Y111.945 E1.28453
G1 E0.28453 F1800.00000
G92 E0
G1 X110.484 Y112.938 F7800.000
G1 E1.00000 F1800.00000
G1 F540
G1 X110.635 Y112.742 E1.01656
G1 X111.346 Y112.196 E1.07643
G1 X112.174 Y111.853 E1.13630
G1 X113.019 Y111.742 E1.19323
G1 X113.941 Y111.849 E1.25526
G1 X114.779 Y112.196 E1.31585
G1 X115.490 Y112.742 E1.37572
G1 X116.036 Y113.453 E1.43559
G1 X116.379 Y114.281 E1.49546
G1 X116.496 Y115.169 E1.55533
G1 X116.379 Y116.058 E1.61521
G1 X116.036 Y116.886 E1.67508
G1 X115.490 Y117.597 E1.73495
G1 X114.779 Y118.142 E1.79482
G1 X113.951 Y118.485 E1.85469
G1 X113.063 Y118.602 E1.91456
G1 X112.174 Y118.485 E1.97444
G1 X111.346 Y118.142 E2.03431
G1 X110.635 Y117.597 E2.09418
G1 X110.484 Y117.400 E2.11074
G1 X110.333 Y117.597 E2.12729
G1 X109.622 Y118.142 E2.18716
G1 X108.794 Y118.485 E2.24704
G1 X107.906 Y118.602 E2.30691
G1 X107.017 Y118.485 E2.36678
G1 X106.189 Y118.142 E2.42665
G1 X105.478 Y117.597 E2.48652
G1 X104.933 Y116.886 E2.54639
G1 X104.590 Y116.058 E2.60626
G1 X104.473 Y115.169 E2.66614
G1 X104.590 Y114.281 E2.72601
G1 X104.933 Y113.453 E2.78588
G1 X105.478 Y112.742 E2.84575
G1 X106.189 Y112.196 E2.90562
G1 X107.017 Y111.853 E2.96550
G1 X107.862 Y111.742 E3.02240
G1 X108.785 Y111.849 E3.08445
G1 X109.622 Y112.196 E3.14504
G1 X110.333 Y112.742 E3.20491
G1 X110.457 Y112.902 E3.21846
G1 X110.484 Y113.818 F7800.000
G1 F540
G1 X111.017 Y113.124 E3.27694
G1 X111.616 Y112.664 E3.32739
G1 X112.314 Y112.375 E3.37784
G1 X113.023 Y112.281 E3.42563
G1 X113.805 Y112.372 E3.47824
G1 X114.509 Y112.664 E3.52912
G1 X115.108 Y113.124 E3.57957
G1 X115.568 Y113.723 E3.63002
G1 X115.857 Y114.420 E3.68047
G1 X115.956 Y115.169 E3.73092
G1 X115.857 Y115.918 E3.78137
G1 X115.568 Y116.616 E3.83182
G1 X115.108 Y117.215 E3.88227
G1 X114.509 Y117.674 E3.93272
G1 X113.811 Y117.963 E3.98317
G1 X113.063 Y118.062 E4.03362
G1 X112.314 Y117.963 E4.08407
G1 X111.616 Y117.674 E4.13452
G1 X111.017 Y117.215 E4.18497
G1 X110.484 Y116.520 E4.24345
G1 X109.951 Y117.215 E4.30193
G1 X109.352 Y117.674 E4.35238
G1 X108.655 Y117.963 E4.40283
G1 X107.906 Y118.062 E4.45328
G1 X107.157 Y117.963 E4.50373
G1 X106.460 Y117.674 E4.55418
G1 X105.860 Y117.215 E4.60463
G1 X105.401 Y116.616 E4.65508
G1 X105.112 Y115.918 E4.70553
G1 X105.013 Y115.169 E4.75598
G1 X105.112 Y114.420 E4.80643
G1 X105.401 Y113.723 E4.85688
G1 X105.860 Y113.124 E4.90733
G1 X106.459 Y112.664 E4.95778
G1 X107.157 Y112.375 E5.00823
G1 X107.866 Y112.282 E5.05600
G1 X108.649 Y112.372 E5.10862
G1 X109.352 Y112.664 E5.15951
G1 X109.951 Y113.124 E5.20996
G1 X110.457 Y113.782 E5.26543
G1 X111.008 Y114.035 F7800.000
G1 F540
G1 X111.399 Y113.506 E5.30941
G1 X111.886 Y113.132 E5.35043
G1 X112.454 Y112.897 E5.39146
G1 X113.027 Y112.821 E5.43010
G1 X113.669 Y112.896 E5.47329
G1 X114.239 Y113.132 E5.51448
G1 X114.726 Y113.506 E5.55551
G1 X115.100 Y113.993 E5.59653
G1 X115.335 Y114.560 E5.63756
G1 X115.415 Y115.169 E5.67859
G1 X115.335 Y115.778 E5.71962
G1 X115.100 Y116.345 E5.76065
G1 X114.726 Y116.833 E5.80168
G1 X114.239 Y117.207 E5.84270
G1 X113.672 Y117.442 E5.88373
G1 X113.063 Y117.522 E5.92476
G1 X112.454 Y117.442 E5.96579
G1 X111.886 Y117.207 E6.00682
G1 X111.399 Y116.833 E6.04785
G1 X111.025 Y116.345 E6.08888
G1 X110.790 Y115.778 E6.12990
G1 X110.710 Y115.169 E6.17093
G1 X110.790 Y114.560 E6.21196
G1 X110.991 Y114.076 E6.24694
G1 X110.979 Y114.000 F7800.000
G1 X110.114 Y114.405 F7800.000
G1 F540
