; generated by Slic3r 1.2.9 on 2017-10-27 at 14:14:06

; external perimeters extrusion width = 0.30mm
; perimeters extrusion width = 0.40mm
; infill extrusion width = 0.40mm
; solid infill extrusion width = 0.40mm
; top infill extrusion width = 0.40mm

M107
M190 S110 ; set bed temperature
M104 S250 ; set temperature
G28 ; home all axes
G1 Z5 F5000 ; lift nozzle
M109 S250 ; wait for temperature to be reached
G21 ; set units to millimeters
G90 ; use absolute coordinates
M82 ; use absolute distances for extrusion
G92 E0
G1 E-1.00000 F1800.00000
G92 E0
G1 Z0.300 F7800.000
G1 X78.483 Y83.091 F7800.000
G1 E1.00000 F1800.00000
G1 X80.349 Y81.785 E1.15217 F1080.000
G1 X83.104 Y81.176 E1.34064
G1 X116.896 Y81.176 E3.59813
G1 X119.139 Y81.573 E3.75030
G1 X121.517 Y83.091 E3.93877 F1080.000
G1 X127.661 Y89.235 E4.51924
G1 X128.967 Y91.101 E4.67141
G1 X129.576 Y93.856 E4.85988
G1 X129.576 Y106.144 E5.68078
G1 X129.179 Y108.387 E5.83295
G1 X127.661 Y110.765 E6.02142
G1 X121.517 Y116.909 E6.60189
G1 X119.651 Y118.215 E6.75406
G1 X116.896 Y118.824 E6.94253
G1 X83.104 Y118.824 E9.20002
G1 X80.861 Y118.427 E9.35219
G1 X78.483 Y116.909 E9.54066
G1 X72.339 Y110.765 E10.12113
G1 X71.033 Y108.899 E10.27330
G1 X70.424 Y106.144 E10.46177
G1 X70.424 Y93.856 E11.28267
G1 X70.821 Y91.613 E11.43485
G1 X72.339 Y89.235 E11.62331
G1 X78.451 Y83.122 E12.20078
G1 E11.20078 F1800.00000
G92 E0
G1 X110.647 Y110.808 F7800.000
G1 E1.00000 F1800.00000
G1 X110.204 Y110.992 E1.03206 F540.000
G1 X109.728 Y111.055 E1.06413
G1 X109.252 Y110.992 E1.09619
G1 X108.809 Y110.808 E1.12826
G1 X108.424 Y110.513 E1.16069
G1 X108.136 Y110.135 E1.19243
G1 X107.952 Y109.692 E1.22446
G1 X107.889 Y109.214 E1.25665
G1 X107.960 Y108.720 E1.28998
G1 X108.136 Y108.297 E1.32061
G1 X108.428 Y107.916 E1.35268
G1 X108.809 Y107.624 E1.38474
G1 X109.252 Y107.440 E1.41681
G1 X109.707 Y107.380 E1.44744 F540.000
G1 X110.202 Y107.439 E1.48077
G1 X110.647 Y107.624 E1.51296
G1 X111.030 Y107.917 E1.54515
G1 X111.328 Y108.316 E1.57848
G1 X111.504 Y108.740 E1.60911
G1 X111.567 Y109.216 E1.64117
G1 X111.504 Y109.692 E1.67324
G1 X111.320 Y110.135 E1.70530
G1 X111.028 Y110.516 E1.73737
G1 X110.683 Y110.781 E1.76643
G1 X110.634 Y111.108 F7800.000
G1 E0.76643 F1800.00000
G92 E0
G1 X109.728 Y92.623 F7800.000
G1 E1.00000 F1800.00000
G1 X109.252 Y92.560 E1.03207 F540.000
G1 X108.809 Y92.376 E1.06413
G1 X108.428 Y92.084 E1.09619
G1 X108.136 Y91.703 E1.12826
G1 X107.952 Y91.260 E1.16032
G1 X107.889 Y90.782 E1.19251
G1 X107.960 Y90.288 E1.22584
G1 X108.136 Y89.865 E1.25647
G1 X108.428 Y89.484 E1.28854
G1 X108.809 Y89.192 E1.32060
G1 X109.252 Y89.008 E1.35267
G1 X109.707 Y88.948 E1.38330 F540.000
G1 X110.202 Y89.007 E1.41663
G1 X110.647 Y89.192 E1.44882
G1 X111.028 Y89.484 E1.48088
G1 X111.320 Y89.865 E1.51295
G1 X111.504 Y90.308 E1.54501
G1 X111.567 Y90.784 E1.57708
G1 X111.504 Y91.260 E1.60914
G1 X111.320 Y91.703 E1.64121
G1 X111.028 Y92.084 E1.67327
G1 X110.647 Y92.376 E1.70533
G1 X110.204 Y92.560 E1.73740
G1 X109.773 Y92.617 E1.76646
G1 X109.567 Y92.876 F7800.000
G1 X92.111 Y90.784 F7800.000
G1 X92.048 Y91.260 E1.79852 F540.000
G1 X91.864 Y91.703 E1.83059
G1 X91.572 Y92.084 E1.86265
G1 X91.191 Y92.376 E1.89471
G1 X90.748 Y92.560 E1.92678
G1 X90.272 Y92.623 E1.95884
G1 X89.796 Y92.560 E1.99091
G1 X89.353 Y92.376 E2.02297
G1 X88.972 Y92.084 E2.05504
G1 X88.680 Y91.703 E2.08710
G1 X88.496 Y91.260 E2.11917
G1 X88.433 Y90.784 E2.15123
G1 X88.496 Y90.308 E2.18330
G1 X88.680 Y89.865 E2.21536
G1 X88.972 Y89.484 E2.24742
G1 X89.353 Y89.192 E2.27949
G1 X89.796 Y89.008 E2.31155
G1 X90.251 Y88.948 E2.34219 F540.000
G1 X90.746 Y89.007 E2.37552
G1 X91.191 Y89.192 E2.40770
G1 X91.572 Y89.484 E2.43977
G1 X91.864 Y89.865 E2.47183
G1 X92.048 Y90.308 E2.50390
G1 X92.105 Y90.739 E2.53296
G1 X92.364 Y90.945 F7800.000
G1 X99.835 Y95.557 F7800.000
G1 X78.331 Y95.557 E3.96954 F540.000
G1 X78.331 Y94.424 E4.04521
G1 X83.672 Y89.083 E4.54979
G1 X87.844 Y89.083 E4.82850
G1 X87.452 Y90.028 E4.89685
G1 X87.353 Y90.784 E4.94776
G1 X87.452 Y91.540 E4.99867
G1 X87.744 Y92.244 E5.04958
G1 X88.208 Y92.848 E5.10048
G1 X88.812 Y93.312 E5.15139
G1 X89.516 Y93.604 E5.20230
G1 X90.272 Y93.703 E5.25321
G1 X91.028 Y93.604 E5.30412
G1 X91.732 Y93.312 E5.35502
G1 X92.336 Y92.848 E5.40593
G1 X92.800 Y92.244 E5.45684
G1 X93.092 Y91.540 E5.50775
G1 X93.191 Y90.784 E5.55865
G1 X93.092 Y90.028 E5.60956
G1 X92.700 Y89.083 E5.67791
G1 X107.300 Y89.083 E6.65326
G1 X106.919 Y90.003 E6.71974
G1 X106.808 Y90.776 E6.77192
G1 X106.908 Y91.540 E6.82339
G1 X107.200 Y92.244 E6.87430
G1 X107.664 Y92.848 E6.92520
G1 X108.268 Y93.312 E6.97611
G1 X108.972 Y93.604 E7.02702
G1 X109.728 Y93.703 E7.07793
G1 X110.484 Y93.604 E7.12884
G1 X111.188 Y93.312 E7.17974
G1 X111.792 Y92.848 E7.23065
G1 X112.256 Y92.244 E7.28156
G1 X112.548 Y91.540 E7.33247
G1 X112.647 Y90.784 E7.38337
G1 X112.548 Y90.028 E7.43428
G1 X112.156 Y89.083 E7.50263
G1 X116.328 Y89.083 E7.78134
G1 X121.669 Y94.424 E8.28592
G1 X121.669 Y95.557 E8.36159
G1 X100.165 Y95.557 E9.79818
G1 X100.165 Y104.443 E10.39184
G1 X121.669 Y104.443 E11.82842
G1 X121.669 Y105.576 E11.90410
G1 X116.328 Y110.917 E12.40868
G1 X112.156 Y110.917 E12.68739
G1 X112.548 Y109.972 E12.75574
G1 X112.647 Y109.216 E12.80665
G1 X112.548 Y108.460 E12.85755
G1 X112.267 Y107.782 E12.90659
G1 X111.799 Y107.157 E12.95877
G1 X111.188 Y106.688 E13.01024
G1 X110.476 Y106.393 E13.06171
G1 X109.700 Y106.301 E13.11388
G1 X108.972 Y106.396 E13.16292
G1 X108.268 Y106.688 E13.21383
G1 X107.664 Y107.152 E13.26473
G1 X107.200 Y107.756 E13.31564
G1 X106.919 Y108.435 E13.36468
G1 X106.808 Y109.208 E13.41685
G1 X106.908 Y109.972 E13.46832
G1 X107.199 Y110.673 E13.51908
G1 X107.385 Y110.917 E13.53952
G1 X92.700 Y110.917 E14.52053
G1 X93.092 Y109.972 E14.58888
G1 X93.191 Y109.216 E14.63978
G1 X93.092 Y108.460 E14.69069
G1 X92.811 Y107.782 E14.73973
G1 X92.343 Y107.157 E14.79190
G1 X91.741 Y106.695 E14.84260
G1 X91.056 Y106.398 E14.89249
G1 X90.245 Y106.301 E14.94705
G1 X89.516 Y106.396 E14.99612
G1 X88.812 Y106.688 E15.04703
G1 X88.208 Y107.152 E15.09794
G1 X87.744 Y107.756 E15.14884
G1 X87.452 Y108.460 E15.19975
G1 X87.353 Y109.216 E15.25066
G1 X87.452 Y109.972 E15.30157
G1 X87.844 Y110.917 E15.36992
G1 X83.672 Y110.917 E15.64863
G1 X78.331 Y105.576 E16.15321
G1 X78.331 Y104.443 E16.22888
G1 X99.835 Y104.443 E17.66546
G1 X99.835 Y95.602 E18.25612
G1 X99.300 Y96.092 F7800.000
G1 X77.796 Y96.092 E19.69271 F540.000
G1 X77.796 Y94.202 E19.81899
G1 X83.450 Y88.548 E20.35321
G1 X88.954 Y88.548 E20.72090
G1 X89.028 Y88.766 E20.73628
G1 X88.590 Y89.102 E20.77318
G1 X88.212 Y89.595 E20.81467
G1 X87.974 Y90.168 E20.85615
G1 X87.893 Y90.784 E20.89764
G1 X87.974 Y91.400 E20.93913
G1 X88.212 Y91.973 E20.98061
G1 X88.590 Y92.466 E21.02210
G1 X89.083 Y92.844 E21.06358
G1 X89.656 Y93.082 E21.10507
G1 X90.272 Y93.163 E21.14656
G1 X90.888 Y93.082 E21.18804
G1 X91.461 Y92.844 E21.22953
G1 X91.954 Y92.466 E21.27102
G1 X92.332 Y91.973 E21.31250
G1 X92.570 Y91.400 E21.35399
G1 X92.651 Y90.784 E21.39547
G1 X92.570 Y90.168 E21.43696
G1 X92.332 Y89.595 E21.47845
G1 X91.954 Y89.102 E21.51993
G1 X91.516 Y88.766 E21.55683
G1 X91.590 Y88.548 E21.57221
G1 X108.410 Y88.548 E22.69589
G1 X108.484 Y88.766 E22.71127
G1 X108.046 Y89.102 E22.74817
G1 X107.668 Y89.595 E22.78966
G1 X107.440 Y90.145 E22.82949
G1 X107.349 Y90.779 E22.87224
G1 X107.430 Y91.400 E22.91407
G1 X107.668 Y91.973 E22.95556
G1 X108.046 Y92.466 E22.99705
G1 X108.539 Y92.844 E23.03853
G1 X109.112 Y93.082 E23.08002
G1 X109.728 Y93.163 E23.12150
G1 X110.344 Y93.082 E23.16299
G1 X110.917 Y92.844 E23.20448
G1 X111.410 Y92.466 E23.24596
G1 X111.788 Y91.973 E23.28745
G1 X112.026 Y91.400 E23.32893
G1 X112.107 Y90.784 E23.37042
G1 X112.026 Y90.168 E23.41191
G1 X111.788 Y89.595 E23.45339
G1 X111.410 Y89.102 E23.49488
G1 X110.972 Y88.766 E23.53178
G1 X111.046 Y88.548 E23.54716
G1 X116.550 Y88.548 E23.91485
G1 X122.204 Y94.202 E24.44907
G1 X122.204 Y96.092 E24.57535
G1 X100.700 Y96.092 E26.01194
G1 X100.700 Y103.908 E26.53404
G1 X122.204 Y103.908 E27.97062
G1 X122.204 Y105.798 E28.09690
G1 X116.550 Y111.452 E28.63112
G1 X111.046 Y111.452 E28.99881
G1 X110.972 Y111.234 E29.01420
G1 X111.410 Y110.898 E29.05110
G1 X111.788 Y110.405 E29.09258
G1 X112.026 Y109.832 E29.13407
G1 X112.107 Y109.216 E29.17555
G1 X112.026 Y108.600 E29.21704
G1 X111.798 Y108.049 E29.25688
G1 X111.414 Y107.537 E29.29963
G1 X110.917 Y107.156 E29.34146
G1 X110.339 Y106.916 E29.38329
G1 X109.704 Y106.840 E29.42604
G1 X109.112 Y106.918 E29.46587
G1 X108.539 Y107.156 E29.50736
G1 X108.046 Y107.534 E29.54885
G1 X107.668 Y108.027 E29.59033
G1 X107.440 Y108.577 E29.63017
G1 X107.349 Y109.211 E29.67292
G1 X107.430 Y109.832 E29.71475
G1 X107.667 Y110.404 E29.75614
G1 X108.041 Y110.894 E29.79730
G1 X108.484 Y111.234 E29.83463
G1 X108.410 Y111.452 E29.85002
G1 X91.590 Y111.452 E30.97369
G1 X91.516 Y111.234 E30.98908
G1 X91.954 Y110.898 E31.02597
G1 X92.332 Y110.405 E31.06746
G1 X92.570 Y109.832 E31.10895
G1 X92.651 Y109.216 E31.15043
G1 X92.570 Y108.600 E31.19192
G1 X92.342 Y108.049 E31.23175
G1 X91.958 Y107.537 E31.27451
G1 X91.467 Y107.160 E31.31586
G1 X90.914 Y106.920 E31.35612
G1 X90.248 Y106.840 E31.40096
G1 X89.656 Y106.918 E31.44081
G1 X89.083 Y107.156 E31.48230
G1 X88.590 Y107.534 E31.52379
G1 X88.212 Y108.027 E31.56527
G1 X87.974 Y108.600 E31.60676
G1 X87.893 Y109.216 E31.64824
G1 X87.974 Y109.832 E31.68973
G1 X88.212 Y110.405 E31.73122
G1 X88.590 Y110.898 E31.77270
G1 X89.028 Y111.234 E31.80960
G1 X88.954 Y111.452 E31.82498
G1 X83.450 Y111.452 E32.19268
G1 X77.796 Y105.798 E32.72690
G1 X77.796 Y103.908 E32.85318
G1 X99.300 Y103.908 E34.28976
G1 X99.300 Y96.137 E34.80886
G1 E33.80886 F1800.00000
G92 E0
G1 X91.193 Y107.625 F7800.000
G1 E1.00000 F1800.00000
G1 X91.574 Y107.917 E1.03202 F540.000
G1 X91.872 Y108.316 E1.06535
G1 X92.048 Y108.740 E1.09598
G1 X92.111 Y109.216 E1.12805
G1 X92.048 Y109.692 E1.16011
G1 X91.864 Y110.135 E1.19218
G1 X91.572 Y110.516 E1.22424
G1 X91.191 Y110.808 E1.25630
G1 X90.748 Y110.992 E1.28837
G1 X90.272 Y111.055 E1.32043
G1 X89.796 Y110.992 E1.35250
G1 X89.353 Y110.808 E1.38456
G1 X88.972 Y110.516 E1.41663
G1 X88.680 Y110.135 E1.44869
G1 X88.496 Y109.692 E1.48076
G1 X88.433 Y109.216 E1.51282
G1 X88.496 Y108.740 E1.54488
G1 X88.680 Y108.297 E1.57695
G1 X88.972 Y107.916 E1.60901
G1 X89.353 Y107.624 E1.64108
G1 X89.796 Y107.440 E1.67314
G1 X90.251 Y107.380 E1.70378 F540.000
G1 X90.773 Y107.443 E1.73890
G1 X91.152 Y107.607 E1.76652
G1 X91.460 Y107.488 F7800.000
G1 X98.764 Y103.372 F7800.000
G1 X98.764 Y96.628 E2.21705 F378.000
G1 X77.260 Y96.628 E3.65364
G1 X77.260 Y93.980 E3.83052
G1 X83.228 Y88.012 E4.39438
G1 X116.772 Y88.012 E6.63527
G1 X122.740 Y93.980 E7.19913
G1 X122.740 Y96.628 E7.37602
G1 X101.236 Y96.628 E8.81260
G1 X101.236 Y103.372 E9.26313
G1 X122.740 Y103.372 E10.69972
G1 X122.740 Y106.020 E10.87660
G1 X116.772 Y111.988 E11.44047
G1 X83.228 Y111.988 E13.68135
G1 X77.260 Y106.020 E14.24522
G1 X77.260 Y103.372 E14.42210
G1 X98.719 Y103.372 E15.85568
G1 X99.064 Y103.372 F7800.000
G1 X91.290 Y111.402 F7800.000
G1 X90.848 Y111.486 E15.91933 F360.000
G1 X90.298 Y111.522 E15.99747
G1 X89.696 Y111.486 E16.08293
G1 X89.254 Y111.402 E16.14659
G1 X108.710 Y111.402 F7800.000
G1 X109.152 Y111.486 E16.21024 F360.000
G1 X109.702 Y111.522 E16.28838
G1 X110.304 Y111.486 E16.37385
G1 X110.746 Y111.402 E16.43750
G1 X112.751 Y110.230 F7800.000
G1 X113.116 Y110.595 E16.47238 F1080.000
G1 X113.882 Y110.595 E16.52417
G1 X112.905 Y109.618 E16.61760
G1 X112.945 Y108.891 E16.66677
G1 X114.648 Y110.595 E16.82962
G1 X115.415 Y110.595 E16.88141
G1 X112.720 Y107.901 E17.13897
G1 X121.347 Y105.032 F7800.000
G1 X121.080 Y104.765 E17.16451 F1080.000
G1 X120.314 Y104.765 E17.21631
G1 X121.188 Y105.640 E17.29994
G1 X120.805 Y106.023 E17.33656
G1 X119.547 Y104.765 E17.45681
G1 X118.781 Y104.765 E17.50861
G1 X120.422 Y106.406 E17.66549
G1 X120.039 Y106.789 E17.70212
G1 X118.014 Y104.765 E17.89562
G1 X117.248 Y104.765 E17.94742
G1 X119.656 Y107.172 E18.17755
G1 X119.273 Y107.556 E18.21417
G1 X116.482 Y104.765 E18.48093
G1 X115.715 Y104.765 E18.53273
G1 X118.889 Y107.939 E18.83611
G1 X118.506 Y108.322 E18.87273
G1 X114.949 Y104.765 E19.21274
G1 X114.183 Y104.765 E19.26454
G1 X118.123 Y108.705 E19.64117
G1 X117.740 Y109.088 E19.67780
G1 X113.416 Y104.765 E20.09106
G1 X112.650 Y104.765 E20.14285
G1 X117.357 Y109.472 E20.59274
G1 X116.973 Y109.855 E20.62936
G1 X111.884 Y104.765 E21.11587
G1 X111.117 Y104.765 E21.16767
G1 X116.590 Y110.238 E21.69081
G1 X116.181 Y110.595 E21.72752
G1 X110.351 Y104.765 E22.28480
G1 X109.585 Y104.765 E22.33660
G1 X111.043 Y106.224 E22.47604
G1 X110.058 Y106.005 E22.54424
G1 X108.818 Y104.765 E22.66278
G1 X108.052 Y104.765 E22.71458
G1 X109.326 Y106.039 E22.83640
G1 X108.714 Y106.193 E22.87909
G1 X107.285 Y104.765 E23.01561
G1 X106.519 Y104.765 E23.06741
G1 X108.172 Y106.418 E23.22538
G1 X107.736 Y106.748 E23.26235
G1 X105.753 Y104.765 E23.45195
G1 X104.986 Y104.765 E23.50375
G1 X107.341 Y107.119 E23.72881
G1 X107.008 Y107.553 E23.76575
G1 X104.220 Y104.765 E24.03226
G1 X103.454 Y104.765 E24.08406
G1 X106.759 Y108.071 E24.40004
G1 X106.578 Y108.655 E24.44141
G1 X102.687 Y104.765 E24.81326
G1 X101.921 Y104.765 E24.86506
G1 X106.483 Y109.327 E25.30114
G1 X106.605 Y110.215 E25.36170
G1 X101.155 Y104.765 E25.88264
G1 X100.388 Y104.765 E25.93444
G1 X106.218 Y110.595 E26.49172
G1 X105.452 Y110.595 E26.54352
G1 X99.622 Y104.765 E27.10080
G1 X98.856 Y104.765 E27.15260
G1 X104.686 Y110.595 E27.70988
G1 X103.919 Y110.595 E27.76167
G1 X98.089 Y104.765 E28.31895
G1 X97.323 Y104.765 E28.37075
G1 X103.153 Y110.595 E28.92803
G1 X102.387 Y110.595 E28.97983
G1 X96.556 Y104.765 E29.53711
G1 X95.790 Y104.765 E29.58891
G1 X101.620 Y110.595 E30.14619
G1 X100.854 Y110.595 E30.19799
G1 X95.024 Y104.765 E30.75527
G1 X94.257 Y104.765 E30.80706
G1 X100.088 Y110.595 E31.36434
G1 X99.321 Y110.595 E31.41614
G1 X93.491 Y104.765 E31.97342
G1 X92.725 Y104.765 E32.02522
G1 X98.555 Y110.595 E32.58250
G1 X97.789 Y110.595 E32.63430
G1 X91.958 Y104.765 E33.19158
G1 X91.192 Y104.765 E33.24337
G1 X97.022 Y110.595 E33.80066
G1 X96.256 Y110.595 E33.85245
G1 X92.977 Y107.316 E34.16586
G1 X92.140 Y106.479 F7800.000
G1 X90.426 Y104.765 E34.32972 F1080.000
G1 X89.659 Y104.765 E34.38152
G1 X90.940 Y106.046 E34.50393
G1 X90.133 Y106.005 E34.55855
G1 X88.893 Y104.765 E34.67707
G1 X88.127 Y104.765 E34.72887
G1 X89.468 Y106.106 E34.85707
G1 X88.926 Y106.331 E34.89672
G1 X87.360 Y104.765 E35.04638
G1 X86.594 Y104.765 E35.09817
G1 X88.448 Y106.620 E35.27545
G1 X88.015 Y106.952 E35.31239
G1 X85.827 Y104.765 E35.52147
G1 X85.061 Y104.765 E35.57326
G1 X87.681 Y107.385 E35.82371
G1 X87.390 Y107.861 E35.86138
G1 X84.295 Y104.765 E36.15728
G1 X83.528 Y104.765 E36.20908
G1 X87.166 Y108.402 E36.55678
G1 X87.062 Y109.065 E36.60211
G1 X82.762 Y104.765 E37.01316
G1 X81.996 Y104.765 E37.06496
G1 X87.098 Y109.868 E37.55269
G1 X87.060 Y110.595 E37.60194
G1 X81.229 Y104.765 E38.15922
G1 X80.463 Y104.765 E38.21102
G1 X86.293 Y110.595 E38.76830
G1 X85.527 Y110.595 E38.82009
G1 X79.697 Y104.765 E39.37737
G1 X78.930 Y104.765 E39.42917
G1 X84.760 Y110.595 E39.98645
G1 X83.994 Y110.595 E40.03825
G1 X78.653 Y105.254 E40.54879
G1 E39.54879 F1800.00000
G92 E0
G1 X93.444 Y108.549 F7800.000
G1 E1.00000 F1800.00000
G1 X95.489 Y110.595 E1.19555 F1080.000
G1 X94.723 Y110.595 E1.24735
G1 X93.483 Y109.355 E1.36587
G1 X93.382 Y110.020 E1.41134
G1 X93.957 Y110.595 E1.46629
G1 E0.46629 F1800.00000
G92 E0
G1 X78.653 Y94.968 F7800.000
G1 E1.00000 F1800.00000
G1 X78.920 Y95.235 E1.02554 F1080.000
G1 X79.686 Y95.235 E1.07734
G1 X78.812 Y94.360 E1.16096
G1 X79.195 Y93.977 E1.19759
G1 X80.453 Y95.235 E1.31784
G1 X81.219 Y95.235 E1.36964
G1 X79.578 Y93.594 E1.52651
G1 X79.961 Y93.211 E1.56314
G1 X81.986 Y95.235 E1.75664
G1 X82.752 Y95.235 E1.80844
G1 X80.344 Y92.828 E2.03857
G1 X80.727 Y92.444 E2.07519
G1 X83.518 Y95.235 E2.34195
G1 X84.285 Y95.235 E2.39374
G1 X81.111 Y92.061 E2.69712
G1 X81.494 Y91.678 E2.73375
G1 X85.051 Y95.235 E3.07375
G1 X85.817 Y95.235 E3.12555
G1 X81.877 Y91.295 E3.50218
