; generated by Slic3r 1.2.9 on 2017-10-27 at 14:15:05

; external perimeters extrusion width = 0.30mm
; perimeters extrusion width = 0.40mm
; infill extrusion width = 0.40mm
; solid infill extrusion width = 0.40mm
; top infill extrusion width = 0.40mm

M107
M190 S110 ; set bed temperature
M104 S250 ; set temperature
G28 ; home all axes
G1 Z5 F5000 ; lift nozzle
M109 S250 ; wait for temperature to be reached
G21 ; set units to millimeters
G90 ; use absolute coordinates
M82 ; use absolute distances for extrusion
G92 E0
G1 E-1.00000 F1800.00000
G92 E0
G1 Z0.300 F7800.000
G1 X76.572 Y89.899 F7800.000
G1 E1.00000 F1800.00000
G1 X78.321 Y88.440 E1.15217 F1080.000
G1 X81.568 Y87.576 E1.37660
G1 X118.432 Y87.576 E3.83932
G1 X120.675 Y87.973 E3.99149
G1 X122.645 Y89.116 E4.14366 F1080.000
G1 X124.104 Y90.865 E4.29583
G1 X124.968 Y94.112 E4.52026
G1 X124.968 Y105.888 E5.30696
G1 X124.571 Y108.131 E5.45913
G1 X123.428 Y110.101 E5.61130
G1 X121.679 Y111.560 E5.76347
G1 X118.432 Y112.424 E5.98790
G1 X81.568 Y112.424 E8.45062
G1 X79.325 Y112.027 E8.60279
G1 X77.355 Y110.884 E8.75496
G1 X75.896 Y109.135 E8.90713
G1 X75.032 Y105.888 E9.13156
G1 X75.032 Y94.112 E9.91826
G1 X75.429 Y91.869 E10.07043
G1 X76.549 Y89.937 E10.21960
G1 E9.21960 F1800.00000
G92 E0
G1 X87.356 Y95.839 F7800.000
G1 E1.00000 F1800.00000
G1 X87.356 Y97.144 E1.08716 F540.000
G1 X88.148 Y97.472 E1.14440
G1 X88.752 Y97.936 E1.19530
G1 X89.216 Y98.540 E1.24621
G1 X89.508 Y99.244 E1.29712
G1 X89.607 Y100.000 E1.34803
G1 X89.508 Y100.756 E1.39893
G1 X89.216 Y101.460 E1.44984
G1 X88.752 Y102.064 E1.50075
G1 X88.148 Y102.528 E1.55166
G1 X87.444 Y102.820 E1.60256
G1 X86.688 Y102.919 E1.65347
G1 X85.932 Y102.820 E1.70438
G1 X85.228 Y102.528 E1.75529
G1 X84.624 Y102.064 E1.80620
G1 X84.160 Y101.460 E1.85710
G1 X83.868 Y100.756 E1.90801
G1 X83.769 Y100.000 E1.95892
G1 X83.868 Y99.244 E2.00983
G1 X84.160 Y98.540 E2.06073
G1 X84.624 Y97.936 E2.11164
G1 X87.320 Y95.867 E2.33870
G1 X86.820 Y96.926 F7800.000
G1 X86.820 Y97.643 E2.38663 F540.000
G1 X87.299 Y97.700 E2.41883
G1 X87.877 Y97.940 E2.46066
G1 X88.370 Y98.318 E2.50214
G1 X88.748 Y98.811 E2.54363
G1 X88.986 Y99.384 E2.58512
G1 X89.067 Y100.000 E2.62660
G1 X88.986 Y100.616 E2.66809
G1 X88.748 Y101.189 E2.70957
G1 X88.370 Y101.682 E2.75106
G1 X87.877 Y102.060 E2.79254
G1 X87.304 Y102.298 E2.83403
G1 X86.688 Y102.379 E2.87552
G1 X86.072 Y102.298 E2.91700
G1 X85.499 Y102.060 E2.95849
G1 X85.006 Y101.682 E2.99998
G1 X84.628 Y101.189 E3.04146
G1 X84.390 Y100.616 E3.08295
G1 X84.309 Y100.000 E3.12443
G1 X84.390 Y99.384 E3.16592
G1 X84.628 Y98.811 E3.20741
G1 X85.006 Y98.318 E3.24889
G1 X86.785 Y96.953 E3.39868
G1 X86.285 Y98.012 F7800.000
G1 X86.285 Y98.214 E3.41222 F540.000
G1 X86.667 Y98.164 E3.43796
G1 X87.162 Y98.223 E3.47129
G1 X87.607 Y98.408 E3.50348
G1 X87.988 Y98.700 E3.53554
G1 X88.280 Y99.081 E3.56761
G1 X88.464 Y99.524 E3.59967
G1 X88.527 Y100.000 E3.63174
G1 X88.464 Y100.476 E3.66380
G1 X88.280 Y100.919 E3.69587
G1 X87.988 Y101.300 E3.72793
G1 X87.607 Y101.592 E3.75999
G1 X87.164 Y101.776 E3.79206
G1 X86.688 Y101.839 E3.82412
G1 X86.212 Y101.776 E3.85619
G1 X85.769 Y101.592 E3.88825
G1 X85.388 Y101.300 E3.92032
G1 X85.096 Y100.919 E3.95238
G1 X84.912 Y100.476 E3.98445
G1 X84.849 Y100.000 E4.01651
G1 X84.912 Y99.524 E4.04857
G1 X85.096 Y99.081 E4.08064
G1 X85.388 Y98.700 E4.11270
G1 X86.249 Y98.039 E4.18522
G1 X86.483 Y97.968 F7800.000
G1 X110.392 Y99.992 F7800.000
G1 X110.503 Y99.219 E4.23739 F540.000
G1 X110.784 Y98.540 E4.28643
G1 X111.248 Y97.936 E4.33733
G1 X111.852 Y97.472 E4.38824
G1 X112.556 Y97.180 E4.43915
G1 X113.284 Y97.085 E4.48819 F540.000
G1 X114.060 Y97.177 E4.54036
G1 X114.772 Y97.472 E4.59183
G1 X115.376 Y97.936 E4.64274
G1 X115.840 Y98.540 E4.69365
G1 X116.132 Y99.244 E4.74456
G1 X116.232 Y100.008 E4.79603
G1 X116.121 Y100.781 E4.84820
G1 X115.840 Y101.460 E4.89724
G1 X115.376 Y102.064 E4.94815
G1 X114.772 Y102.528 E4.99905
G1 X114.068 Y102.820 E5.04996
G1 X113.312 Y102.919 E5.10087
G1 X112.556 Y102.820 E5.15178
G1 X111.852 Y102.528 E5.20269
G1 X111.248 Y102.064 E5.25359
G1 X110.784 Y101.460 E5.30450
G1 X110.492 Y100.756 E5.35541
G1 X110.398 Y100.036 E5.40387
G1 X110.932 Y99.995 F7800.000
G1 X111.024 Y99.361 E5.44663 F540.000
G1 X111.252 Y98.811 E5.48646
G1 X111.630 Y98.318 E5.52795
G1 X112.123 Y97.940 E5.56943
G1 X112.696 Y97.702 E5.61092
G1 X113.288 Y97.624 E5.65076 F540.000
G1 X113.923 Y97.700 E5.69351
G1 X114.501 Y97.940 E5.73534
G1 X114.994 Y98.318 E5.77682
G1 X115.372 Y98.811 E5.81831
G1 X115.610 Y99.384 E5.85980
G1 X115.691 Y100.005 E5.90162
G1 X115.600 Y100.639 E5.94438
G1 X115.372 Y101.189 E5.98421
G1 X114.994 Y101.682 E6.02570
G1 X114.501 Y102.060 E6.06718
G1 X113.928 Y102.298 E6.10867
G1 X113.312 Y102.379 E6.15016
G1 X112.696 Y102.298 E6.19164
G1 X112.123 Y102.060 E6.23313
G1 X111.630 Y101.682 E6.27462
G1 X111.252 Y101.189 E6.31610
G1 X111.014 Y100.616 E6.35759
G1 X110.938 Y100.040 E6.39641
G1 X111.473 Y99.998 F7800.000
G1 X111.544 Y99.504 E6.42974 F540.000
G1 X111.720 Y99.081 E6.46037
G1 X112.012 Y98.700 E6.49244
G1 X112.393 Y98.408 E6.52450
G1 X112.836 Y98.224 E6.55657
G1 X113.291 Y98.164 E6.58720 F540.000
G1 X113.786 Y98.223 E6.62053
G1 X114.231 Y98.408 E6.65272
G1 X114.612 Y98.700 E6.68478
G1 X114.904 Y99.081 E6.71685
G1 X115.088 Y99.524 E6.74891
G1 X115.151 Y100.002 E6.78110
G1 X115.080 Y100.496 E6.81443
G1 X114.904 Y100.919 E6.84506
G1 X114.612 Y101.300 E6.87713
G1 X114.231 Y101.592 E6.90919
G1 X113.788 Y101.776 E6.94126
G1 X113.312 Y101.839 E6.97332
G1 X112.836 Y101.776 E7.00539
G1 X112.393 Y101.592 E7.03745
G1 X112.012 Y101.300 E7.06952
G1 X111.720 Y100.919 E7.10158
G1 X111.536 Y100.476 E7.13364
G1 X111.479 Y100.043 E7.16283
G1 X111.221 Y99.835 F7800.000
G1 E6.16283 F1800.00000
G92 E0
G1 X117.061 Y95.483 F7800.000
G1 E1.00000 F1800.00000
G1 X117.061 Y104.517 E1.60349 F540.000
G1 X82.939 Y104.517 E3.88299
G1 X82.939 Y95.483 E4.48648
G1 X117.016 Y95.483 E6.76298
G1 X117.596 Y94.948 F7800.000
G1 X117.596 Y105.052 E7.43803 F540.000
G1 X82.404 Y105.052 E9.78909
G1 X82.404 Y94.948 E10.46415
G1 X117.551 Y94.948 E12.81221
G1 X118.132 Y94.412 F7800.000
G1 X118.132 Y105.588 E13.55883 F378.000
G1 X81.868 Y105.588 E15.98146
G1 X81.868 Y94.412 E16.72807
G1 X118.087 Y94.412 E19.14770
G1 X117.982 Y94.672 F7800.000
G1 X116.739 Y96.072 F7800.000
G1 X116.472 Y95.805 E19.17321 F1080.000
G1 X115.706 Y95.805 E19.22489
G1 X116.739 Y96.838 E19.32348
G1 X116.739 Y97.603 E19.37515
G1 X114.941 Y95.805 E19.54682
G1 X114.176 Y95.805 E19.59849
G1 X116.545 Y98.175 E19.82476
G1 X114.603 Y96.998 F7800.000
G1 X113.410 Y95.805 E19.93862 F1080.000
G1 X112.645 Y95.805 E19.99029
G1 X113.627 Y96.787 E20.08408
G1 X112.899 Y96.825 E20.13328
G1 X111.879 Y95.805 E20.23065
G1 X111.114 Y95.805 E20.28233
G1 X112.289 Y96.981 E20.39457
G1 X111.748 Y97.205 E20.43412
G1 X110.348 Y95.805 E20.56777
G1 X109.583 Y95.805 E20.61944
G1 X111.315 Y97.537 E20.78479
G1 X110.921 Y97.909 E20.82134
G1 X108.817 Y95.805 E21.02218
G1 X108.052 Y95.805 E21.07385
G1 X110.589 Y98.342 E21.31604
G1 X110.341 Y98.860 E21.35480
G1 X107.287 Y95.805 E21.64644
G1 X106.521 Y95.805 E21.69811
G1 X110.161 Y99.445 E22.04560
G1 X110.068 Y100.117 E22.09144
G1 X105.756 Y95.805 E22.50314
G1 X104.990 Y95.805 E22.55482
G1 X110.192 Y101.006 E23.05142
G1 X112.306 Y103.120 F7800.000
G1 X113.380 Y104.195 E23.15404 F1080.000
G1 X112.615 Y104.195 E23.20571
G1 X104.225 Y95.805 E24.00673
G1 X103.459 Y95.805 E24.05841
G1 X111.850 Y104.195 E24.85943
G1 X111.084 Y104.195 E24.91110
G1 X102.694 Y95.805 E25.71212
G1 X101.928 Y95.805 E25.76380
G1 X110.319 Y104.195 E26.56482
G1 X109.553 Y104.195 E26.61649
G1 X101.163 Y95.805 E27.41752
G1 X100.398 Y95.805 E27.46919
G1 X108.788 Y104.195 E28.27021
G1 X108.022 Y104.195 E28.32189
G1 X99.632 Y95.805 E29.12291
G1 X98.867 Y95.805 E29.17458
G1 X107.257 Y104.195 E29.97561
G1 X106.491 Y104.195 E30.02728
G1 X98.101 Y95.805 E30.82830
G1 X97.336 Y95.805 E30.87998
G1 X105.726 Y104.195 E31.68100
G1 X104.961 Y104.195 E31.73267
G1 X96.570 Y95.805 E32.53370
G1 X95.805 Y95.805 E32.58537
G1 X104.195 Y104.195 E33.38639
G1 X103.430 Y104.195 E33.43807
G1 X95.039 Y95.805 E34.23909
G1 X94.274 Y95.805 E34.29076
G1 X102.664 Y104.195 E35.09178
G1 X101.899 Y104.195 E35.14346
G1 X93.509 Y95.805 E35.94448
G1 X92.743 Y95.805 E35.99615
G1 X101.133 Y104.195 E36.79718
G1 X100.368 Y104.195 E36.84885
G1 X91.978 Y95.805 E37.64987
G1 X91.212 Y95.805 E37.70155
G1 X99.602 Y104.195 E38.50257
G1 X98.837 Y104.195 E38.55424
G1 X90.447 Y95.805 E39.35527
G1 X89.681 Y95.805 E39.40694
G1 X98.072 Y104.195 E40.20796
G1 X97.306 Y104.195 E40.25964
G1 X88.916 Y95.805 E41.06066
G1 X88.150 Y95.805 E41.11233
G1 X96.541 Y104.195 E41.91336
G1 X95.775 Y104.195 E41.96503
G1 X87.678 Y96.098 E42.73811
G1 X89.808 Y98.994 F7800.000
G1 X95.010 Y104.195 E43.23470 F1080.000
G1 X94.244 Y104.195 E43.28638
G1 X89.932 Y99.883 E43.69808
G1 X89.844 Y100.560 E43.74418
G1 X93.479 Y104.195 E44.09123
G1 X92.713 Y104.195 E44.14290
G1 X89.659 Y101.140 E44.43454
G1 X89.411 Y101.658 E44.47330
G1 X91.948 Y104.195 E44.71548
G1 X91.183 Y104.195 E44.76716
G1 X89.079 Y102.091 E44.96799
G1 X88.685 Y102.463 E45.00455
G1 X90.417 Y104.195 E45.16989
G1 X89.652 Y104.195 E45.22156
G1 X88.252 Y102.795 E45.35521
G1 X87.711 Y103.019 E45.39476
G1 X88.886 Y104.195 E45.50700
G1 X88.121 Y104.195 E45.55868
G1 X87.101 Y103.175 E45.65605
G1 X86.379 Y103.219 E45.70488
G1 X87.355 Y104.195 E45.79809
G1 X86.590 Y104.195 E45.84977
G1 X85.397 Y103.002 E45.96364
G1 X85.059 Y104.195 F7800.000
G1 X83.261 Y102.397 E46.13530 F1080.000
G1 X83.454 Y101.825 E46.17606
G1 X85.824 Y104.195 E46.40232
G1 X84.294 Y104.195 F7800.000
G1 X83.261 Y103.162 E46.50091 F1080.000
G1 X83.261 Y103.928 E46.55258
G1 X83.528 Y104.195 E46.57809
G1 X113.195 Y103.244 F7800.000
G1 X114.146 Y104.195 E46.66890 F1080.000
G1 X114.911 Y104.195 E46.72057
G1 X113.872 Y103.156 E46.81980
G1 X114.452 Y102.971 E46.86092
G1 X115.677 Y104.195 E46.97782
G1 X116.442 Y104.195 E47.02949
G1 X114.970 Y102.723 E47.17002
G1 X115.403 Y102.391 E47.20687
G1 X116.739 Y103.727 E47.33439
G1 X116.739 Y102.961 E47.38606
G1 X115.775 Y101.997 E47.47808
G1 X116.381 Y101.838 E47.52038
G1 X116.739 Y102.196 E47.55456
G1 X116.466 Y101.502 F7800.000
G1 X116.579 Y100.935 E47.63646 F360.000
G1 X116.626 Y100.326 E47.72286
G1 X116.626 Y100.326 F7800.000
G1 X116.647 Y99.991 E47.74532 F360.000
G1 X116.625 Y99.649 E47.76818
G1 X116.625 Y99.650 F7800.000
G1 X116.585 Y99.095 E47.84694 F360.000
G1 X116.466 Y98.498 E47.93312
G1 X86.593 Y96.052 F7800.000
G1 X86.345 Y95.805 E47.95960 F1080.000
G1 X86.121 Y96.439 E48.01056
G1 X85.487 Y95.805 E48.07850
G1 X84.628 Y95.805 E48.14354
G1 X85.635 Y96.812 E48.25141
G1 X85.149 Y97.185 E48.29780
G1 X83.769 Y95.805 E48.44561
G1 X83.261 Y96.155 E48.49237
G1 X84.663 Y97.558 E48.64259
G1 X84.236 Y97.989 E48.68858
G1 X83.261 Y97.014 E48.79298
G1 X83.261 Y97.873 E48.85801
G1 X83.534 Y98.145 E48.88722
G1 X83.534 Y98.498 F7800.000
G1 X83.415 Y99.095 E48.97340 F360.000
G1 X83.375 Y99.649 E49.05215
G1 X83.375 Y99.649 F7800.000
G1 X83.354 Y99.981 E49.07434 F360.000
G1 X83.375 Y100.351 E49.09908
G1 X83.375 Y100.351 F7800.000
G1 X83.415 Y100.905 E49.17782 F360.000
G1 X83.534 Y101.502 E49.26400
M106 S255
G1 E48.26400 F1800.00000
G92 E0
G1 Z0.500 F7800.000
G1 X88.960 Y99.391 F7800.000
G1 E1.00000 F1800.00000
G1 X89.040 Y100.000 E1.01804 F1691.414
G1 X88.960 Y100.609 E1.03608
G1 X88.725 Y101.176 E1.05412
G1 X88.351 Y101.663 E1.07217
G1 X87.864 Y102.037 E1.09021
G1 X87.297 Y102.272 E1.10825
G1 X86.688 Y102.352 E1.12629
G1 X86.079 Y102.272 E1.14433
G1 X85.512 Y102.037 E1.16237
G1 X85.025 Y101.663 E1.18041
G1 X84.651 Y101.176 E1.19845
G1 X84.416 Y100.609 E1.21650
G1 X84.335 Y99.988 E1.23490
G1 X84.441 Y99.332 E1.25443
G1 X84.651 Y98.824 E1.27058
G1 X85.025 Y98.337 E1.28862
G1 X85.512 Y97.963 E1.30666
G1 X86.079 Y97.728 E1.32470
G1 X86.624 Y97.657 E1.34085 F1691.414
G1 X87.285 Y97.724 E1.36038
G1 X87.864 Y97.963 E1.37878
G1 X88.351 Y98.337 E1.39682
G1 X88.725 Y98.824 E1.41486
G1 X88.942 Y99.350 E1.43158
G1 X88.615 Y99.484 F7800.000
G1 X88.683 Y100.000 E1.44689 F1691.414
G1 X88.615 Y100.516 E1.46220
G1 X88.416 Y100.998 E1.47750
G1 X88.099 Y101.411 E1.49281
G1 X87.686 Y101.728 E1.50812
G1 X87.204 Y101.927 E1.52342
G1 X86.688 Y101.995 E1.53873
G1 X86.172 Y101.927 E1.55403
G1 X85.690 Y101.728 E1.56934
G1 X85.277 Y101.411 E1.58465
G1 X84.960 Y100.998 E1.59995
G1 X84.761 Y100.516 E1.61526
G1 X84.692 Y99.993 E1.63077
G1 X84.783 Y99.429 E1.64757
G1 X84.960 Y99.002 E1.66114
G1 X85.277 Y98.589 E1.67644
G1 X85.690 Y98.272 E1.69175
G1 X86.172 Y98.073 E1.70706
G1 X86.629 Y98.013 E1.72062 F1691.414
G1 X87.198 Y98.070 E1.73742
G1 X87.686 Y98.272 E1.75293
G1 X88.099 Y98.589 E1.76824
G1 X88.416 Y99.002 E1.78354
G1 X88.598 Y99.442 E1.79753
G1 X88.318 Y99.563 F7800.000
G1 X88.375 Y100.000 E1.80694 F1691.414
G1 X88.318 Y100.437 E1.81636
G1 X88.149 Y100.844 E1.82577
G1 X87.881 Y101.193 E1.83519
G1 X87.532 Y101.461 E1.84461
G1 X87.125 Y101.630 E1.85402
G1 X86.688 Y101.687 E1.86344
G1 X86.251 Y101.630 E1.87285
G1 X85.844 Y101.461 E1.88227
G1 X85.495 Y101.193 E1.89168
G1 X85.227 Y100.844 E1.90110
G1 X85.058 Y100.437 E1.91052
G1 X85.000 Y99.998 E1.91998
G1 X85.079 Y99.513 E1.93048
G1 X85.227 Y99.156 E1.93873
G1 X85.495 Y98.807 E1.94814
G1 X85.844 Y98.539 E1.95756
G1 X86.251 Y98.370 E1.96698
G1 X86.634 Y98.320 E1.97523 F1691.414
G1 X87.123 Y98.369 E1.98573
G1 X87.532 Y98.539 E1.99519
G1 X87.881 Y98.807 E2.00461
G1 X88.149 Y99.156 E2.01402
G1 X88.301 Y99.522 E2.02247
G1 X88.604 Y99.654 F7800.000
G1 X110.959 Y99.988 F7800.000
G1 X111.065 Y99.332 E2.04201 F1691.414
G1 X111.275 Y98.824 E2.05815
G1 X111.649 Y98.337 E2.07619
G1 X112.136 Y97.963 E2.09423
G1 X112.703 Y97.728 E2.11228
G1 X113.248 Y97.657 E2.12842 F1691.414
G1 X113.909 Y97.724 E2.14795
G1 X114.488 Y97.963 E2.16636
G1 X114.975 Y98.337 E2.18440
G1 X115.349 Y98.824 E2.20244
G1 X115.584 Y99.391 E2.22048
G1 X115.664 Y100.000 E2.23852
G1 X115.584 Y100.609 E2.25656
G1 X115.349 Y101.176 E2.27460
G1 X114.975 Y101.663 E2.29265
G1 X114.488 Y102.037 E2.31069
G1 X113.921 Y102.272 E2.32873
G1 X113.312 Y102.352 E2.34677
G1 X112.703 Y102.272 E2.36481
G1 X112.136 Y102.037 E2.38285
G1 X111.649 Y101.663 E2.40089
G1 X111.275 Y101.176 E2.41894
G1 X111.040 Y100.609 E2.43698
G1 X110.965 Y100.032 E2.45406
G1 X111.316 Y99.993 F7800.000
G1 X111.407 Y99.429 E2.47085 F1691.414
G1 X111.584 Y99.002 E2.48442
G1 X111.901 Y98.589 E2.49973
G1 X112.314 Y98.272 E2.51504
G1 X112.796 Y98.073 E2.53034
G1 X113.253 Y98.013 E2.54391 F1691.414
G1 X113.822 Y98.070 E2.56071
G1 X114.310 Y98.272 E2.57622
G1 X114.723 Y98.589 E2.59152
G1 X115.040 Y99.002 E2.60683
G1 X115.239 Y99.484 E2.62214
G1 X115.307 Y100.000 E2.63744
G1 X115.239 Y100.516 E2.65275
G1 X115.040 Y100.998 E2.66806
G1 X114.723 Y101.411 E2.68336
G1 X114.310 Y101.728 E2.69867
G1 X113.828 Y101.927 E2.71398
G1 X113.312 Y101.995 E2.72928
G1 X112.796 Y101.927 E2.74459
G1 X112.314 Y101.728 E2.75990
G1 X111.901 Y101.411 E2.77520
G1 X111.584 Y100.998 E2.79051
G1 X111.385 Y100.516 E2.80581
G1 X111.322 Y100.038 E2.82000
G1 X111.624 Y99.998 F7800.000
G1 X111.703 Y99.513 E2.83050 F1691.414
G1 X111.851 Y99.156 E2.83875
G1 X112.119 Y98.807 E2.84817
G1 X112.468 Y98.539 E2.85758
G1 X112.875 Y98.370 E2.86700
G1 X113.258 Y98.320 E2.87525 F1691.414
G1 X113.747 Y98.369 E2.88575
G1 X114.156 Y98.539 E2.89521
G1 X114.505 Y98.807 E2.90463
G1 X114.773 Y99.156 E2.91404
G1 X114.942 Y99.563 E2.92346
G1 X114.999 Y100.000 E2.93288
G1 X114.942 Y100.437 E2.94229
G1 X114.773 Y100.844 E2.95171
G1 X114.505 Y101.193 E2.96112
G1 X114.156 Y101.461 E2.97054
G1 X113.749 Y101.630 E2.97995
G1 X113.312 Y101.687 E2.98937
G1 X112.875 Y101.630 E2.99879
G1 X112.468 Y101.461 E3.00820
G1 X112.119 Y101.193 E3.01762
G1 X111.851 Y100.844 E3.02703
G1 X111.682 Y100.437 E3.03645
G1 X111.630 Y100.042 E3.04495
G1 X111.375 Y99.832 F7800.000
G1 E2.04495 F1800.00000
G92 E0
G1 X117.623 Y94.921 F7800.000
G1 E1.00000 F1800.00000
G1 X117.623 Y105.079 E1.29854 F1691.414
G1 X82.377 Y105.079 E2.33436
G1 X82.377 Y94.921 E2.63290
G1 X117.578 Y94.921 E3.66740
G1 X117.977 Y94.567 F7800.000
